Zeyu1-oss/dynamics_calibration_airbot/state_machine_demo/real_data/vali_ptrnSrch_N7T25QR-5.csv
time,q1,q2,q3,q4,q5,q6,qv1,qv2,qv3,qv4,qv5,qv6,tau1,tau2,tau3,tau4,tau5,tau6,q_des1,q_des2,q_des3,q_des4,q_des5,q_des6,qv_des1,qv_des2,qv_des3,qv_des4,qv_des5,qv_des6
0.000002,-0.000954,-1.571870,0.994316,-0.000191,-0.000191,-0.000191,-0.004396,-0.004396,-0.004396,-0.007326,-0.007326,0.007326,0.241758,3.113553,1.794872,0.017094,-0.002442,-0.012210,0.000000,-1.570796,0.994838,0.000000,0.000000,0.000000,-0.000000,-0.000000,0.000000,-0.000000,-0.000000,-0.000000
0.005362,-0.000954,-1.571870,0.994316,-0.000191,-0.000191,-0.000191,-0.004396,-0.004396,-0.004396,-0.007326,-0.021978,0.007326,0.212454,3.040293,1.794872,0.019536,-0.002442,-0.012210,0.000000,-1.570796,0.994838,0.000000,0.000000,-0.000000,0.000005,0.000001,-0.000002,0.000010,0.000012,-0.000007
0.010579,-0.000954,-1.571870,0.994316,-0.000191,-0.000191,-0.000191,-0.004396,-0.004396,-0.004396,0.007326,-0.007326,-0.021978,0.236874,3.015873,1.789988,0.018722,-0.002442,-0.012210,0.000000,-1.570796,0.994838,0.000000,0.000000,-0.000000,0.000022,0.000005,-0.000009,0.000041,0.000047,-0.000027
0.015686,-0.000954,-1.571870,0.994316,-0.000191,-0.000191,-0.000191,-0.004396,-0.004396,-0.004396,-0.007326,-0.007326,-0.021978,0.227106,3.040293,1.791209,0.018315,-0.003663,-0.012210,0.000000,-1.570796,0.994838,0.000001,0.000001,-0.000000,0.000049,0.000012,-0.000021,0.000092,0.000107,-0.000062
0.020813,-0.000954,-1.571870,0.994316,-0.000191,-0.000191,-0.000191,-0.004396,-0.004396,-0.004396,-0.007326,-0.007326,0.021978,0.224176,3.043223,1.762637,0.018071,-0.003419,-0.012210,0.000001,-1.570796,0.994837,0.000001,0.000001,-0.000001,0.000087,0.000022,-0.000037,0.000164,0.000190,-0.000110
0.025934,-0.000954,-1.571870,0.994316,-0.000191,-0.000191,-0.000191,-0.004396,-0.004396,-0.004396,-0.021978,-0.007326,-0.021978,0.219780,3.057387,1.760684,0.017908,-0.002442,-0.011396,0.000001,-1.570796,0.994837,0.000002,0.000003,-0.000002,0.000136,0.000034,-0.000058,0.000256,0.000297,-0.000172
0.031066,-0.000954,-1.571870,0.994316,-0.000191,-0.000191,-0.000191,-0.004396,-0.004396,-0.004396,-0.021978,-0.007326,0.007326,0.220827,3.048666,1.755102,0.017094,-0.003140,-0.011512,0.000002,-1.570796,0.994837,0.000004,0.000004,-0.000003,0.000196,0.000049,-0.000084,0.000368,0.000427,-0.000248
0.036197,-0.000954,-1.571870,0.994316,-0.000191,-0.000191,-0.000191,-0.004396,-0.004396,-0.004396,0.007326,-0.007326,-0.021978,0.217949,3.051282,1.745421,0.016484,-0.003053,-0.011600,0.000003,-1.570796,0.994836,0.000006,0.000007,-0.000004,0.000267,0.000067,-0.000114,0.000500,0.000581,-0.000338
0.041289,-0.000954,-1.571870,0.994316,-0.000191,-0.000191,-0.000191,-0.004396,-0.004396,-0.004396,-0.007326,-0.021978,-0.007326,0.217338,3.040293,1.737892,0.016551,-0.003527,-0.011667,0.000005,-1.570795,0.994836,0.000009,0.000011,-0.000006,0.000348,0.000088,-0.000149,0.000652,0.000759,-0.000442
0.046389,-0.000954,-1.571870,0.994316,-0.000191,-0.000191,-0.000191,-0.004396,-0.004396,-0.004396,0.007326,-0.021978,-0.007326,0.227106,3.038828,1.740659,0.016606,-0.003419,-0.011722,0.000007,-1.570795,0.994835,0.000013,0.000015,-0.000009,0.000440,0.000111,-0.000189,0.000824,0.000961,-0.000561
0.051537,-0.000954,-1.571870,0.994316,-0.000191,-0.000191,-0.000191,-0.004396,-0.004396,-0.004396,0.007326,0.007326,-0.007326,0.222711,3.034432,1.742125,0.016606,-0.003419,-0.011722,0.000009,-1.570794,0.994834,0.000017,0.000020,-0.000012,0.000543,0.000137,-0.000233,0.001016,0.001186,-0.000693
0.056652,-0.000954,-1.571870,0.994316,-0.000191,-0.000191,-0.000191,-0.004396,-0.004396,-0.004396,0.007326,-0.021978,-0.007326,0.225641,3.040293,1.734799,0.016117,-0.003419,-0.011722,0.000012,-1.570793,0.994832,0.000023,0.000027,-0.000016,0.000657,0.000166,-0.000281,0.001228,0.001435,-0.000840
0.061791,-0.000954,-1.571870,0.994316,-0.000191,-0.000191,-0.000191,-0.004396,-0.004396,-0.004396,-0.007326,-0.007326,0.021978,0.221245,3.052015,1.736264,0.015629,-0.003419,-0.011722,0.000016,-1.570792,0.994831,0.000030,0.000035,-0.000020,0.000781,0.000198,-0.000335,0.001459,0.001708,-0.001002
0.066941,-0.000954,-1.571870,0.994316,-0.000191,-0.000191,-0.000191,-0.004396,-0.004396,-0.004396,0.007326,-0.007326,0.007326,0.225641,3.046154,1.731868,0.016117,-0.002930,-0.011722,0.000020,-1.570791,0.994829,0.000038,0.000044,-0.000026,0.000917,0.000232,-0.000392,0.001710,0.002004,-0.001178
0.072037,-0.000954,-1.571870,0.994316,-0.000191,-0.000191,-0.000191,-0.004396,-0.004396,-0.004396,0.007326,-0.007326,-0.007326,0.227106,3.047619,1.746520,0.015629,-0.002930,-0.011722,0.000025,-1.570790,0.994827,0.000047,0.000055,-0.000032,0.001062,0.000269,-0.000455,0.001981,0.002324,-0.001368
0.077149,-0.000954,-1.571870,0.994316,-0.000191,-0.000191,-0.000191,-0.004396,-0.004396,-0.004396,-0.007326,-0.007326,0.007326,0.227106,3.031502,1.746520,0.015629,-0.003907,-0.012210,0.000031,-1.570788,0.994824,0.000058,0.000068,-0.000040,0.001219,0.000309,-0.000521,0.002271,0.002668,-0.001573
0.082217,-0.000954,-1.571870,0.994316,-0.000191,-0.000191,-0.000191,-0.004396,-0.004396,-0.004396,-0.007326,0.007326,-0.007326,0.234432,3.041758,1.749451,0.016117,-0.003907,-0.012698,0.000038,-1.570787,0.994822,0.000070,0.000082,-0.000048,0.001386,0.000352,-0.000593,0.002581,0.003035,-0.001793
0.087342,-0.000954,-1.571870,0.994316,-0.000191,-0.000191,-0.000191,-0.004396,-0.004396,-0.004396,-0.007326,-0.036630,-0.007326,0.238828,3.037363,1.747985,0.016606,-0.003907,-0.012698,0.000045,-1.570785,0.994818,0.000084,0.000099,-0.000058,0.001564,0.000397,-0.000668,0.002910,0.003425,-0.002028
0.092440,-0.000954,-1.571870,0.994316,-0.000191,-0.000191,-0.000191,-0.004396,-0.004396,-0.004396,-0.021978,-0.007326,0.007326,0.244689,3.053480,1.759707,0.016606,-0.003907,-0.012698,0.000054,-1.570783,0.994815,0.000100,0.000117,-0.000069,0.001752,0.000445,-0.000749,0.003258,0.003839,-0.002277
0.097535,-0.000954,-1.571870,0.994316,-0.000191,-0.000191,-0.000191,-0.004396,-0.004396,-0.004396,0.007326,0.007326,0.007326,0.230037,3.053480,1.750916,0.016606,-0.004396,-0.012698,0.000063,-1.570780,0.994811,0.000117,0.000138,-0.000081,0.001951,0.000496,-0.000833,0.003625,0.004277,-0.002541
0.102643,-0.000954,-1.571870,0.994316,-0.000191,-0.000191,-0.000191,-0.004396,-0.004396,-0.004396,-0.021978,-0.007326,0.007326,0.231502,3.044689,1.742125,0.015629,-0.004884,-0.012698,0.000073,-1.570778,0.994806,0.000137,0.000160,-0.000095,0.002160,0.000549,-0.000922,0.004011,0.004738,-0.002821
0.107724,-0.000954,-1.571870,0.994316,-0.000191,-0.000191,-0.000191,-0.004396,-0.004396,-0.004396,-0.021978,0.007326,-0.007326,0.234432,3.052015,1.747985,0.014652,-0.004884,-0.012698,0.000085,-1.570775,0.994801,0.000158,0.000186,-0.000110,0.002380,0.000606,-0.001015,0.004416,0.005222,-0.003115
0.112825,-0.000954,-1.571870,0.994316,-0.000191,-0.000191,-0.000191,-0.004396,-0.004396,-0.004396,0.007326,-0.007326,-0.021978,0.234432,3.054945,1.746520,0.015140,-0.004884,-0.012698,0.000097,-1.570772,0.994796,0.000181,0.000213,-0.000126,0.002610,0.000665,-0.001113,0.004841,0.005730,-0.003424
0.117988,-0.000954,-1.571870,0.994316,-0.000191,-0.000191,-0.000191,-0.004396,-0.004396,-0.004396,0.007326,0.007326,0.007326,0.234432,3.057875,1.740659,0.014652,-0.004884,-0.012698,0.000111,-1.570768,0.994790,0.000207,0.000243,-0.000144,0.002851,0.000726,-0.001215,0.005283,0.006261,-0.003748
0.123116,-0.000954,-1.571870,0.994316,-0.000191,-0.000191,-0.000191,-0.004396,-0.004396,-0.004396,-0.021978,-0.007326,-0.021978,0.231502,3.047619,1.734799,0.015140,-0.004396,-0.012698,0.000126,-1.570764,0.994784,0.000235,0.000276,-0.000164,0.003102,0.000791,-0.001322,0.005745,0.006815,-0.004088
0.128281,-0.000954,-1.571870,0.994316,-0.000191,-0.000191,-0.000191,0.004396,-0.004396,-0.004396,-0.021978,-0.007326,0.007326,0.241758,3.053480,1.739194,0.014652,-0.003907,-0.012698,0.000142,-1.570760,0.994777,0.000265,0.000312,-0.000185,0.003364,0.000858,-0.001432,0.006225,0.007393,-0.004443
0.133379,-0.000954,-1.571870,0.994316,-0.000191,-0.000191,-0.000191,-0.004396,-0.004396,-0.004396,-0.007326,0.007326,-0.007326,0.234432,3.041758,1.745055,0.014164,-0.002930,-0.012210,0.000160,-1.570756,0.994769,0.000297,0.000351,-0.000209,0.003635,0.000928,-0.001547,0.006724,0.007993,-0.004813
0.138497,-0.000954,-1.571870,0.994316,-0.000191,-0.000191,-0.000191,0.004396,-0.004396,-0.004396,-0.007326,-0.021978,0.007326,0.234432,3.040293,1.758242,0.013675,-0.002930,-0.012698,0.000179,-1.570751,0.994761,0.000332,0.000393,-0.000234,0.003917,0.001000,-0.001666,0.007241,0.008617,-0.005198
0.143597,-0.000954,-1.571870,0.994316,-0.000191,-0.000191,-0.000191,-0.004396,-0.004396,-0.004396,-0.007326,-0.007326,-0.021978,0.232967,3.038828,1.753846,0.014164,-0.002930,-0.012698,0.000200,-1.570746,0.994753,0.000370,0.000438,-0.000261,0.004210,0.001075,-0.001789,0.007776,0.009264,-0.005599
0.148709,-0.000954,-1.571870,0.994316,-0.000191,-0.000191,-0.000191,0.004396,-0.004396,-0.004396,-0.007326,-0.007326,-0.007326,0.240293,3.032967,1.765568,0.014164,-0.002930,-0.012698,0.000221,-1.570740,0.994743,0.000411,0.000486,-0.000290,0.004512,0.001153,-0.001917,0.008330,0.009933,-0.006015
0.153843,-0.000954,-1.571870,0.994316,-0.000191,-0.000191,-0.000191,-0.004396,-0.004396,-0.004396,-0.007326,-0.007326,0.021978,0.253480,3.041758,1.772894,0.015140,-0.001954,-0.012698,0.000245,-1.570734,0.994733,0.000454,0.000538,-0.000322,0.004825,0.001233,-0.002048,0.008902,0.010626,-0.006447
0.158942,-0.000954,-1.571870,0.994316,-0.000191,-0.000191,-0.000191,-0.004396,-0.004396,-0.004396,-0.007326,-0.021978,-0.021978,0.253480,3.037363,1.774359,0.016117,-0.002442,-0.012698,0.000270,-1.570728,0.994723,0.000500,0.000593,-0.000355,0.005148,0.001317,-0.002184,0.009492,0.011341,-0.006894
0.164043,-0.000954,-1.571870,0.994316,-0.000191,-0.000191,-0.000191,-0.004396,-0.004396,-0.004396,-0.007326,-0.007326,0.007326,0.250549,3.035897,1.768498,0.016117,-0.002442,-0.012698,0.000297,-1.570721,0.994711,0.000550,0.000652,-0.000391,0.005481,0.001402,-0.002323,0.010100,0.012080,-0.007357
0.169158,-0.000954,-1.571870,0.994316,-0.000191,-0.000191,-0.000191,0.004396,-0.004396,-0.004396,-0.007326,-0.007326,-0.007326,0.253480,3.032967,1.767033,0.017094,-0.002442,-0.012698,0.000325,-1.570713,0.994699,0.000602,0.000715,-0.000429,0.005824,0.001491,-0.002467,0.010726,0.012841,-0.007835
0.174210,-0.000954,-1.571870,0.994316,-0.000191,-0.000191,-0.000191,-0.004396,-0.004396,-0.004396,-0.007326,-0.007326,0.021978,0.260806,3.052015,1.772894,0.018071,-0.002930,-0.012698,0.000355,-1.570706,0.994686,0.000658,0.000781,-0.000470,0.006178,0.001582,-0.002615,0.011369,0.013624,-0.008329
0.179330,-0.000954,-1.571870,0.994316,-0.000191,-0.000191,-0.000191,-0.004396,-0.004396,-0.004396,0.007326,-0.007326,-0.007326,0.254945,3.068132,1.759707,0.018559,-0.002930,-0.012698,0.000387,-1.570698,0.994673,0.000716,0.000852,-0.000513,0.006541,0.001675,-0.002766,0.012030,0.014431,-0.008839
0.184434,-0.000954,-1.571870,0.994316,-0.000191,-0.000191,-0.000191,0.004396,-0.004396,-0.004396,0.021978,0.007326,-0.007326,0.259341,3.085714,1.756777,0.019536,-0.002930,-0.012698,0.000421,-1.570689,0.994659,0.000779,0.000926,-0.000559,0.006914,0.001772,-0.002922,0.012709,0.015259,-0.009365
0.189565,-0.000954,-1.571870,0.994316,-0.000191,-0.000191,-0.000191,-0.004396,-0.004396,-0.004396,-0.007326,0.007326,-0.021978,0.257875,3.094505,1.755311,0.020513,-0.001954,-0.012210,0.000457,-1.570680,0.994644,0.000844,0.001005,-0.000607,0.007297,0.001870,-0.003081,0.013405,0.016111,-0.009906
0.194682,-0.000954,-1.571870,0.994316,-0.000191,-0.000191,-0.000191,0.004396,-0.004396,-0.004396,-0.021978,-0.021978,-0.007326,0.256410,3.090110,1.755311,0.021001,-0.000977,-0.012210,0.000495,-1.570670,0.994628,0.000913,0.001088,-0.000659,0.007690,0.001972,-0.003244,0.014119,0.016984,-0.010463
0.199795,-0.000954,-1.571870,0.994316,-0.000191,-0.000191,-0.000191,0.004396,-0.004396,-0.004396,0.007326,-0.007326,-0.021978,0.256410,3.100366,1.749451,0.021490,0.000488,-0.012210,0.000534,-1.570660,0.994611,0.000986,0.001176,-0.000713,0.008093,0.002076,-0.003411,0.014850,0.017880,-0.011037
0.204939,-0.000954,-1.571870,0.994316,-0.000191,-0.000191,-0.000191,0.004396,-0.004396,-0.004396,-0.007326,0.021978,0.021978,0.240293,3.110623,1.739194,0.021978,-0.000000,-0.012210,0.000576,-1.570649,0.994593,0.001063,0.001268,-0.000770,0.008506,0.002182,-0.003582,0.015598,0.018798,-0.011626
0.210562,-0.000954,-1.571870,0.994316,-0.000191,-0.000191,-0.000191,-0.004396,-0.004396,-0.004396,-0.007326,-0.007326,-0.021978,0.232967,3.112088,1.737729,0.022955,0.000977,-0.012210,0.000666,-1.570626,0.994556,0.001227,0.001467,-0.000893,0.009360,0.002403,-0.003934,0.017146,0.020700,-0.012852
0.215688,-0.000954,-1.571488,0.994316,-0.000191,-0.000191,-0.000191,-0.004396,-0.004396,-0.004396,-0.007326,-0.007326,-0.007326,0.228571,3.116483,1.739194,0.023443,0.001465,-0.012210,0.000714,-1.570614,0.994535,0.001315,0.001573,-0.000959,0.009802,0.002517,-0.004116,0.017945,0.021684,-0.013489
0.220840,-0.000954,-1.571488,0.994316,-0.000191,-0.000191,-0.000191,0.004396,-0.004396,-0.004396,-0.007326,-0.007326,-0.007326,0.225641,3.129670,1.746520,0.022955,0.002442,-0.012210,0.000764,-1.570601,0.994514,0.001407,0.001684,-0.001028,0.010253,0.002633,-0.004301,0.018761,0.022690,-0.014143
0.225951,-0.000572,-1.571488,0.994316,-0.000191,-0.000191,-0.000191,0.004396,-0.004396,-0.004396,0.007326,-0.021978,-0.007326,0.216850,3.132601,1.745055,0.022955,0.003419,-0.012210,0.000817,-1.570587,0.994492,0.001504,0.001801,-0.001101,0.010714,0.002752,-0.004490,0.019594,0.023718,-0.014812
0.231067,-0.000572,-1.571488,0.994316,-0.000191,-0.000191,-0.000191,0.004396,-0.004396,-0.004396,-0.021978,-0.007326,-0.021978,0.194872,3.136996,1.761172,0.023932,0.005372,-0.012210,0.000872,-1.570573,0.994469,0.001604,0.001923,-0.001177,0.011185,0.002874,-0.004683,0.020443,0.024767,-0.015498
0.236207,-0.000572,-1.571488,0.994316,-0.000191,-0.000191,-0.000191,0.004396,0.004396,-0.004396,-0.007326,-0.021978,-0.007326,0.172894,3.134066,1.768498,0.024420,0.005861,-0.012210,0.000929,-1.570558,0.994445,0.001709,0.002050,-0.001257,0.011665,0.002997,-0.004878,0.021309,0.025838,-0.016200
0.241311,-0.000572,-1.571488,0.994316,-0.000191,-0.000191,-0.000191,0.004396,-0.004396,-0.004396,-0.021978,-0.007326,-0.007326,0.146520,3.148718,1.768498,0.025397,0.006349,-0.012698,0.000989,-1.570543,0.994420,0.001818,0.002182,-0.001340,0.012154,0.003124,-0.005077,0.022191,0.026930,-0.016918
0.246427,-0.000572,-1.571488,0.994316,-0.000191,-0.000191,-0.000191,0.004396,-0.004396,-0.004396,0.007326,-0.021978,-0.021978,0.124542,3.160439,1.780220,0.025885,0.007326,-0.012698,0.001051,-1.570527,0.994394,0.001932,0.002320,-0.001426,0.012653,0.003252,-0.005280,0.023090,0.028043,-0.017653
0.251743,-0.000572,-1.571488,0.994316,-0.000191,-0.000191,-0.000191,0.013187,-0.004396,-0.004396,-0.007326,-0.007326,-0.007326,0.092308,3.178022,1.778755,0.027350,0.008303,-0.013187,0.001116,-1.570510,0.994367,0.002050,0.002464,-0.001517,0.013161,0.003383,-0.005486,0.024005,0.029178,-0.018403
0.256892,-0.000572,-1.571488,0.994316,-0.000191,-0.000191,-0.000191,0.004396,-0.004396,-0.004396,0.007326,-0.007326,-0.021978,0.070330,3.170696,1.783150,0.028816,0.009280,-0.013675,0.001183,-1.570493,0.994339,0.002173,0.002613,-0.001611,0.013678,0.003517,-0.005695,0.024936,0.030334,-0.019171
0.262008,-0.000572,-1.571488,0.994316,-0.000191,-0.000191,-0.000191,0.004396,-0.004396,-0.004396,-0.007326,0.007326,-0.007326,0.043956,3.176557,1.778755,0.030281,0.010256,-0.014164,0.001253,-1.570475,0.994310,0.002300,0.002768,-0.001709,0.014205,0.003652,-0.005907,0.025882,0.031511,-0.019954
0.267138,-0.000191,-1.571488,0.994316,-0.000191,-0.000191,-0.000191,-0.004396,-0.004396,-0.004396,-0.007326,-0.007326,-0.007326,0.023443,3.182418,1.775824,0.032723,0.011722,-0.014652,0.001326,-1.570456,0.994280,0.002433,0.002929,-0.001812,0.014741,0.003790,-0.006122,0.026845,0.032709,-0.020754
0.272290,-0.000191,-1.571488,0.994316,-0.000191,-0.000191,-0.000191,-0.004396,-0.004396,-0.004396,0.007326,-0.021978,-0.021978,-0.008791,3.182418,1.775824,0.035165,0.012210,-0.015140,0.001401,-1.570437,0.994249,0.002570,0.003097,-0.001918,0.015285,0.003931,-0.006341,0.027824,0.033927,-0.021570
0.277380,-0.000191,-1.571488,0.994316,-0.000191,0.000191,-0.000191,-0.004396,-0.004396,-0.004396,-0.007326,0.007326,0.007326,-0.030769,3.195604,1.775824,0.037607,0.012698,-0.015629,0.001479,-1.570417,0.994216,0.002712,0.003270,-0.002028,0.015839,0.004073,-0.006562,0.028818,0.035167,-0.022403
0.282483,-0.000191,-1.571488,0.994316,-0.000191,0.000191,-0.000191,-0.004396,-0.004396,-0.004396,0.007326,0.007326,0.007326,-0.032234,3.204396,1.774359,0.039072,0.012698,-0.016117,0.001560,-1.570396,0.994183,0.002859,0.003450,-0.002143,0.016402,0.004218,-0.006787,0.029828,0.036426,-0.023252
0.287640,-0.000191,-1.571488,0.994316,-0.000191,-0.000191,-0.000191,-0.004396,-0.004396,-0.004396,0.007326,-0.021978,0.007326,-0.041026,3.214652,1.755311,0.041026,0.013675,-0.016606,0.001644,-1.570375,0.994148,0.003011,0.003636,-0.002262,0.016974,0.004365,-0.007014,0.030853,0.037707,-0.024118
0.292753,-0.000191,-1.571488,0.994316,-0.000191,0.000191,-0.000191,-0.004396,-0.004396,-0.004396,-0.007326,0.007326,0.007326,-0.041026,3.226374,1.756777,0.042491,0.014164,-0.016606,0.001731,-1.570352,0.994112,0.003169,0.003828,-0.002385,0.017555,0.004515,-0.007244,0.031894,0.039007,-0.025001
0.297868,-0.000191,-1.571488,0.994316,-0.000191,0.000191,-0.000191,-0.004396,-0.004396,-0.004396,-0.007326,0.007326,0.007326,-0.042491,3.245421,1.742125,0.044933,0.015140,-0.017582,0.001820,-1.570329,0.994075,0.003331,0.004027,-0.002513,0.018144,0.004666,-0.007478,0.032950,0.040328,-0.025899
0.303001,-0.000191,-1.571488,0.994316,-0.000191,0.000191,-0.000191,-0.004396,-0.004396,-0.004396,-0.007326,0.007326,-0.007326,-0.029304,3.261538,1.745055,0.047863,0.014652,-0.018071,0.001913,-1.570306,0.994037,0.003499,0.004233,-0.002645,0.018742,0.004820,-0.007713,0.034021,0.041668,-0.026815
0.308103,-0.000191,-1.571488,0.994316,-0.000191,0.000191,-0.000191,-0.004396,-0.004396,-0.004396,0.007326,-0.007326,0.007326,-0.023443,3.292308,1.739194,0.050305,0.016606,-0.018071,0.002008,-1.570281,0.993998,0.003673,0.004445,-0.002782,0.019349,0.004976,-0.007952,0.035107,0.043029,-0.027747
0.313217,-0.000191,-1.571488,0.994316,-0.000191,0.000191,-0.000191,-0.004396,-0.004396,-0.004396,-0.036630,0.007326,0.007326,-0.008791,3.306960,1.752381,0.052259,0.017582,-0.018071,0.002107,-1.570256,0.993958,0.003851,0.004664,-0.002923,0.019965,0.005134,-0.008193,0.036208,0.044410,-0.028696
0.318370,-0.000191,-1.571488,0.994316,-0.000191,0.000191,-0.000191,-0.004396,-0.004396,-0.004396,-0.007326,0.007326,-0.007326,0.004396,3.333333,1.747985,0.055189,0.018071,-0.018559,0.002208,-1.570230,0.993916,0.004036,0.004891,-0.003070,0.020589,0.005294,-0.008437,0.037324,0.045810,-0.029661
0.323460,-0.000191,-1.571488,0.994316,0.000191,0.000191,-0.000191,-0.004396,-0.004396,-0.004396,0.007326,0.007326,-0.007326,0.014652,3.358242,1.740659,0.057143,0.019536,-0.019048,0.002313,-1.570203,0.993873,0.004226,0.005124,-0.003221,0.021222,0.005456,-0.008683,0.038455,0.047229,-0.030643
0.328575,-0.000191,-1.571488,0.994316,0.000191,0.000191,-0.000191,-0.004396,0.004396,-0.004396,0.007326,-0.007326,0.007326,0.027839,3.368498,1.742125,0.060073,0.021001,-0.020024,0.002421,-1.570175,0.993829,0.004421,0.005364,-0.003377,0.021863,0.005620,-0.008932,0.039600,0.048668,-0.031642
0.333671,-0.000191,-1.571488,0.994316,0.000191,0.000191,-0.000191,-0.004396,-0.004396,-0.004396,0.007326,-0.007326,-0.021978,0.039560,3.369963,1.736264,0.063980,0.021978,-0.021001,0.002533,-1.570146,0.993783,0.004623,0.005612,-0.003538,0.022513,0.005787,-0.009183,0.040760,0.050126,-0.032657
0.338759,-0.000191,-1.571488,0.994316,0.000191,0.000572,-0.000191,-0.004396,0.004396,-0.004396,-0.007326,0.007326,-0.021978,0.057143,3.374359,1.749451,0.066422,0.022955,-0.022466,0.002647,-1.570117,0.993737,0.004830,0.005867,-0.003705,0.023171,0.005955,-0.009437,0.041934,0.051604,-0.033689
0.343859,-0.000191,-1.571488,0.994316,0.000191,0.000572,-0.000191,0.004396,-0.004396,-0.004396,0.007326,0.036630,-0.007326,0.071795,3.374359,1.742125,0.068376,0.024908,-0.023932,0.002765,-1.570086,0.993689,0.005044,0.006130,-0.003876,0.023837,0.006125,-0.009693,0.043123,0.053100,-0.034738
0.348942,-0.000191,-1.571488,0.994316,0.000191,0.000572,-0.000191,0.004396,0.004396,-0.004396,0.021978,0.007326,-0.007326,0.092308,3.365568,1.749451,0.070330,0.026374,-0.024908,0.002886,-1.570055,0.993640,0.005263,0.006400,-0.004053,0.024511,0.006297,-0.009951,0.044326,0.054615,-0.035804
0.354030,-0.000191,-1.571488,0.994316,0.000572,0.000572,-0.000191,0.004396,-0.004396,-0.004396,0.007326,0.007326,-0.036630,0.109890,3.361172,1.752381,0.070330,0.028327,-0.025885,0.003011,-1.570023,0.993589,0.005488,0.006677,-0.004235,0.025194,0.006471,-0.010211,0.045543,0.056149,-0.036886
0.359125,-0.000191,-1.571488,0.994316,0.000572,0.000572,-0.000191,0.004396,0.004396,-0.004396,0.007326,0.007326,-0.007326,0.126007,3.352381,1.756777,0.070818,0.028816,-0.027839,0.003139,-1.569990,0.993537,0.005719,0.006963,-0.004423,0.025885,0.006647,-0.010473,0.046774,0.057701,-0.037985
0.364214,-0.000191,-1.571107,0.994316,0.000572,0.000572,-0.000191,0.004396,-0.004396,-0.004396,0.007326,0.007326,-0.021978,0.140659,3.353846,1.747985,0.071795,0.029792,-0.029304,0.003270,-1.569957,0.993484,0.005957,0.007256,-0.004616,0.026583,0.006825,-0.010737,0.048018,0.059272,-0.039101
0.369309,-0.000191,-1.571107,0.994316,0.000954,0.000954,-0.000191,0.004396,-0.004396,-0.004396,0.007326,0.007326,-0.007326,0.158242,3.355311,1.755311,0.068864,0.031258,-0.031258,0.003405,-1.569922,0.993430,0.006201,0.007557,-0.004815,0.027290,0.007005,-0.011004,0.049277,0.060861,-0.040233
0.374390,0.000191,-1.571107,0.994316,0.000954,0.000954,-0.000191,0.004396,0.004396,-0.004396,0.007326,-0.007326,-0.007326,0.180220,3.356776,1.756777,0.067399,0.032234,-0.032723,0.003544,-1.569886,0.993374,0.006451,0.007866,-0.005020,0.028004,0.007186,-0.011272,0.050549,0.062468,-0.041383
0.379472,0.000191,-1.571107,0.994316,0.000954,0.000954,-0.000191,0.004396,0.004396,-0.004396,-0.007326,0.007326,-0.007326,0.200733,3.359707,1.745055,0.065446,0.034188,-0.034188,0.003686,-1.569850,0.993317,0.006708,0.008183,-0.005230,0.028727,0.007370,-0.011542,0.051835,0.064093,-0.042549
0.384588,0.000191,-1.571107,0.994316,0.000954,0.000954,-0.000191,0.004396,0.004396,-0.004396,0.021978,-0.007326,-0.007326,0.210989,3.359707,1.734799,0.062515,0.036630,-0.036142,0.003832,-1.569813,0.993258,0.006971,0.008509,-0.005447,0.029457,0.007555,-0.011813,0.053134,0.065735,-0.043732
0.389687,0.000191,-1.571107,0.994316,0.000954,0.000954,-0.000191,0.013187,0.004396,-0.004396,0.007326,-0.007326,0.007326,0.215385,3.359707,1.733333,0.060073,0.039560,-0.037607,0.003981,-1.569774,0.993198,0.007240,0.008842,-0.005669,0.030194,0.007741,-0.012087,0.054446,0.067395,-0.044932
0.394786,0.000191,-1.571107,0.994316,0.001335,0.000954,-0.000191,0.021978,0.004396,-0.004396,0.021978,0.007326,-0.021978,0.216850,3.364102,1.727473,0.059096,0.042002,-0.039072,0.004135,-1.569735,0.993137,0.007517,0.009184,-0.005897,0.030939,0.007930,-0.012362,0.055772,0.069073,-0.046149
0.399880,0.000572,-1.571107,0.994316,0.001335,0.000954,-0.000191,0.030769,0.004396,-0.004396,0.021978,-0.007326,0.007326,0.186081,3.374359,1.721612,0.056166,0.044933,-0.040537,0.004292,-1.569695,0.993074,0.007799,0.009535,-0.006132,0.031692,0.008120,-0.012638,0.057110,0.070768,-0.047382
0.404994,0.000954,-1.571107,0.994316,0.001335,0.001335,-0.000572,0.030769,0.004396,-0.004396,0.021978,0.021978,-0.021978,0.143590,3.365568,1.721612,0.053724,0.049817,-0.042979,0.004452,-1.569654,0.993010,0.008089,0.009894,-0.006372,0.032452,0.008312,-0.012916,0.058462,0.072479,-0.048632
0.410091,0.000954,-1.571107,0.994316,0.001717,0.001335,-0.000572,0.004396,0.004396,-0.004396,0.036630,0.007326,-0.021978,0.118681,3.345055,1.728938,0.051282,0.054701,-0.045421,0.004785,-1.569568,0.992878,0.008689,0.010638,-0.006873,0.033995,0.008700,-0.013476,0.061204,0.075954,-0.051184
0.415180,0.000954,-1.571107,0.994316,0.001335,0.001335,-0.000572,-0.004396,0.004396,-0.004396,-0.007326,0.007326,-0.036630,0.098169,3.331868,1.718681,0.048840,0.059585,-0.047863,0.004958,-1.569524,0.992810,0.008999,0.011023,-0.007132,0.034777,0.008897,-0.013758,0.062594,0.077716,-0.052484
0.420380,0.000954,-1.571107,0.994316,0.001717,0.001335,-0.000572,-0.004396,0.004396,-0.004396,0.007326,0.021978,-0.021978,0.076190,3.301099,1.711355,0.048352,0.063980,-0.049328,0.005134,-1.569479,0.992740,0.009316,0.011417,-0.007399,0.035566,0.009095,-0.014041,0.063996,0.079494,-0.053802
0.425489,0.000954,-1.571107,0.994316,0.001717,0.001335,-0.000572,-0.004396,-0.004396,-0.013187,0.021978,0.007326,-0.007326,0.058608,3.277656,1.706960,0.047375,0.069353,-0.051282,0.005314,-1.569433,0.992669,0.009640,0.011819,-0.007672,0.036362,0.009294,-0.014326,0.065411,0.081289,-0.055136
0.430609,0.000954,-1.571107,0.994316,0.001717,0.001717,-0.000572,0.004396,0.004396,-0.004396,0.007326,0.021978,-0.036630,0.033700,3.246886,1.695238,0.044933,0.074237,-0.053236,0.005498,-1.569386,0.992597,0.009972,0.012231,-0.007951,0.037165,0.009495,-0.014611,0.066839,0.083100,-0.056488
0.435744,0.000954,-1.570726,0.994316,0.002098,0.001717,-0.000572,0.004396,0.004396,-0.004396,0.021978,-0.007326,-0.036630,0.026374,3.221978,1.690843,0.043956,0.078144,-0.055189,0.005687,-1.569338,0.992523,0.010310,0.012652,-0.008238,0.037975,0.009697,-0.014897,0.068278,0.084926,-0.057856
0.440830,0.000954,-1.570726,0.994316,0.002098,0.002098,-0.000572,0.004396,0.004396,-0.004396,0.007326,0.036630,-0.021978,0.027839,3.194139,1.658608,0.043468,0.082051,-0.057143,0.005879,-1.569289,0.992447,0.010656,0.013082,-0.008531,0.038792,0.009901,-0.015184,0.069730,0.086769,-0.059241
0.445923,0.000954,-1.570726,0.994316,0.002098,0.002098,-0.000572,0.004396,0.004396,-0.004396,0.021978,0.036630,-0.021978,0.035165,3.167765,1.641026,0.042491,0.084493,-0.059096,0.006075,-1.569239,0.992370,0.011009,0.013522,-0.008832,0.039616,0.010106,-0.015472,0.071193,0.088627,-0.060642
0.451065,0.000954,-1.570726,0.994316,0.002098,0.002098,-0.000954,0.004396,0.004396,-0.004396,0.007326,0.021978,-0.007326,0.064469,3.144322,1.613187,0.042491,0.086447,-0.061050,0.006276,-1.569188,0.992292,0.011369,0.013971,-0.009139,0.040446,0.010312,-0.015761,0.072668,0.090500,-0.062061
0.456177,0.001335,-1.570726,0.994316,0.002480,0.002480,-0.000954,0.013187,0.004396,-0.004396,0.021978,0.036630,-0.021978,0.106960,3.119414,1.582418,0.043468,0.086447,-0.063004,0.006481,-1.569135,0.992213,0.011737,0.014429,-0.009454,0.041283,0.010520,-0.016050,0.074155,0.092388,-0.063496
0.461289,0.001335,-1.570726,0.994316,0.002480,0.002480,-0.000954,0.013187,0.004396,-0.004396,0.007326,0.036630,-0.007326,0.130403,3.126740,1.542857,0.044933,0.086447,-0.064957,0.006690,-1.569082,0.992131,0.012112,0.014896,-0.009776,0.042126,0.010729,-0.016340,0.075654,0.094291,-0.064948
0.466419,0.001335,-1.570726,0.993935,0.002480,0.003243,-0.000954,0.021978,0.004396,-0.013187,0.007326,0.021978,-0.021978,0.136264,3.117949,1.513553,0.046398,0.083516,-0.067399,0.006903,-1.569028,0.992049,0.012495,0.015374,-0.010105,0.042976,0.010939,-0.016630,0.077164,0.096209,-0.066417
0.471520,0.001717,-1.570726,0.993935,0.002861,0.003243,-0.000954,0.030769,0.004396,-0.013187,0.021978,0.021978,-0.021978,0.126007,3.119414,1.485714,0.048352,0.081563,-0.070330,0.007120,-1.568973,0.991965,0.012885,0.015860,-0.010441,0.043832,0.011150,-0.016921,0.078686,0.098142,-0.067902
0.476633,0.001717,-1.570726,0.993935,0.002861,0.003243,-0.000954,0.021978,0.004396,-0.013187,0.007326,0.036630,0.007326,0.124542,3.109157,1.472528,0.051282,0.078632,-0.073748,0.007342,-1.568916,0.991879,0.013284,0.016357,-0.010785,0.044695,0.011362,-0.017212,0.080219,0.100089,-0.069405
0.481762,0.001717,-1.570726,0.993935,0.002861,0.003624,-0.001335,0.013187,0.004396,-0.013187,0.007326,0.021978,-0.036630,0.128938,3.110623,1.466667,0.055678,0.075702,-0.076679,0.007568,-1.568859,0.991792,0.013689,0.016863,-0.011137,0.045563,0.011576,-0.017503,0.081763,0.102050,-0.070924
0.486911,0.001717,-1.570726,0.993935,0.002861,0.003624,-0.001335,0.004396,-0.004396,-0.013187,0.021978,0.051282,-0.021978,0.131868,3.128205,1.452015,0.058608,0.073260,-0.079121,0.007798,-1.568800,0.991704,0.014103,0.017379,-0.011496,0.046438,0.011790,-0.017794,0.083318,0.104025,-0.072460
0.492022,0.001717,-1.570726,0.993935,0.003243,0.004005,-0.001335,0.004396,-0.004396,-0.021978,0.007326,0.036630,-0.021978,0.136264,3.136996,1.456410,0.062027,0.069841,-0.082051,0.008033,-1.568741,0.991614,0.014524,0.017906,-0.011863,0.047319,0.012006,-0.018086,0.084884,0.106014,-0.074012
0.497169,0.002098,-1.570344,0.993553,0.003243,0.004387,-0.001717,0.004396,-0.004396,-0.013187,0.021978,0.036630,-0.051282,0.150916,3.135531,1.449084,0.066911,0.067399,-0.084982,0.008272,-1.568680,0.991523,0.014953,0.018442,-0.012238,0.048205,0.012222,-0.018377,0.086461,0.108016,-0.075581
0.502405,0.002098,-1.570344,0.993553,0.003624,0.004387,-0.002098,0.004396,-0.004396,-0.013187,0.021978,0.021978,-0.051282,0.165568,3.139927,1.446154,0.071306,0.064957,-0.087424,0.008516,-1.568618,0.991430,0.015390,0.018988,-0.012621,0.049098,0.012440,-0.018669,0.088048,0.110032,-0.077167
0.507515,0.002098,-1.570344,0.993553,0.003624,0.004387,-0.002098,0.004396,-0.004396,-0.013187,0.021978,0.036630,-0.051282,0.193407,3.170696,1.452015,0.074237,0.064469,-0.088889,0.008764,-1.568555,0.991336,0.015835,0.019544,-0.013011,0.049996,0.012658,-0.018960,0.089646,0.112061,-0.078770
0.512686,0.002098,-1.570344,0.993553,0.003624,0.004768,-0.002480,0.004396,-0.004396,-0.013187,0.021978,0.036630,-0.051282,0.224176,3.186813,1.465201,0.077656,0.063004,-0.089377,0.009017,-1.568491,0.991240,0.016288,0.020110,-0.013410,0.050899,0.012878,-0.019251,0.091255,0.114103,-0.080389
0.517811,0.002098,-1.570344,0.993553,0.004005,0.004768,-0.002861,0.013187,-0.004396,-0.013187,0.021978,0.007326,-0.080586,0.275458,3.210256,1.476923,0.080586,0.064957,-0.089377,0.009274,-1.568426,0.991143,0.016749,0.020687,-0.013817,0.051809,0.013098,-0.019541,0.092874,0.116158,-0.082025
0.522945,0.002098,-1.570344,0.993553,0.004005,0.005150,-0.002861,0.013187,-0.004396,-0.013187,0.036630,0.036630,-0.080586,0.323810,3.223443,1.491575,0.083516,0.066911,-0.087424,0.009536,-1.568360,0.991045,0.017219,0.021274,-0.014232,0.052724,0.013319,-0.019832,0.094503,0.118226,-0.083677
0.528090,0.002480,-1.570344,0.993553,0.004387,0.005150,-0.003243,0.030769,-0.004396,-0.013187,0.036630,0.021978,-0.065934,0.361905,3.235165,1.481319,0.084982,0.070330,-0.084493,0.009802,-1.568293,0.990945,0.017696,0.021871,-0.014655,0.053644,0.013540,-0.020121,0.096143,0.120305,-0.085346
0.533279,0.002861,-1.570344,0.993553,0.004768,0.005531,-0.004005,0.057143,0.004396,-0.013187,0.036630,0.021978,-0.065934,0.328205,3.255678,1.484249,0.085470,0.073260,-0.081074,0.010073,-1.568225,0.990843,0.018182,0.022479,-0.015087,0.054569,0.013763,-0.020410,0.097792,0.122397,-0.087032
0.538407,0.002861,-1.570344,0.993553,0.004768,0.005913,-0.004005,0.030769,0.004396,-0.013187,0.036630,0.036630,-0.036630,0.316484,3.255678,1.478388,0.085958,0.076190,-0.077656,0.010349,-1.568155,0.990740,0.018676,0.023098,-0.015527,0.055500,0.013986,-0.020699,0.099451,0.124501,-0.088734
0.543485,0.003243,-1.570344,0.993172,0.005150,0.005913,-0.004005,0.013187,0.004396,-0.013187,0.065934,0.036630,-0.021978,0.306227,3.268864,1.476923,0.084493,0.079609,-0.074237,0.010629,-1.568084,0.990636,0.019178,0.023726,-0.015976,0.056436,0.014209,-0.020986,0.101120,0.126617,-0.090452
0.548584,0.003243,-1.570344,0.993172,0.005531,0.006294,-0.004005,0.021978,0.004396,-0.013187,0.051282,0.036630,-0.007326,0.298901,3.289377,1.484249,0.080098,0.083516,-0.072283,0.010914,-1.568013,0.990530,0.019689,0.024366,-0.016434,0.057376,0.014434,-0.021273,0.102799,0.128744,-0.092188
0.553703,0.003243,-1.570344,0.993172,0.005531,0.006676,-0.004005,0.030769,0.004396,-0.013187,0.036630,0.065934,-0.021978,0.281319,3.287912,1.487180,0.075702,0.085958,-0.070818,0.011204,-1.567940,0.990423,0.020208,0.025016,-0.016900,0.058322,0.014659,-0.021559,0.104487,0.130883,-0.093939
0.558844,0.003624,-1.570344,0.993172,0.005913,0.007057,-0.004005,0.039560,0.004396,-0.021978,0.036630,0.065934,-0.021978,0.232967,3.287912,1.481319,0.072772,0.085958,-0.069353,0.011499,-1.567866,0.990314,0.020735,0.025677,-0.017375,0.059273,0.014884,-0.021844,0.106185,0.133032,-0.095707
0.563950,0.003624,-1.569963,0.993172,0.005913,0.007439,-0.004387,0.039560,0.004396,-0.021978,0.021978,0.095238,-0.036630,0.168498,3.283516,1.481319,0.068864,0.084005,-0.068864,0.011798,-1.567791,0.990204,0.021271,0.026348,-0.017859,0.060228,0.015110,-0.022127,0.107892,0.135193,-0.097491
0.569051,0.004005,-1.569963,0.992790,0.006294,0.007820,-0.004387,0.013187,0.004396,-0.021978,0.007326,0.036630,-0.021978,0.145055,3.282051,1.484249,0.066422,0.081563,-0.069841,0.012102,-1.567715,0.990093,0.021816,0.027031,-0.018351,0.061188,0.015336,-0.022410,0.109608,0.137364,-0.099292
0.574136,0.004005,-1.569963,0.992790,0.006676,0.008202,-0.004387,0.013187,0.004396,-0.021978,0.051282,0.051282,-0.036630,0.136264,3.264469,1.481319,0.063980,0.081074,-0.073260,0.012411,-1.567637,0.989980,0.022369,0.027724,-0.018853,0.062152,0.015563,-0.022691,0.111334,0.139545,-0.101109
0.579212,0.004005,-1.569963,0.992790,0.006676,0.008202,-0.004768,0.004396,0.004396,-0.021978,0.036630,0.021978,-0.036630,0.136264,3.257143,1.503297,0.062515,0.079121,-0.077656,0.012724,-1.567559,0.989865,0.022931,0.028429,-0.019364,0.063121,0.015790,-0.022970,0.113068,0.141737,-0.102943
0.584315,0.004005,-1.569963,0.992790,0.006676,0.008583,-0.004768,0.013187,0.004396,-0.013187,0.021978,0.065934,-0.021978,0.210989,3.245421,1.506227,0.063492,0.076679,-0.082540,0.013043,-1.567479,0.989750,0.023501,0.029144,-0.019885,0.064094,0.016017,-0.023249,0.114811,0.143939,-0.104792
0.589409,0.004387,-1.569963,0.992790,0.007057,0.008583,-0.004768,0.013187,0.004396,-0.013187,0.036630,0.021978,-0.051282,0.257875,3.233700,1.513553,0.066422,0.076190,-0.087424,0.013366,-1.567398,0.989633,0.024081,0.029870,-0.020414,0.065071,0.016245,-0.023525,0.116563,0.146150,-0.106658
0.594487,0.004387,-1.569581,0.992790,0.007057,0.008965,-0.005150,0.013187,0.004396,-0.013187,0.036630,0.036630,-0.051282,0.293040,3.243956,1.506227,0.070818,0.077167,-0.091819,0.013695,-1.567316,0.989514,0.024669,0.030608,-0.020953,0.066053,0.016473,-0.023800,0.118323,0.148371,-0.108540
0.599568,0.004768,-1.569581,0.992790,0.007820,0.009346,-0.005531,0.057143,0.004396,-0.013187,0.051282,0.036630,-0.065934,0.285714,3.241026,1.498901,0.076679,0.081074,-0.095726,0.014028,-1.567233,0.989394,0.025266,0.031356,-0.021501,0.067039,0.016701,-0.024073,0.120092,0.150602,-0.110439
0.604655,0.005150,-1.569581,0.992409,0.007820,0.009728,-0.005531,0.065934,0.004396,-0.013187,0.036630,0.080586,-0.051282,0.254945,3.254212,1.479854,0.083028,0.086935,-0.099145,0.014366,-1.567149,0.989273,0.025872,0.032116,-0.022059,0.068028,0.016929,-0.024345,0.121870,0.152841,-0.112353
0.609759,0.005150,-1.569581,0.992409,0.008202,0.010109,-0.005913,0.039560,0.004396,-0.013187,0.080586,0.109890,-0.065934,0.262271,3.257143,1.463736,0.085470,0.091331,-0.102076,0.014709,-1.567064,0.989151,0.026486,0.032887,-0.022627,0.069022,0.017158,-0.024614,0.123656,0.155090,-0.114284
0.615013,0.005531,-1.569581,0.992409,0.008583,0.010491,-0.006294,0.039560,0.004396,-0.013187,0.080586,0.080586,-0.051282,0.295971,3.264469,1.443223,0.087912,0.095726,-0.104029,0.015410,-1.566890,0.988902,0.027743,0.034463,-0.023791,0.071020,0.017615,-0.025147,0.127251,0.159612,-0.118193
0.620137,0.005531,-1.569581,0.992409,0.008965,0.010872,-0.006676,0.057143,0.004396,-0.013187,0.051282,0.051282,-0.095238,0.259341,3.277656,1.422711,0.088400,0.098657,-0.104029,0.015768,-1.566801,0.988775,0.028384,0.035267,-0.024388,0.072024,0.017843,-0.025409,0.129061,0.161886,-0.120172
0.625221,0.005913,-1.569581,0.992409,0.009346,0.011254,-0.007057,0.057143,0.004396,-0.013187,0.065934,0.051282,-0.095238,0.203663,3.289377,1.390476,0.088400,0.100611,-0.102076,0.016131,-1.566711,0.988647,0.029035,0.036084,-0.024995,0.073032,0.018072,-0.025670,0.130879,0.164167,-0.122167
0.630338,0.005913,-1.569581,0.992409,0.009346,0.011635,-0.007439,0.021978,0.004396,-0.013187,0.065934,0.065934,-0.095238,0.165568,3.318681,1.358242,0.087912,0.101587,-0.098657,0.016500,-1.566620,0.988518,0.029695,0.036911,-0.025612,0.074043,0.018300,-0.025928,0.132704,0.166457,-0.124177
0.635530,0.006294,-1.569581,0.992409,0.010109,0.012398,-0.007820,0.013187,0.004396,-0.013187,0.065934,0.080586,-0.065934,0.149451,3.342124,1.326007,0.085470,0.102564,-0.096703,0.016873,-1.566528,0.988388,0.030364,0.037751,-0.026239,0.075057,0.018528,-0.026184,0.134537,0.168754,-0.126204
0.640715,0.006294,-1.569581,0.992409,0.010109,0.012398,-0.007820,0.013187,-0.004396,-0.021978,0.036630,0.080586,-0.021978,0.136264,3.375824,1.293773,0.083028,0.099634,-0.096215,0.017251,-1.566435,0.988256,0.031042,0.038601,-0.026876,0.076075,0.018756,-0.026437,0.136377,0.171058,-0.128246
0.645885,0.006294,-1.569581,0.992027,0.010491,0.012779,-0.008202,0.021978,0.004396,-0.021978,0.036630,0.065934,-0.036630,0.123077,3.396337,1.276191,0.080098,0.098657,-0.096215,0.017635,-1.566340,0.988123,0.031730,0.039463,-0.027523,0.077095,0.018984,-0.026687,0.138225,0.173369,-0.130304
0.651120,0.006676,-1.569200,0.992027,0.010491,0.013161,-0.008202,0.039560,-0.004396,-0.021978,0.036630,0.051282,-0.036630,0.124542,3.412454,1.260073,0.077656,0.095726,-0.096215,0.018023,-1.566244,0.987989,0.032426,0.040337,-0.028181,0.078119,0.019211,-0.026935,0.140080,0.175687,-0.132378
0.656289,0.007057,-1.569200,0.992027,0.010872,0.013542,-0.008583,0.074725,0.004396,-0.030769,0.051282,0.080586,-0.065934,0.123077,3.434432,1.254212,0.076679,0.092308,-0.096703,0.018417,-1.566148,0.987853,0.033132,0.041223,-0.028849,0.079145,0.019438,-0.027180,0.141942,0.178011,-0.134467
0.661446,0.007439,-1.569200,0.991646,0.011254,0.014305,-0.008965,0.030769,0.004396,-0.030769,0.065934,0.080586,-0.021978,0.133333,3.459341,1.258608,0.080098,0.090354,-0.098657,0.018816,-1.566050,0.987717,0.033847,0.042120,-0.029528,0.080174,0.019665,-0.027421,0.143810,0.180342,-0.136572
0.666558,0.007439,-1.569200,0.991646,0.011635,0.015068,-0.008965,0.030769,0.004396,-0.030769,0.065934,0.153846,-0.051282,0.133333,3.479853,1.268865,0.084982,0.087912,-0.101099,0.019220,-1.565951,0.987579,0.034572,0.043028,-0.030217,0.081206,0.019892,-0.027660,0.145686,0.182678,-0.138693
0.671679,0.007820,-1.569200,0.991646,0.012016,0.015831,-0.009346,0.057143,0.004396,-0.030769,0.051282,0.183150,-0.080586,0.136264,3.493040,1.277656,0.090354,0.081563,-0.104029,0.019629,-1.565851,0.987440,0.035306,0.043949,-0.030917,0.082240,0.020117,-0.027895,0.147569,0.185021,-0.140830
0.676821,0.008202,-1.569200,0.991264,0.012398,0.015831,-0.010109,0.057143,0.004396,-0.030769,0.080586,0.095238,-0.095238,0.140659,3.531135,1.304029,0.094750,0.072772,-0.106471,0.020043,-1.565749,0.987300,0.036050,0.044881,-0.031628,0.083277,0.020343,-0.028127,0.149458,0.187369,-0.142981
0.681937,0.008202,-1.569200,0.991264,0.012779,0.016213,-0.010491,0.021978,0.004396,-0.030769,0.095238,0.036630,-0.124542,0.158242,3.547253,1.330403,0.098168,0.067399,-0.107937,0.020463,-1.565647,0.987159,0.036803,0.045825,-0.032349,0.084315,0.020568,-0.028356,0.151354,0.189722,-0.145149
0.687076,0.008202,-1.569200,0.991264,0.013161,0.016213,-0.010872,0.013187,0.013187,-0.030769,0.095238,0.021978,-0.153846,0.161172,3.557509,1.365568,0.100122,0.065446,-0.106471,0.020887,-1.565544,0.987016,0.037565,0.046781,-0.033081,0.085356,0.020792,-0.028581,0.153256,0.192081,-0.147331
0.692180,0.008583,-1.568818,0.990883,0.013542,0.017357,-0.011635,0.030769,0.013187,-0.030769,0.051282,0.124542,-0.080586,0.165568,3.554579,1.418315,0.100611,0.066911,-0.103541,0.021317,-1.565439,0.986873,0.038337,0.047748,-0.033825,0.086399,0.021016,-0.028803,0.155165,0.194444,-0.149529
0.697294,0.008965,-1.568818,0.990883,0.013924,0.018120,-0.012016,0.057143,0.021978,-0.030769,0.065934,0.139194,-0.051282,0.149451,3.538461,1.463736,0.103053,0.061538,-0.101099,0.021752,-1.565333,0.986728,0.039119,0.048727,-0.034579,0.087445,0.021239,-0.029021,0.157079,0.196812,-0.151743
0.702450,0.008965,-1.568818,0.990883,0.014305,0.018502,-0.012016,0.074725,0.013187,-0.030769,0.065934,0.095238,-0.051282,0.130403,3.528205,1.509158,0.106471,0.052259,-0.098657,0.022193,-1.565226,0.986582,0.039910,0.049719,-0.035344,0.088491,0.021461,-0.029235,0.159000,0.199185,-0.153971
0.707570,0.009346,-1.568437,0.990883,0.014687,0.018883,-0.012398,0.021978,0.013187,-0.021978,0.065934,0.065934,-0.065934,0.177289,3.506227,1.556044,0.108425,0.043468,-0.097680,0.022638,-1.565118,0.986435,0.040711,0.050722,-0.036121,0.089540,0.021682,-0.029445,0.160927,0.201561,-0.156215
0.712669,0.009346,-1.568437,0.990501,0.014687,0.018883,-0.012398,0.021978,0.013187,-0.021978,0.036630,0.065934,-0.051282,0.203663,3.473993,1.585348,0.111355,0.038095,-0.096215,0.023089,-1.565009,0.986287,0.041521,0.051737,-0.036909,0.090590,0.021903,-0.029652,0.162860,0.203941,-0.158474
0.717788,0.009728,-1.568437,0.990501,0.015450,0.019646,-0.012779,0.030769,0.013187,-0.013187,0.065934,0.095238,-0.095238,0.238828,3.444689,1.595604,0.111355,0.036630,-0.094750,0.023545,-1.564899,0.986139,0.042341,0.052763,-0.037708,0.091642,0.022123,-0.029854,0.164798,0.206325,-0.160748
0.722889,0.010109,-1.568437,0.990501,0.016213,0.020409,-0.013161,0.074725,0.013187,-0.013187,0.095238,0.095238,-0.065934,0.254945,3.419780,1.594139,0.106471,0.040537,-0.092796,0.024007,-1.564788,0.985989,0.043171,0.053802,-0.038518,0.092695,0.022342,-0.030052,0.166742,0.208713,-0.163036
0.727997,0.010491,-1.568055,0.990501,0.016594,0.020790,-0.013924,0.048352,0.013187,-0.013187,0.095238,0.051282,-0.109890,0.300366,3.383150,1.582418,0.103053,0.047375,-0.091819,0.024473,-1.564675,0.985838,0.044011,0.054853,-0.039340,0.093750,0.022560,-0.030246,0.168691,0.211103,-0.165340
0.733118,0.010491,-1.568055,0.990501,0.016976,0.020790,-0.014305,0.039560,0.013187,-0.013187,0.080586,0.051282,-0.124542,0.320879,3.346520,1.551648,0.102564,0.056166,-0.090842,0.024945,-1.564562,0.985686,0.044860,0.055916,-0.040174,0.094805,0.022777,-0.030435,0.170646,0.213496,-0.167659
0.738218,0.010872,-1.568055,0.990501,0.017357,0.021172,-0.015068,0.057143,0.013187,-0.013187,0.080586,0.080586,-0.183150,0.317949,3.306960,1.520879,0.103541,0.062027,-0.089866,0.025422,-1.564447,0.985533,0.045719,0.056990,-0.041019,0.095862,0.022993,-0.030620,0.172606,0.215892,-0.169993
0.743338,0.011254,-1.568055,0.990501,0.017739,0.022316,-0.015831,0.092308,0.021978,-0.013187,0.065934,0.197802,-0.168498,0.276923,3.273260,1.476923,0.104029,0.062027,-0.087424,0.025905,-1.564332,0.985380,0.046588,0.058077,-0.041876,0.096920,0.023208,-0.030800,0.174571,0.218290,-0.172341
0.748405,0.011254,-1.567674,0.990120,0.018120,0.023079,-0.016213,0.048352,0.021978,-0.013187,0.080586,0.197802,-0.124542,0.276923,3.239560,1.428571,0.102564,0.060073,-0.083516,0.026393,-1.564215,0.985225,0.047467,0.059176,-0.042745,0.097978,0.023422,-0.030976,0.176541,0.220691,-0.174704
0.753496,0.011635,-1.567674,0.990120,0.018502,0.023461,-0.016594,0.030769,0.013187,-0.021978,0.065934,0.051282,-0.021978,0.329670,3.207326,1.375824,0.103053,0.063004,-0.080586,0.026886,-1.564097,0.985070,0.048355,0.060286,-0.043626,0.099038,0.023634,-0.031147,0.178516,0.223093,-0.177082
0.758579,0.012016,-1.567674,0.990120,0.018883,0.023842,-0.016594,0.048352,0.013187,-0.021978,0.095238,0.051282,-0.051282,0.338462,3.186813,1.320147,0.103053,0.070330,-0.077167,0.027384,-1.563979,0.984914,0.049254,0.061409,-0.044518,0.100098,0.023846,-0.031313,0.180496,0.225497,-0.179474
0.763680,0.012398,-1.567292,0.990120,0.020027,0.025368,-0.017357,0.065934,0.004396,-0.021978,0.109890,0.183150,-0.065934,0.309158,3.172161,1.270330,0.099145,0.072772,-0.074237,0.027888,-1.563859,0.984756,0.050162,0.062544,-0.045423,0.101158,0.024056,-0.031474,0.182481,0.227902,-0.181881
0.768816,0.012779,-1.567292,0.989738,0.020790,0.025750,-0.018120,0.057143,0.004396,-0.030769,0.124542,0.139194,-0.124542,0.284249,3.161905,1.230769,0.093284,0.069353,-0.069353,0.028397,-1.563738,0.984599,0.051081,0.063690,-0.046340,0.102219,0.024264,-0.031630,0.184470,0.230308,-0.184303
0.773995,0.013161,-1.567292,0.989738,0.021172,0.026131,-0.018883,0.092308,0.004396,-0.030769,0.153846,0.095238,-0.183150,0.250549,3.151648,1.211722,0.090354,0.067399,-0.063980,0.028911,-1.563616,0.984440,0.052009,0.064849,-0.047269,0.103280,0.024472,-0.031781,0.186464,0.232716,-0.186738
0.779136,0.013542,-1.567292,0.989738,0.021553,0.026513,-0.019265,0.065934,0.004396,-0.030769,0.065934,0.080586,-0.183150,0.215385,3.147253,1.201465,0.088889,0.066422,-0.058608,0.029431,-1.563493,0.984281,0.052947,0.066020,-0.048210,0.104341,0.024678,-0.031926,0.188462,0.235123,-0.189188
0.784311,0.013542,-1.567292,0.989357,0.021553,0.026894,-0.020027,0.039560,0.004396,-0.030769,0.036630,0.109890,-0.124542,0.205128,3.148718,1.198535,0.089866,0.062515,-0.055189,0.029955,-1.563369,0.984121,0.053896,0.067203,-0.049163,0.105402,0.024883,-0.032066,0.190464,0.237532,-0.191653
0.789410,0.013924,-1.567292,0.989357,0.021935,0.027657,-0.020027,0.048352,0.004396,-0.030769,0.080586,0.139194,-0.080586,0.190476,3.160439,1.195604,0.091819,0.060073,-0.054212,0.030486,-1.563244,0.983960,0.054854,0.068398,-0.050129,0.106464,0.025086,-0.032201,0.192471,0.239940,-0.194131
0.794498,0.014305,-1.567292,0.989357,0.022698,0.028038,-0.020027,0.083516,0.004396,-0.030769,0.124542,0.124542,-0.021978,0.178755,3.188278,1.210256,0.093284,0.063004,-0.056654,0.031021,-1.563118,0.983799,0.055822,0.069605,-0.051107,0.107525,0.025287,-0.032330,0.194481,0.242348,-0.196624
0.799591,0.014687,-1.567292,0.988975,0.023842,0.029183,-0.020409,0.039560,0.004396,-0.039560,0.095238,0.109890,-0.051282,0.190476,3.235165,1.235165,0.091331,0.076679,-0.062027,0.031562,-1.562991,0.983636,0.056801,0.070824,-0.052097,0.108585,0.025487,-0.032453,0.196496,0.244755,-0.199131
0.804728,0.015068,-1.567292,0.988975,0.024224,0.030327,-0.020790,0.074725,0.004396,-0.039560,0.095238,0.227106,-0.109890,0.133333,3.286447,1.273260,0.085470,0.079609,-0.064957,0.032108,-1.562863,0.983474,0.057789,0.072055,-0.053101,0.109645,0.025686,-0.032571,0.198514,0.247162,-0.201651
0.809797,0.015450,-1.567292,0.988594,0.024987,0.030709,-0.021553,0.083516,0.004396,-0.039560,0.109890,0.124542,-0.109890,0.080586,3.334798,1.327473,0.080098,0.074725,-0.066422,0.032660,-1.562734,0.983311,0.058788,0.073298,-0.054116,0.110705,0.025882,-0.032683,0.200535,0.249568,-0.204186
0.814936,0.015831,-1.566911,0.988594,0.025750,0.031090,-0.022316,0.039560,0.004396,-0.030769,0.124542,0.051282,-0.153846,0.087912,3.384615,1.375824,0.075702,0.077656,-0.064469,0.033216,-1.562604,0.983147,0.059797,0.074553,-0.055145,0.111764,0.026077,-0.032788,0.202561,0.251973,-0.206734
0.820054,0.016213,-1.566911,0.988212,0.026131,0.031472,-0.023461,0.065934,0.004396,-0.030769,0.109890,0.065934,-0.212454,0.079121,3.432967,1.418315,0.074237,0.091819,-0.063004,0.034345,-1.562341,0.982818,0.061845,0.077099,-0.057241,0.113880,0.026462,-0.032981,0.206622,0.256778,-0.211872
0.825144,0.016594,-1.566911,0.988212,0.026131,0.032616,-0.023842,0.074725,0.004396,-0.030769,0.065934,0.183150,-0.139194,0.104029,3.478388,1.449084,0.078632,0.100611,-0.063004,0.034918,-1.562208,0.982653,0.062884,0.078390,-0.058308,0.114936,0.026652,-0.033069,0.208657,0.259178,-0.214461
0.830215,0.016594,-1.566911,0.988212,0.026894,0.033379,-0.024224,0.030769,0.004396,-0.021978,0.080586,0.153846,-0.080586,0.162637,3.525275,1.473993,0.084982,0.102564,-0.063980,0.035496,-1.562074,0.982487,0.063933,0.079693,-0.059388,0.115991,0.026839,-0.033149,0.210696,0.261575,-0.217064
0.835350,0.016976,-1.566911,0.988212,0.027276,0.033761,-0.024224,0.039560,0.013187,-0.021978,0.124542,0.124542,-0.036630,0.178755,3.569231,1.491575,0.083516,0.102564,-0.066422,0.036079,-1.561939,0.982321,0.064993,0.081008,-0.060481,0.117045,0.027025,-0.033223,0.212737,0.263970,-0.219680
0.840447,0.016976,-1.566911,0.988212,0.028420,0.034524,-0.024605,0.074725,0.021978,-0.021978,0.197802,0.168498,-0.080586,0.184615,3.600000,1.490110,0.075702,0.100122,-0.068864,0.036667,-1.561804,0.982155,0.066063,0.082335,-0.061587,0.118098,0.027209,-0.033291,0.214782,0.266363,-0.222310
0.845548,0.018120,-1.566529,0.987831,0.029183,0.035668,-0.025750,0.074725,0.030769,-0.021978,0.095238,0.139194,-0.183150,0.200733,3.604396,1.491575,0.068376,0.101587,-0.067399,0.037261,-1.561667,0.981988,0.067143,0.083674,-0.062707,0.119149,0.027390,-0.033352,0.216829,0.268752,-0.224953
0.850718,0.018502,-1.566529,0.987831,0.029564,0.036049,-0.026513,0.109890,0.030769,-0.030769,0.036630,0.095238,-0.168498,0.147985,3.588278,1.481319,0.071795,0.100122,-0.062515,0.037860,-1.561530,0.981821,0.068233,0.085025,-0.063839,0.120198,0.027570,-0.033406,0.218879,0.271138,-0.227609
0.855838,0.018883,-1.566148,0.987831,0.029946,0.037194,-0.027276,0.057143,0.030769,-0.030769,0.065934,0.212454,-0.139194,0.168498,3.557509,1.463736,0.078144,0.105006,-0.058120,0.038464,-1.561391,0.981654,0.069334,0.086388,-0.064985,0.121246,0.027747,-0.033453,0.220931,0.273520,-0.230279
0.860998,0.018883,-1.566148,0.987449,0.030709,0.038338,-0.027657,0.039560,0.030769,-0.030769,0.168498,0.183150,-0.080586,0.231502,3.523809,1.438828,0.079121,0.105983,-0.056166,0.039073,-1.561252,0.981487,0.070444,0.087763,-0.066145,0.122292,0.027923,-0.033494,0.222986,0.275899,-0.232961
0.866123,0.019265,-1.565766,0.987449,0.031853,0.038720,-0.027657,0.092308,0.030769,-0.021978,0.139194,0.109890,-0.021978,0.209524,3.466667,1.406593,0.077656,0.105495,-0.059585,0.039688,-1.561112,0.981319,0.071566,0.089149,-0.067318,0.123336,0.028096,-0.033527,0.225043,0.278274,-0.235656
0.871227,0.019646,-1.565766,0.987449,0.032235,0.039483,-0.027657,0.092308,0.039560,-0.030769,0.109890,0.139194,-0.036630,0.186081,3.389011,1.377289,0.078632,0.099145,-0.066911,0.040308,-1.560971,0.981152,0.072697,0.090548,-0.068504,0.124377,0.028267,-0.033553,0.227103,0.280644,-0.238365
0.876382,0.020027,-1.565385,0.987068,0.032616,0.040246,-0.028420,0.083516,0.030769,-0.030769,0.095238,0.139194,-0.124542,0.189011,3.308425,1.352381,0.075214,0.098169,-0.074237,0.040933,-1.560829,0.980984,0.073839,0.091958,-0.069704,0.125417,0.028435,-0.033571,0.229164,0.283010,-0.241085
0.881505,0.020409,-1.565385,0.987068,0.033379,0.041009,-0.028801,0.092308,0.021978,-0.030769,0.124542,0.139194,-0.139194,0.133333,3.227839,1.345055,0.068864,0.102564,-0.080098,0.041563,-1.560686,0.980816,0.074991,0.093380,-0.070918,0.126454,0.028602,-0.033582,0.231228,0.285371,-0.243819
0.886653,0.021172,-1.565385,0.986687,0.034142,0.042916,-0.030327,0.057143,0.013187,-0.039560,0.109890,0.183150,-0.183150,0.142125,3.154579,1.353846,0.070818,0.097680,-0.082051,0.042198,-1.560543,0.980648,0.076153,0.094814,-0.072145,0.127489,0.028765,-0.033586,0.233293,0.287727,-0.246565
0.891756,0.021553,-1.565003,0.986687,0.034905,0.043297,-0.031090,0.101099,0.013187,-0.048352,0.139194,0.109890,-0.183150,0.123077,3.088645,1.381685,0.080098,0.097680,-0.082051,0.042839,-1.560399,0.980480,0.077326,0.096260,-0.073386,0.128521,0.028927,-0.033582,0.235361,0.290078,-0.249324
0.896851,0.021935,-1.565003,0.986305,0.035668,0.044442,-0.031472,0.083516,0.013187,-0.039560,0.183150,0.197802,-0.124542,0.143590,3.052015,1.403663,0.084982,0.092796,-0.084982,0.043485,-1.560253,0.980312,0.078509,0.097717,-0.074641,0.129550,0.029086,-0.033570,0.237430,0.292423,-0.252096
0.902015,0.022316,-1.565003,0.986305,0.036431,0.045586,-0.031853,0.083516,0.013187,-0.030769,0.183150,0.197802,-0.080586,0.205128,3.022711,1.419780,0.080098,0.081563,-0.091819,0.044135,-1.560108,0.980144,0.079702,0.099186,-0.075910,0.130577,0.029242,-0.033551,0.239500,0.294763,-0.254879
0.907105,0.022698,-1.565003,0.986305,0.036812,0.045968,-0.032616,0.092308,0.013187,-0.030769,0.080586,0.124542,-0.109890,0.206593,3.012454,1.425641,0.077167,0.074237,-0.099145,0.044791,-1.559961,0.979977,0.080906,0.100667,-0.077193,0.131600,0.029396,-0.033524,0.241573,0.297096,-0.257675
0.912217,0.023079,-1.565003,0.985924,0.037194,0.046731,-0.033379,0.057143,0.004396,-0.030769,0.080586,0.153846,-0.212454,0.213919,3.005128,1.430037,0.082540,0.075214,-0.102076,0.045453,-1.559813,0.979809,0.082120,0.102160,-0.078490,0.132621,0.029547,-0.033488,0.243646,0.299423,-0.260483
0.917353,0.023461,-1.565003,0.985924,0.037957,0.047494,-0.034524,0.109890,0.004396,-0.030769,0.183150,0.168498,-0.212454,0.216850,3.031502,1.443223,0.091819,0.071795,-0.099634,0.046119,-1.559665,0.979642,0.083344,0.103664,-0.079800,0.133638,0.029696,-0.033445,0.245721,0.301743,-0.263303
0.922478,0.023842,-1.564622,0.985924,0.038720,0.048257,-0.034905,0.074725,0.004396,-0.030769,0.153846,0.124542,-0.153846,0.249084,3.065201,1.469597,0.095726,0.069841,-0.096215,0.046790,-1.559516,0.979475,0.084579,0.105179,-0.081125,0.134652,0.029842,-0.033393,0.247797,0.304057,-0.266136
0.927604,0.024224,-1.564622,0.985924,0.039101,0.049401,-0.035286,0.065934,0.004396,-0.030769,0.109890,0.212454,-0.095238,0.287179,3.117949,1.484249,0.103053,0.065446,-0.095726,0.047466,-1.559367,0.979308,0.085824,0.106707,-0.082465,0.135662,0.029985,-0.033333,0.249873,0.306363,-0.268980
0.932800,0.024987,-1.564622,0.985542,0.041009,0.050927,-0.036431,0.074725,0.013187,-0.030769,0.168498,0.124542,-0.139194,0.322344,3.167765,1.491575,0.106471,0.059096,-0.096703,0.048148,-1.559216,0.979141,0.087080,0.108245,-0.083818,0.136669,0.030125,-0.033265,0.251951,0.308662,-0.271835
0.937954,0.025750,-1.564622,0.985161,0.041390,0.052071,-0.037194,0.127473,0.013187,-0.030769,0.109890,0.227106,-0.168498,0.246154,3.205861,1.488645,0.109890,0.062027,-0.099634,0.048834,-1.559065,0.978975,0.088346,0.109795,-0.085186,0.137672,0.030263,-0.033188,0.254030,0.310953,-0.274703
0.943065,0.026131,-1.564622,0.985161,0.041772,0.052834,-0.038338,0.065934,0.013187,-0.030769,0.109890,0.197802,-0.227106,0.273993,3.255678,1.471062,0.116239,0.059096,-0.101587,0.049525,-1.558914,0.978810,0.089622,0.111357,-0.086568,0.138672,0.030397,-0.033102,0.256109,0.313237,-0.277582
0.948169,0.026513,-1.564240,0.985161,0.042916,0.053216,-0.039101,0.074725,0.013187,-0.030769,0.168498,0.139194,-0.227106,0.281319,3.284982,1.443223,0.126496,0.058608,-0.100611,0.050222,-1.558761,0.978644,0.090909,0.112930,-0.087965,0.139667,0.030529,-0.033008,0.258189,0.315512,-0.280473
0.953302,0.026894,-1.564240,0.985161,0.043679,0.054360,-0.039483,0.109890,0.013187,-0.030769,0.212454,0.183150,-0.139194,0.240293,3.334798,1.421245,0.128938,0.065446,-0.098168,0.050923,-1.558608,0.978480,0.092206,0.114514,-0.089376,0.140658,0.030658,-0.032905,0.260270,0.317779,-0.283375
0.958384,0.027657,-1.564240,0.984779,0.044823,0.055886,-0.041390,0.127473,0.013187,-0.039560,0.124542,0.153846,-0.241758,0.212454,3.372894,1.412454,0.136264,0.072772,-0.093284,0.051629,-1.558455,0.978315,0.093514,0.116110,-0.090801,0.141645,0.030784,-0.032793,0.262351,0.320037,-0.286289
0.963482,0.028038,-1.564240,0.984779,0.045968,0.056649,-0.042535,0.074725,0.021978,-0.039560,0.227106,0.227106,-0.227106,0.180220,3.399267,1.413919,0.135775,0.077656,-0.088889,0.052340,-1.558300,0.978152,0.094832,0.117717,-0.092241,0.142628,0.030906,-0.032672,0.264432,0.322287,-0.289213
0.968570,0.028420,-1.563859,0.984398,0.046349,0.057794,-0.043297,0.083516,0.021978,-0.048352,0.153846,0.212454,-0.197802,0.206593,3.412454,1.428571,0.131380,0.080586,-0.086935,0.053056,-1.558145,0.977989,0.096160,0.119335,-0.093696,0.143606,0.031026,-0.032542,0.266514,0.324527,-0.292149
0.973660,0.028801,-1.563859,0.984398,0.047112,0.058556,-0.044060,0.109890,0.030769,-0.039560,0.139194,0.168498,-0.183150,0.181685,3.412454,1.440293,0.132845,0.084982,-0.083516,0.053777,-1.557990,0.977827,0.097499,0.120965,-0.095166,0.144580,0.031143,-0.032403,0.268595,0.326758,-0.295096
0.978781,0.029183,-1.563478,0.984016,0.048257,0.059701,-0.044823,0.074725,0.039560,-0.039560,0.212454,0.271062,-0.168498,0.177289,3.380220,1.457875,0.129915,0.088889,-0.076679,0.054503,-1.557834,0.977665,0.098848,0.122605,-0.096650,0.145549,0.031256,-0.032255,0.270677,0.328979,-0.298054
0.983930,0.030327,-1.563478,0.984016,0.049020,0.061227,-0.046349,0.083516,0.030769,-0.030769,0.109890,0.168498,-0.183150,0.168498,3.352381,1.465201,0.134310,0.091819,-0.068864,0.055234,-1.557677,0.977504,0.100208,0.124256,-0.098149,0.146513,0.031366,-0.032097,0.272758,0.331190,-0.301022
0.989049,0.030709,-1.563096,0.983635,0.049783,0.062371,-0.047112,0.109890,0.021978,-0.030769,0.183150,0.197802,-0.153846,0.189011,3.339194,1.469597,0.137241,0.098168,-0.062027,0.055969,-1.557520,0.977344,0.101578,0.125919,-0.099663,0.147472,0.031473,-0.031929,0.274840,0.333391,-0.304002
0.994153,0.031090,-1.563096,0.983635,0.051308,0.063134,-0.047494,0.065934,0.021978,-0.030769,0.271062,0.212454,-0.139194,0.196337,3.320146,1.484249,0.126007,0.105006,-0.057631,0.056709,-1.557362,0.977185,0.102958,0.127593,-0.101192,0.148427,0.031577,-0.031752,0.276920,0.335582,-0.306992
0.999209,0.031472,-1.563096,0.983635,0.052071,0.064279,-0.048638,0.083516,0.013187,-0.030769,0.168498,0.227106,-0.197802,0.212454,3.309890,1.494506,0.113309,0.108913,-0.054701,0.057454,-1.557204,0.977027,0.104349,0.129277,-0.102736,0.149376,0.031678,-0.031566,0.279001,0.337762,-0.309992
1.004321,0.031853,-1.563096,0.983635,0.052453,0.065423,-0.049401,0.136264,0.021978,-0.030769,0.124542,0.241758,-0.212454,0.202198,3.283516,1.512088,0.113797,0.107937,-0.049817,0.058204,-1.557046,0.976870,0.105750,0.130972,-0.104295,0.150319,0.031775,-0.031369,0.281081,0.339931,-0.313003
1.009398,0.032616,-1.562715,0.983253,0.053216,0.066186,-0.050164,0.101099,0.021978,-0.030769,0.183150,0.183150,-0.168498,0.227106,3.255678,1.516484,0.107448,0.106960,-0.047375,0.058959,-1.556886,0.976713,0.107162,0.132678,-0.105869,0.151257,0.031868,-0.031163,0.283160,0.342089,-0.316024
1.014478,0.033379,-1.562715,0.983253,0.055505,0.068475,-0.051690,0.065934,0.030769,-0.030769,0.227106,0.241758,-0.183150,0.265201,3.214652,1.506227,0.101099,0.101587,-0.047863,0.059718,-1.556727,0.976558,0.108584,0.134395,-0.107459,0.152190,0.031959,-0.030947,0.285239,0.344235,-0.319056
1.019580,0.033761,-1.562333,0.982872,0.055886,0.069238,-0.052453,0.127473,0.021978,-0.030769,0.197802,0.168498,-0.197802,0.252015,3.175092,1.473993,0.096215,0.102076,-0.048352,0.060481,-1.556567,0.976404,0.110017,0.136123,-0.109063,0.153117,0.032045,-0.030721,0.287317,0.346370,-0.322097
1.024750,0.034524,-1.562333,0.982872,0.056268,0.070382,-0.053597,0.109890,0.021978,-0.030769,0.109890,0.256410,-0.197802,0.253480,3.163370,1.443223,0.093284,0.097680,-0.048352,0.061250,-1.556406,0.976251,0.111459,0.137861,-0.110683,0.154037,0.032129,-0.030484,0.289394,0.348493,-0.325149
1.029892,0.034905,-1.562333,0.982872,0.057412,0.071527,-0.053979,0.136264,0.013187,-0.030769,0.153846,0.256410,-0.168498,0.208059,3.172161,1.412454,0.097192,0.093284,-0.049328,0.062023,-1.556245,0.976100,0.112913,0.139610,-0.112318,0.154952,0.032208,-0.030238,0.291470,0.350603,-0.328210
1.035033,0.035286,-1.561952,0.982490,0.058556,0.072290,-0.054360,0.074725,0.013187,-0.039560,0.241758,0.227106,-0.124542,0.222711,3.178022,1.390476,0.091819,0.089377,-0.052747,0.063582,-1.555922,0.975800,0.115850,0.143139,-0.115634,0.156764,0.032357,-0.029713,0.295618,0.354787,-0.334362
1.040154,0.036431,-1.561952,0.982490,0.060082,0.074197,-0.055886,0.101099,0.013187,-0.039560,0.153846,0.227106,-0.197802,0.227106,3.180952,1.384615,0.083028,0.089866,-0.058120,0.064369,-1.555760,0.975652,0.117334,0.144919,-0.117315,0.157660,0.032426,-0.029435,0.297690,0.356860,-0.337452
1.045265,0.036812,-1.561952,0.982109,0.060464,0.075723,-0.057031,0.127473,0.013187,-0.039560,0.168498,0.285714,-0.212454,0.186081,3.186813,1.383150,0.084493,0.085958,-0.061050,0.065160,-1.555598,0.975506,0.118829,0.146710,-0.119011,0.158550,0.032491,-0.029147,0.299761,0.358920,-0.340552
1.050395,0.037575,-1.561952,0.982109,0.061227,0.076486,-0.057794,0.083516,0.021978,-0.039560,0.168498,0.153846,-0.183150,0.164103,3.185348,1.386081,0.093773,0.085958,-0.065446,0.065955,-1.555435,0.975361,0.120334,0.148510,-0.120723,0.159434,0.032552,-0.028847,0.301830,0.360966,-0.343661
1.055510,0.037957,-1.561570,0.981727,0.062753,0.077630,-0.058556,0.136264,0.021978,-0.039560,0.256410,0.256410,-0.197802,0.174359,3.179487,1.384615,0.096215,0.087424,-0.070818,0.066755,-1.555273,0.975218,0.121849,0.150321,-0.122451,0.160310,0.032610,-0.028537,0.303897,0.362999,-0.346780
1.060612,0.038338,-1.561570,0.981727,0.063516,0.078775,-0.059319,0.083516,0.030769,-0.039560,0.197802,0.227106,-0.168498,0.191941,3.166300,1.403663,0.092796,0.084982,-0.076679,0.067559,-1.555109,0.975076,0.123375,0.152142,-0.124194,0.161180,0.032664,-0.028216,0.305963,0.365017,-0.349907
1.065717,0.039101,-1.561189,0.981727,0.063897,0.080301,-0.060082,0.127473,0.021978,-0.048352,0.109890,0.285714,-0.212454,0.142125,3.179487,1.428571,0.104029,0.086935,-0.082051,0.068368,-1.554946,0.974936,0.124911,0.153974,-0.125953,0.162043,0.032713,-0.027884,0.308027,0.367022,-0.353043
1.070863,0.039483,-1.561189,0.981346,0.065042,0.081064,-0.061608,0.101099,0.021978,-0.048352,0.256410,0.183150,-0.271062,0.145055,3.194139,1.471062,0.115751,0.089866,-0.085958,0.069180,-1.554782,0.974798,0.126457,0.155815,-0.127728,0.162898,0.032760,-0.027541,0.310090,0.369012,-0.356189
1.075960,0.040246,-1.561189,0.981346,0.066186,0.082589,-0.062371,0.153846,0.021978,-0.039560,0.212454,0.300366,-0.168498,0.126007,3.207326,1.495971,0.118193,0.094750,-0.091819,0.069997,-1.554618,0.974661,0.128014,0.157666,-0.129518,0.163747,0.032802,-0.027187,0.312150,0.370988,-0.359343
1.081068,0.040627,-1.561189,0.980964,0.066949,0.083352,-0.063134,0.074725,0.021978,-0.030769,0.183150,0.241758,-0.227106,0.167033,3.214652,1.526740,0.116728,0.097192,-0.097680,0.070819,-1.554454,0.974526,0.129581,0.159526,-0.131324,0.164588,0.032840,-0.026822,0.314208,0.372949,-0.362506
1.086214,0.041772,-1.560807,0.980964,0.068856,0.086023,-0.065805,0.109890,0.021978,-0.030769,0.197802,0.256410,-0.241758,0.147985,3.213187,1.538462,0.123565,0.100611,-0.099634,0.071644,-1.554290,0.974393,0.131158,0.161397,-0.133146,0.165422,0.032874,-0.026445,0.316263,0.374895,-0.365677
1.091315,0.042535,-1.560807,0.980583,0.070001,0.087167,-0.066567,0.153846,0.030769,-0.030769,0.256410,0.285714,-0.256410,0.112821,3.202930,1.539927,0.128449,0.095238,-0.099145,0.072474,-1.554125,0.974262,0.132746,0.163277,-0.134984,0.166248,0.032904,-0.026057,0.318317,0.376825,-0.368857
1.096420,0.042916,-1.560426,0.980583,0.070764,0.087930,-0.067712,0.101099,0.030769,-0.030769,0.183150,0.168498,-0.256410,0.150916,3.172161,1.532601,0.127961,0.100122,-0.099145,0.073307,-1.553961,0.974133,0.134343,0.165167,-0.136838,0.167066,0.032930,-0.025657,0.320368,0.378740,-0.372045
1.101612,0.043297,-1.560426,0.980583,0.071527,0.089456,-0.069238,0.118681,0.030769,-0.030769,0.197802,0.256410,-0.315018,0.130403,3.141392,1.526740,0.126007,0.102564,-0.096703,0.074145,-1.553796,0.974006,0.135951,0.167067,-0.138708,0.167876,0.032952,-0.025246,0.322416,0.380639,-0.375241
1.106728,0.044060,-1.560044,0.980201,0.073053,0.090600,-0.070382,0.118681,0.030769,-0.039560,0.241758,0.241758,-0.300366,0.164103,3.110623,1.535531,0.126984,0.099145,-0.092796,0.074987,-1.553631,0.973881,0.137570,0.168975,-0.140594,0.168679,0.032970,-0.024823,0.324462,0.382523,-0.378445
1.111777,0.044442,-1.560044,0.980201,0.074197,0.091745,-0.071908,0.127473,0.021978,-0.039560,0.241758,0.256410,-0.315018,0.134799,3.091575,1.528205,0.128449,0.099634,-0.086447,0.075833,-1.553466,0.973758,0.139198,0.170894,-0.142496,0.169473,0.032984,-0.024388,0.326506,0.384390,-0.381657
1.116896,0.045205,-1.560044,0.980201,0.074960,0.092889,-0.073053,0.127473,0.021978,-0.030769,0.212454,0.241758,-0.271062,0.133333,3.069597,1.501832,0.118193,0.101587,-0.079609,0.076682,-1.553301,0.973638,0.140837,0.172821,-0.144414,0.170259,0.032994,-0.023941,0.328546,0.386240,-0.384877
1.122040,0.045586,-1.559663,0.979820,0.075723,0.094797,-0.074197,0.074725,0.021978,-0.030769,0.183150,0.344322,-0.227106,0.184615,3.053480,1.459341,0.114286,0.097680,-0.075214,0.077536,-1.553136,0.973519,0.142486,0.174758,-0.146348,0.171037,0.032999,-0.023483,0.330584,0.388074,-0.388105
1.127160,0.046731,-1.559663,0.979820,0.078393,0.097086,-0.076486,0.127473,0.021978,-0.021978,0.256410,0.344322,-0.271062,0.212454,3.043223,1.427106,0.107448,0.096215,-0.068864,0.078394,-1.552971,0.973403,0.144145,0.176704,-0.148298,0.171807,0.033000,-0.023012,0.332618,0.389891,-0.391340
1.132278,0.047494,-1.559281,0.979820,0.079156,0.098230,-0.076867,0.136264,0.021978,-0.030769,0.241758,0.271062,-0.197802,0.189011,3.028571,1.389011,0.099634,0.093773,-0.063492,0.079255,-1.552806,0.973290,0.145814,0.178659,-0.150264,0.172567,0.032997,-0.022530,0.334650,0.391691,-0.394583
1.137413,0.047875,-1.559281,0.979438,0.080301,0.099374,-0.078012,0.101099,0.021978,-0.030769,0.212454,0.256410,-0.212454,0.234432,3.021245,1.377289,0.090842,0.094750,-0.060562,0.080120,-1.552641,0.973178,0.147493,0.180622,-0.152247,0.173319,0.032990,-0.022035,0.336678,0.393473,-0.397833
1.142569,0.048638,-1.559281,0.979438,0.081064,0.100137,-0.079538,0.162637,0.021978,-0.048352,0.212454,0.227106,-0.285714,0.259341,3.024176,1.364103,0.084005,0.100122,-0.056654,0.080989,-1.552476,0.973070,0.149183,0.182595,-0.154246,0.174063,0.032978,-0.021528,0.338703,0.395238,-0.401090
1.147740,0.049401,-1.559281,0.979057,0.082589,0.101663,-0.080301,0.162637,0.021978,-0.048352,0.256410,0.329670,-0.241758,0.218315,3.038828,1.368498,0.079609,0.102564,-0.054701,0.081861,-1.552312,0.972964,0.150882,0.184576,-0.156261,0.174797,0.032962,-0.021008,0.340725,0.396985,-0.404355
1.152891,0.050546,-1.558900,0.978676,0.084115,0.104334,-0.081827,0.162637,0.013187,-0.039560,0.212454,0.344322,-0.197802,0.203663,3.062271,1.380220,0.080098,0.099634,-0.058120,0.082737,-1.552147,0.972860,0.152592,0.186567,-0.158293,0.175522,0.032941,-0.020476,0.342744,0.398713,-0.407626
1.158004,0.050927,-1.558900,0.978676,0.085641,0.105478,-0.082971,0.118681,0.013187,-0.039560,0.285714,0.285714,-0.227106,0.191941,3.100366,1.377289,0.075214,0.098657,-0.062515,0.083617,-1.551982,0.972760,0.154312,0.188565,-0.160341,0.176238,0.032916,-0.019932,0.344758,0.400424,-0.410904
1.163120,0.051690,-1.558900,0.978676,0.086404,0.106622,-0.084115,0.136264,0.013187,-0.039560,0.183150,0.227106,-0.271062,0.196337,3.141392,1.380220,0.075214,0.099145,-0.068864,0.084501,-1.551818,0.972662,0.156041,0.190573,-0.162405,0.176944,0.032887,-0.019375,0.346770,0.402116,-0.414189
1.168369,0.052453,-1.558518,0.978294,0.087167,0.108148,-0.085260,0.136264,0.021978,-0.030769,0.212454,0.271062,-0.241758,0.200733,3.179487,1.399267,0.082051,0.102564,-0.075214,0.085387,-1.551653,0.972566,0.157781,0.192588,-0.164486,0.177642,0.032853,-0.018805,0.348777,0.403790,-0.417480
1.173505,0.052834,-1.558518,0.978294,0.088312,0.109674,-0.086404,0.101099,0.021978,-0.030769,0.227106,0.329670,-0.300366,0.156777,3.204396,1.421245,0.083516,0.105006,-0.079121,0.086278,-1.551489,0.972474,0.159531,0.194612,-0.166583,0.178329,0.032814,-0.018222,0.350781,0.405444,-0.420778
1.178616,0.053597,-1.558518,0.978294,0.089456,0.110437,-0.087549,0.136264,0.030769,-0.030769,0.256410,0.241758,-0.271062,0.165568,3.201465,1.446154,0.091331,0.107937,-0.083028,0.087171,-1.551325,0.972385,0.161291,0.196644,-0.168697,0.179007,0.032771,-0.017627,0.352781,0.407079,-0.424082
1.183745,0.053979,-1.558137,0.977913,0.090600,0.112345,-0.088693,0.118681,0.030769,-0.030769,0.212454,0.373626,-0.227106,0.178755,3.210256,1.472528,0.100611,0.110379,-0.087424,0.088068,-1.551162,0.972298,0.163061,0.198684,-0.170827,0.179675,0.032724,-0.017019,0.354776,0.408695,-0.427393
1.188874,0.054742,-1.558137,0.977913,0.091745,0.113489,-0.089837,0.171429,0.030769,-0.030769,0.227106,0.285714,-0.256410,0.106960,3.214652,1.481319,0.111355,0.106960,-0.091331,0.088969,-1.550998,0.972215,0.164841,0.200733,-0.172974,0.180333,0.032672,-0.016397,0.356768,0.410292,-0.430709
1.193985,0.055505,-1.557755,0.977913,0.092889,0.115015,-0.091363,0.136264,0.021978,-0.021978,0.197802,0.358974,-0.285714,0.124542,3.224908,1.469597,0.120147,0.106471,-0.094750,0.089872,-1.550835,0.972135,0.166631,0.202789,-0.175138,0.180981,0.032615,-0.015763,0.358756,0.411868,-0.434032
1.199137,0.057031,-1.557755,0.977531,0.095178,0.117685,-0.094415,0.171429,0.021978,-0.021978,0.256410,0.285714,-0.373626,0.109890,3.238095,1.434432,0.131868,0.103053,-0.095238,0.090779,-1.550672,0.972058,0.168430,0.204853,-0.177318,0.181619,0.032554,-0.015116,0.360739,0.413425,-0.437360
1.204300,0.057412,-1.557374,0.977531,0.096323,0.119211,-0.095941,0.127473,0.030769,-0.021978,0.271062,0.315018,-0.373626,0.142125,3.242491,1.390476,0.133333,0.107937,-0.090354,0.091689,-1.550509,0.971985,0.170240,0.206925,-0.179515,0.182246,0.032488,-0.014455,0.362718,0.414961,-0.440694
1.209411,0.058175,-1.557374,0.977531,0.097467,0.120737,-0.097467,0.118681,0.030769,-0.030769,0.271062,0.344322,-0.358974,0.156777,3.226374,1.347985,0.138217,0.110379,-0.084493,0.092602,-1.550347,0.971914,0.172060,0.209004,-0.181728,0.182864,0.032417,-0.013781,0.364692,0.416477,-0.444033
1.214505,0.058556,-1.556992,0.977531,0.098611,0.121881,-0.099374,0.162637,0.030769,-0.030769,0.241758,0.300366,-0.388278,0.152381,3.188278,1.308425,0.143590,0.108425,-0.077656,0.093518,-1.550185,0.971848,0.173889,0.211091,-0.183958,0.183470,0.032341,-0.013094,0.366662,0.417973,-0.447378
1.219651,0.059319,-1.556992,0.977150,0.100137,0.123407,-0.100137,0.127473,0.030769,-0.039560,0.285714,0.315018,-0.285714,0.165568,3.154579,1.282051,0.141148,0.107937,-0.071306,0.094438,-1.550024,0.971784,0.175728,0.213185,-0.186205,0.184066,0.032261,-0.012393,0.368628,0.419447,-0.450728
1.224744,0.060082,-1.556992,0.977150,0.101282,0.124933,-0.101663,0.136264,0.021978,-0.048352,0.256410,0.329670,-0.329670,0.159707,3.136996,1.267399,0.138706,0.104518,-0.066422,0.095360,-1.549863,0.971724,0.177577,0.215287,-0.188469,0.184651,0.032176,-0.011678,0.370589,0.420901,-0.454083
1.229832,0.061227,-1.556611,0.976768,0.103571,0.127985,-0.103952,0.162637,0.030769,-0.039560,0.271062,0.358974,-0.271062,0.142125,3.144322,1.255678,0.139683,0.100611,-0.063492,0.096285,-1.549702,0.971668,0.179436,0.217396,-0.190750,0.185225,0.032086,-0.010951,0.372544,0.422333,-0.457444
1.234928,0.061990,-1.556611,0.976768,0.104715,0.129129,-0.105097,0.171429,0.030769,-0.039560,0.285714,0.300366,-0.256410,0.111355,3.141392,1.251282,0.134799,0.099634,-0.059096,0.097212,-1.549542,0.971616,0.181305,0.219512,-0.193047,0.185788,0.031992,-0.010209,0.374496,0.423744,-0.460809
1.240028,0.062753,-1.556229,0.976387,0.105859,0.130274,-0.106622,0.118681,0.030769,-0.039560,0.271062,0.285714,-0.329670,0.165568,3.141392,1.255678,0.126984,0.103541,-0.054701,0.099076,-1.549223,0.971522,0.185071,0.223764,-0.197692,0.186881,0.031788,-0.008685,0.378383,0.426500,-0.467553
1.245131,0.063134,-1.556229,0.976387,0.107004,0.131800,-0.107385,0.171429,0.030769,-0.048352,0.271062,0.329670,-0.241758,0.145055,3.115018,1.292308,0.121123,0.100122,-0.054212,0.100012,-1.549065,0.971481,0.186969,0.225901,-0.200040,0.187410,0.031679,-0.007902,0.380319,0.427846,-0.470932
1.250323,0.063897,-1.556229,0.976005,0.108148,0.133326,-0.108530,0.171429,0.030769,-0.039560,0.241758,0.285714,-0.271062,0.158242,3.093040,1.340659,0.114286,0.101587,-0.058608,0.100951,-1.548907,0.971444,0.188876,0.228044,-0.202405,0.187928,0.031565,-0.007105,0.382249,0.429169,-0.474316
1.255420,0.064660,-1.555848,0.976005,0.109674,0.134852,-0.110056,0.127473,0.021978,-0.030769,0.285714,0.315018,-0.285714,0.162637,3.084249,1.387546,0.110867,0.100122,-0.063492,0.101892,-1.548749,0.971411,0.190793,0.230194,-0.204786,0.188434,0.031446,-0.006294,0.384175,0.430470,-0.477703
1.260526,0.066186,-1.555848,0.975624,0.111963,0.137522,-0.112345,0.162637,0.021978,-0.021978,0.300366,0.300366,-0.285714,0.128938,3.101831,1.422711,0.110379,0.108425,-0.069841,0.102836,-1.548592,0.971382,0.192720,0.232350,-0.207185,0.188929,0.031322,-0.005469,0.386095,0.431748,-0.481095
1.265621,0.066567,-1.555467,0.975624,0.113108,0.139048,-0.113870,0.136264,0.013187,-0.021978,0.271062,0.315018,-0.329670,0.153846,3.144322,1.438828,0.110379,0.111844,-0.077167,0.103782,-1.548436,0.971357,0.194656,0.234512,-0.209601,0.189411,0.031194,-0.004630,0.388010,0.433003,-0.484491
1.270746,0.067330,-1.555467,0.975624,0.114252,0.140574,-0.115396,0.145055,0.021978,-0.013187,0.256410,0.329670,-0.285714,0.136264,3.182418,1.440293,0.113797,0.110379,-0.084005,0.104730,-1.548281,0.971336,0.196602,0.236681,-0.212033,0.189882,0.031060,-0.003777,0.389919,0.434235,-0.487890
1.275836,0.068093,-1.555467,0.975624,0.115778,0.142100,-0.116922,0.171429,0.021978,-0.013187,0.315018,0.329670,-0.373626,0.130403,3.201465,1.421245,0.115263,0.118193,-0.089377,0.105681,-1.548126,0.971320,0.198557,0.238856,-0.214483,0.190340,0.030921,-0.002909,0.391822,0.435445,-0.491293
1.280939,0.068856,-1.555085,0.975624,0.116541,0.143626,-0.118448,0.145055,0.030769,-0.013187,0.256410,0.358974,-0.358974,0.149451,3.204396,1.397802,0.117705,0.118193,-0.093284,0.106634,-1.547971,0.971308,0.200522,0.241037,-0.216950,0.190787,0.030777,-0.002027,0.393720,0.436630,-0.494700
1.286078,0.069619,-1.555085,0.975624,0.118067,0.144770,-0.119974,0.145055,0.030769,-0.021978,0.256410,0.285714,-0.329670,0.169963,3.208791,1.369963,0.126496,0.129915,-0.095726,0.107589,-1.547818,0.971300,0.202496,0.243223,-0.219434,0.191221,0.030629,-0.001131,0.395612,0.437793,-0.498109
1.291214,0.070001,-1.555085,0.975242,0.119593,0.146677,-0.121881,0.153846,0.030769,-0.021978,0.315018,0.358974,-0.402930,0.161172,3.217582,1.349451,0.132357,0.130891,-0.095726,0.108547,-1.547665,0.971298,0.204480,0.245416,-0.221934,0.191642,0.030475,-0.000221,0.397498,0.438931,-0.501523
1.296318,0.071527,-1.554704,0.975242,0.121881,0.150111,-0.125696,0.171429,0.021978,-0.030769,0.285714,0.402930,-0.417582,0.161172,3.245421,1.328938,0.137241,0.131868,-0.091331,0.109506,-1.547513,0.971299,0.206473,0.247614,-0.224452,0.192051,0.030316,0.000705,0.399378,0.440046,-0.504939
1.301472,0.072290,-1.554322,0.975242,0.123407,0.151255,-0.126841,0.171429,0.021978,-0.030769,0.300366,0.329670,-0.344322,0.177289,3.268864,1.295238,0.141148,0.126496,-0.084493,0.110468,-1.547362,0.971306,0.208475,0.249817,-0.226987,0.192448,0.030152,0.001644,0.401252,0.441136,-0.508358
1.306563,0.073053,-1.554322,0.974861,0.124552,0.153162,-0.128748,0.145055,0.030769,-0.030769,0.285714,0.329670,-0.388278,0.184615,3.276190,1.270330,0.144078,0.125031,-0.078632,0.111431,-1.547212,0.971317,0.210487,0.252026,-0.229539,0.192831,0.029983,0.002599,0.403120,0.442203,-0.511780
1.311655,0.073816,-1.554322,0.974861,0.126078,0.154688,-0.129892,0.180220,0.039560,-0.030769,0.315018,0.358974,-0.285714,0.180220,3.257143,1.255678,0.144567,0.117705,-0.073748,0.112396,-1.547063,0.971333,0.212508,0.254240,-0.232108,0.193202,0.029809,0.003568,0.404982,0.443245,-0.515205
1.316774,0.074578,-1.553941,0.974861,0.127604,0.156214,-0.131418,0.162637,0.039560,-0.030769,0.300366,0.344322,-0.358974,0.158242,3.220513,1.267399,0.139194,0.114286,-0.067888,0.113363,-1.546914,0.971353,0.214539,0.256460,-0.234695,0.193560,0.029630,0.004551,0.406837,0.444262,-0.518632
1.321903,0.075341,-1.553941,0.974479,0.128748,0.158122,-0.132563,0.153846,0.030769,-0.030769,0.300366,0.417582,-0.315018,0.183150,3.185348,1.282051,0.133822,0.110867,-0.063980,0.114332,-1.546767,0.971379,0.216579,0.258684,-0.237298,0.193904,0.029446,0.005550,0.408687,0.445254,-0.522062
1.327003,0.076104,-1.553559,0.974479,0.130274,0.159266,-0.134089,0.162637,0.030769,-0.039560,0.300366,0.285714,-0.300366,0.178755,3.164835,1.330403,0.132845,0.105495,-0.062027,0.115303,-1.546620,0.971410,0.218628,0.260913,-0.239919,0.194236,0.029256,0.006563,0.410529,0.446222,-0.525494
1.332103,0.077630,-1.553559,0.974098,0.133326,0.162699,-0.137140,0.171429,0.021978,-0.039560,0.300366,0.344322,-0.329670,0.177289,3.164835,1.389011,0.126496,0.110867,-0.063004,0.116275,-1.546474,0.971446,0.220686,0.263147,-0.242556,0.194554,0.029062,0.007592,0.412365,0.447165,-0.528927
1.337212,0.078393,-1.553178,0.974098,0.134470,0.163844,-0.138666,0.171429,0.030769,-0.030769,0.271062,0.315018,-0.388278,0.169963,3.154579,1.450549,0.119658,0.106471,-0.063980,0.117249,-1.546329,0.971487,0.222753,0.265386,-0.245211,0.194858,0.028862,0.008635,0.414195,0.448082,-0.532363
1.342306,0.079156,-1.553178,0.973716,0.135996,0.165751,-0.140192,0.153846,0.039560,-0.021978,0.344322,0.402930,-0.388278,0.150916,3.131135,1.484249,0.112821,0.106960,-0.067399,0.118224,-1.546186,0.971533,0.224830,0.267629,-0.247884,0.195150,0.028657,0.009693,0.416018,0.448974,-0.535801
1.347400,0.079919,-1.552796,0.973716,0.137140,0.167277,-0.141718,0.189011,0.030769,-0.021978,0.300366,0.300366,-0.344322,0.152381,3.109157,1.506227,0.110867,0.114774,-0.073260,0.119200,-1.546043,0.971585,0.226915,0.269876,-0.250573,0.195427,0.028447,0.010767,0.417834,0.449840,-0.539241
1.352551,0.080682,-1.552796,0.973716,0.138666,0.168803,-0.143626,0.171429,0.021978,-0.013187,0.285714,0.344322,-0.402930,0.147985,3.090110,1.541392,0.109402,0.123565,-0.079121,0.120178,-1.545902,0.971642,0.229010,0.272128,-0.253279,0.195691,0.028232,0.011855,0.419644,0.450680,-0.542681
1.357660,0.081445,-1.552796,0.973716,0.139811,0.170710,-0.145151,0.153846,0.021978,-0.013187,0.271062,0.417582,-0.388278,0.126007,3.100366,1.556044,0.110379,0.126496,-0.085958,0.121158,-1.545761,0.971705,0.231113,0.274384,-0.256003,0.195940,0.028012,0.012959,0.421446,0.451495,-0.546124
1.362803,0.082971,-1.552415,0.973716,0.142863,0.174144,-0.149348,0.171429,0.013187,-0.013187,0.329670,0.373626,-0.417582,0.139194,3.122344,1.570696,0.111844,0.127473,-0.085958,0.122138,-1.545622,0.971773,0.233226,0.276644,-0.258744,0.196176,0.027786,0.014077,0.423242,0.452283,-0.549567
1.368003,0.082971,-1.552415,0.973716,0.142863,0.174144,-0.149348,0.171429,0.013187,-0.013187,0.329670,0.373626,-0.417582,0.142125,3.154579,1.572161,0.115751,0.129915,-0.086447,0.123119,-1.545483,0.971846,0.235348,0.278907,-0.261502,0.196398,0.027555,0.015211,0.425030,0.453046,-0.553012
1.373235,0.084497,-1.552415,0.973716,0.146296,0.177958,-0.153544,0.127473,0.021978,-0.013187,0.285714,0.358974,-0.388278,0.156777,3.189744,1.553114,0.120147,0.130403,-0.084005,0.124102,-1.545346,0.971926,0.237478,0.281175,-0.264278,0.196605,0.027320,0.016361,0.426811,0.453782,-0.556457
1.378402,0.085260,-1.552033,0.973716,0.147440,0.179866,-0.155451,0.153846,0.021978,-0.013187,0.329670,0.388278,-0.402930,0.183150,3.214652,1.520879,0.124542,0.134310,-0.082051,0.125086,-1.545210,0.972011,0.239617,0.283446,-0.267070,0.196798,0.027078,0.017526,0.428586,0.454491,-0.559904
1.383565,0.086023,-1.552033,0.973716,0.148966,0.181392,-0.156977,0.197802,0.030769,-0.013187,0.300366,0.344322,-0.388278,0.168498,3.233700,1.476923,0.130403,0.128938,-0.078144,0.126070,-1.545076,0.972102,0.241766,0.285720,-0.269880,0.196977,0.026832,0.018706,0.430353,0.455174,-0.563351
1.388753,0.086786,-1.552033,0.973335,0.150874,0.183299,-0.158885,0.153846,0.030769,-0.013187,0.358974,0.373626,-0.373626,0.199267,3.263004,1.430037,0.132357,0.121612,-0.075214,0.127056,-1.544942,0.972199,0.243923,0.287998,-0.272707,0.197141,0.026580,0.019901,0.432112,0.455830,-0.566798
1.393941,0.087549,-1.551652,0.973335,0.152399,0.185206,-0.160410,0.145055,0.030769,-0.021978,0.329670,0.388278,-0.388278,0.218315,3.287912,1.405128,0.137729,0.117216,-0.073748,0.128042,-1.544810,0.972303,0.246089,0.290279,-0.275552,0.197291,0.026324,0.021112,0.433864,0.456459,-0.570246
1.399159,0.088312,-1.551652,0.973335,0.153544,0.186351,-0.161936,0.197802,0.021978,-0.021978,0.300366,0.285714,-0.358974,0.213919,3.318681,1.393407,0.136752,0.116728,-0.073260,0.129029,-1.544679,0.972412,0.248263,0.292563,-0.278413,0.197426,0.026062,0.022339,0.435609,0.457061,-0.573694
1.404341,0.089075,-1.551270,0.973335,0.155070,0.188258,-0.163462,0.171429,0.021978,-0.021978,0.315018,0.388278,-0.329670,0.221245,3.349450,1.372894,0.140171,0.113797,-0.073260,0.130016,-1.544550,0.972527,0.250446,0.294850,-0.281292,0.197546,0.025794,0.023581,0.437346,0.457635,-0.577142
1.409493,0.090600,-1.551270,0.972953,0.158503,0.191691,-0.167277,0.171429,0.039560,-0.021978,0.373626,0.402930,-0.417582,0.225641,3.347985,1.368498,0.134310,0.113309,-0.073748,0.131004,-1.544422,0.972649,0.252638,0.297140,-0.284188,0.197651,0.025522,0.024839,0.439075,0.458183,-0.580590
1.414620,0.091363,-1.550889,0.972953,0.159648,0.193217,-0.168803,0.162637,0.039560,-0.013187,0.315018,0.373626,-0.388278,0.228571,3.334798,1.362637,0.134310,0.114774,-0.079121,0.131993,-1.544295,0.972777,0.254839,0.299433,-0.287101,0.197741,0.025244,0.026112,0.440797,0.458703,-0.584038
1.419733,0.092126,-1.550889,0.972953,0.161173,0.195506,-0.170710,0.189011,0.030769,-0.013187,0.271062,0.461538,-0.432234,0.228571,3.306960,1.365568,0.135287,0.120147,-0.083028,0.132982,-1.544170,0.972911,0.257048,0.301728,-0.290032,0.197816,0.024961,0.027401,0.442511,0.459195,-0.587485
1.424828,0.093271,-1.550507,0.972953,0.162699,0.196651,-0.172999,0.197802,0.030769,-0.013187,0.358974,0.358974,-0.461538,0.172894,3.286447,1.384615,0.137729,0.127473,-0.087912,0.133971,-1.544046,0.973052,0.259266,0.304025,-0.292980,0.197876,0.024673,0.028706,0.444217,0.459659,-0.590932
1.429941,0.094034,-1.550507,0.972953,0.164225,0.198558,-0.175288,0.153846,0.021978,-0.013187,0.300366,0.373626,-0.520147,0.156777,3.273260,1.394872,0.137729,0.127473,-0.088889,0.134960,-1.543923,0.973200,0.261492,0.306325,-0.295945,0.197920,0.024379,0.030027,0.445915,0.460096,-0.594378
1.435061,0.094797,-1.550507,0.972953,0.166133,0.200465,-0.177195,0.180220,0.021978,-0.004396,0.388278,0.402930,-0.520147,0.147985,3.260073,1.396337,0.133333,0.129915,-0.087424,0.136940,-1.543683,0.973515,0.265970,0.310930,-0.301926,0.197963,0.023777,0.032715,0.449287,0.460885,-0.601268
1.440182,0.096323,-1.550126,0.972953,0.168803,0.204280,-0.181010,0.180220,0.030769,-0.004396,0.285714,0.432234,-0.461538,0.111355,3.243956,1.390476,0.135287,0.131380,-0.084982,0.137930,-1.543565,0.973682,0.268221,0.313236,-0.304943,0.197960,0.023467,0.034083,0.450961,0.461237,-0.604711
1.445401,0.097086,-1.550126,0.972953,0.170329,0.205425,-0.182918,0.136264,0.030769,-0.004396,0.402930,0.358974,-0.432234,0.118681,3.229304,1.381685,0.138217,0.136752,-0.081563,0.138920,-1.543448,0.973857,0.270481,0.315543,-0.307977,0.197943,0.023153,0.035467,0.452626,0.461561,-0.608153
1.450506,0.097848,-1.549744,0.972953,0.171855,0.207332,-0.184825,0.180220,0.030769,-0.004396,0.315018,0.402930,-0.446886,0.147985,3.194139,1.362637,0.147009,0.132357,-0.076679,0.139909,-1.543334,0.974039,0.272749,0.317851,-0.311028,0.197909,0.022833,0.036867,0.454284,0.461856,-0.611593
1.455634,0.098611,-1.549744,0.972953,0.173381,0.208858,-0.186351,0.206593,0.030769,-0.004396,0.344322,0.373626,-0.388278,0.128938,3.157509,1.356777,0.143101,0.133822,-0.073748,0.140899,-1.543220,0.974227,0.275025,0.320162,-0.314096,0.197859,0.022509,0.038283,0.455933,0.462122,-0.615032
1.460734,0.099374,-1.549363,0.972953,0.175288,0.210765,-0.187877,0.171429,0.021978,-0.004396,0.417582,0.417582,-0.344322,0.133333,3.139927,1.350916,0.148474,0.131380,-0.070818,0.141888,-1.543109,0.974423,0.277310,0.322473,-0.317182,0.197794,0.022179,0.039715,0.457573,0.462360,-0.618469
1.465797,0.100137,-1.549363,0.972953,0.176432,0.212291,-0.189784,0.180220,0.021978,-0.004396,0.285714,0.344322,-0.432234,0.124542,3.134066,1.347985,0.152869,0.134310,-0.069841,0.142876,-1.542999,0.974626,0.279603,0.324785,-0.320284,0.197712,0.021843,0.041162,0.459205,0.462569,-0.621904
1.470993,0.101663,-1.548981,0.972953,0.179866,0.215724,-0.193599,0.162637,0.021978,-0.004396,0.388278,0.373626,-0.432234,0.143590,3.144322,1.333333,0.154335,0.135775,-0.070330,0.143865,-1.542891,0.974836,0.281904,0.327099,-0.323404,0.197614,0.021503,0.042626,0.460829,0.462750,-0.625337
1.476170,0.102426,-1.548981,0.972953,0.181392,0.217632,-0.195506,0.171429,0.030769,-0.004396,0.315018,0.417582,-0.432234,0.168498,3.138461,1.323077,0.151404,0.138706,-0.071306,0.144852,-1.542784,0.975053,0.284213,0.329413,-0.326541,0.197500,0.021157,0.044106,0.462444,0.462901,-0.628768
1.481295,0.103189,-1.548981,0.972953,0.183299,0.219539,-0.197414,0.153846,0.030769,-0.004396,0.417582,0.402930,-0.461538,0.178755,3.113553,1.312821,0.146032,0.136752,-0.075214,0.145839,-1.542679,0.975279,0.286530,0.331728,-0.329695,0.197369,0.020806,0.045602,0.464050,0.463023,-0.632197
1.486446,0.103952,-1.548600,0.972953,0.185206,0.221447,-0.199702,0.153846,0.030769,-0.004396,0.388278,0.402930,-0.505495,0.224176,3.085714,1.311355,0.147497,0.138706,-0.079121,0.146826,-1.542577,0.975511,0.288855,0.334043,-0.332867,0.197222,0.020450,0.047114,0.465648,0.463115,-0.635623
1.491543,0.104715,-1.548600,0.972953,0.186351,0.222972,-0.201991,0.206593,0.021978,-0.004396,0.358974,0.388278,-0.534799,0.240293,3.069597,1.318681,0.144078,0.147985,-0.082051,0.147812,-1.542475,0.975751,0.291188,0.336359,-0.336055,0.197058,0.020089,0.048643,0.467236,0.463179,-0.639046
1.496664,0.105859,-1.548600,0.972953,0.188258,0.224880,-0.204280,0.206593,0.021978,-0.004396,0.373626,0.417582,-0.549451,0.206593,3.071062,1.327473,0.139194,0.152869,-0.083516,0.148796,-1.542376,0.975999,0.293529,0.338675,-0.339260,0.196878,0.019722,0.050187,0.468816,0.463213,-0.642467
1.501907,0.107385,-1.548218,0.972953,0.191310,0.229076,-0.208858,0.189011,0.013187,-0.004396,0.329670,0.446886,-0.520147,0.199267,3.084249,1.331868,0.130891,0.150916,-0.083516,0.149780,-1.542279,0.976255,0.295877,0.340991,-0.342483,0.196681,0.019351,0.051748,0.470387,0.463217,-0.645884
1.507015,0.108148,-1.548218,0.972953,0.193217,0.230602,-0.210765,0.171429,0.021978,-0.004396,0.388278,0.417582,-0.490842,0.235897,3.090110,1.324542,0.129426,0.149939,-0.082051,0.150763,-1.542183,0.976518,0.298234,0.343307,-0.345723,0.196467,0.018974,0.053324,0.471949,0.463192,-0.649298
1.512119,0.108911,-1.547837,0.972953,0.194743,0.232128,-0.212291,0.206593,0.021978,-0.004396,0.344322,0.358974,-0.417582,0.237363,3.085714,1.328938,0.133822,0.155800,-0.080586,0.151745,-1.542089,0.976790,0.300598,0.345623,-0.348979,0.196236,0.018592,0.054917,0.473501,0.463137,-0.652710
1.517221,0.109674,-1.547837,0.972953,0.196269,0.234035,-0.214199,0.197802,0.030769,0.004396,0.358974,0.446886,-0.417582,0.249084,3.071062,1.337729,0.130891,0.152381,-0.078144,0.152725,-1.541997,0.977069,0.302971,0.347938,-0.352253,0.195989,0.018205,0.056527,0.475045,0.463052,-0.656117
1.522349,0.110819,-1.547837,0.972953,0.198177,0.236324,-0.216487,0.189011,0.030769,-0.004396,0.388278,0.417582,-0.432234,0.243223,3.054945,1.353846,0.127473,0.149451,-0.078632,0.153704,-1.541908,0.977356,0.305350,0.350253,-0.355544,0.195724,0.017813,0.058152,0.476579,0.462937,-0.659521
1.527457,0.111582,-1.547456,0.972953,0.199702,0.238231,-0.218395,0.171429,0.030769,-0.004396,0.402930,0.446886,-0.461538,0.254945,3.035897,1.387546,0.134799,0.144078,-0.080098,0.154682,-1.541820,0.977652,0.307738,0.352568,-0.358852,0.195442,0.017416,0.059794,0.478105,0.462792,-0.662922
1.532567,0.112345,-1.547456,0.972953,0.201228,0.239376,-0.220302,0.189011,0.021978,-0.004396,0.329670,0.358974,-0.490842,0.232967,3.027106,1.422711,0.144078,0.151404,-0.081074,0.155658,-1.541734,0.977956,0.310133,0.354881,-0.362177,0.195143,0.017014,0.061452,0.479620,0.462618,-0.666318
1.537753,0.114252,-1.547074,0.972953,0.205043,0.243572,-0.225261,0.189011,0.021978,0.004396,0.417582,0.432234,-0.549451,0.191941,3.032967,1.463736,0.147009,0.154335,-0.081563,0.156633,-1.541650,0.978268,0.312536,0.357194,-0.365518,0.194826,0.016607,0.063126,0.481127,0.462413,-0.669710
1.542866,0.115015,-1.547074,0.972953,0.206950,0.245861,-0.227550,0.215385,0.021978,0.004396,0.388278,0.446886,-0.564103,0.161172,3.030037,1.500366,0.152381,0.152381,-0.082051,0.157606,-1.541568,0.978589,0.314946,0.359505,-0.368877,0.194492,0.016194,0.064817,0.482623,0.462178,-0.673099
1.547976,0.115778,-1.547074,0.972953,0.208476,0.247387,-0.230220,0.180220,0.021978,0.004396,0.344322,0.432234,-0.608059,0.175824,3.013919,1.544322,0.154335,0.152869,-0.081074,0.158578,-1.541488,0.978918,0.317363,0.361815,-0.372253,0.194140,0.015777,0.066524,0.484111,0.461912,-0.676482
1.553099,0.116541,-1.546693,0.972953,0.210384,0.249294,-0.232891,0.171429,0.030769,0.004396,0.446886,0.388278,-0.608059,0.190476,2.994872,1.583883,0.155311,0.158730,-0.080098,0.159547,-1.541411,0.979256,0.319788,0.364124,-0.375645,0.193771,0.015354,0.068247,0.485589,0.461616,-0.679862
1.558208,0.117685,-1.546693,0.972953,0.212291,0.251202,-0.235180,0.180220,0.030769,0.004396,0.432234,0.432234,-0.549451,0.164103,2.965568,1.643956,0.157753,0.164103,-0.078144,0.160515,-1.541335,0.979602,0.322221,0.366431,-0.379055,0.193384,0.014927,0.069987,0.487057,0.461290,-0.683236
1.563318,0.118448,-1.546693,0.972953,0.213817,0.253109,-0.237087,0.162637,0.030769,0.004396,0.358974,0.446886,-0.520147,0.168498,2.943590,1.686447,0.151404,0.161661,-0.075702,0.161481,-1.541262,0.979958,0.324660,0.368736,-0.382481,0.192980,0.014494,0.071743,0.488515,0.460934,-0.686606
1.568440,0.119974,-1.546311,0.973335,0.217632,0.256924,-0.240902,0.197802,0.013187,0.013187,0.402930,0.402930,-0.432234,0.153846,2.936264,1.731868,0.154335,0.165079,-0.078144,0.162444,-1.541191,0.980322,0.327107,0.371040,-0.385924,0.192558,0.014057,0.073515,0.489964,0.460546,-0.689971
1.573568,0.120737,-1.546311,0.973335,0.218776,0.258450,-0.242809,0.153846,0.013187,0.013187,0.358974,0.417582,-0.461538,0.183150,2.936264,1.759707,0.157753,0.168010,-0.079609,0.163406,-1.541122,0.980695,0.329561,0.373341,-0.389384,0.192117,0.013615,0.075303,0.491403,0.460128,-0.693330
1.578704,0.121500,-1.546311,0.973335,0.220684,0.260739,-0.245098,0.206593,0.013187,0.021978,0.388278,0.446886,-0.505495,0.145055,2.950916,1.756777,0.151404,0.170452,-0.079609,0.164365,-1.541055,0.981077,0.332023,0.375640,-0.392861,0.191659,0.013168,0.077108,0.492831,0.459680,-0.696684
1.583840,0.122644,-1.545930,0.973335,0.222210,0.262646,-0.247387,0.189011,0.013187,0.021978,0.373626,0.490842,-0.520147,0.149451,2.961172,1.767033,0.154335,0.164591,-0.080586,0.165322,-1.540991,0.981468,0.334491,0.377937,-0.396354,0.191183,0.012715,0.078930,0.494250,0.459201,-0.700033
1.588938,0.123407,-1.545930,0.973716,0.224117,0.264553,-0.249676,0.206593,0.013187,0.021978,0.373626,0.402930,-0.549451,0.164103,2.965568,1.762637,0.159707,0.159219,-0.082540,0.166276,-1.540928,0.981868,0.336966,0.380232,-0.399864,0.190689,0.012258,0.080767,0.495659,0.458691,-0.703377
1.594035,0.124170,-1.545930,0.973716,0.226024,0.266079,-0.252346,0.197802,0.013187,0.021978,0.402930,0.402930,-0.593407,0.186081,2.955311,1.777289,0.158242,0.157753,-0.084982,0.167228,-1.540868,0.982277,0.339449,0.382524,-0.403391,0.190176,0.011796,0.082621,0.497058,0.458150,-0.706714
1.599150,0.126078,-1.545548,0.973716,0.229458,0.269894,-0.257687,0.162637,0.021978,0.013187,0.402930,0.417582,-0.622711,0.184615,2.956776,1.800733,0.164591,0.156288,-0.084982,0.168177,-1.540811,0.982696,0.341938,0.384813,-0.406935,0.189645,0.011330,0.084492,0.498447,0.457578,-0.710045
1.604292,0.126841,-1.545548,0.974098,0.231365,0.271801,-0.260357,0.189011,0.021978,0.004396,0.388278,0.417582,-0.593407,0.159707,2.947985,1.827106,0.168498,0.152869,-0.085470,0.169124,-1.540756,0.983124,0.344435,0.387099,-0.410495,0.189096,0.010858,0.086378,0.499826,0.456975,-0.713371
1.609411,0.127604,-1.545548,0.974098,0.233272,0.273709,-0.262646,0.206593,0.021978,0.013187,0.461538,0.432234,-0.534799,0.142125,2.959707,1.856410,0.169475,0.152381,-0.086447,0.170068,-1.540703,0.983561,0.346938,0.389382,-0.414072,0.188529,0.010382,0.088281,0.501194,0.456342,-0.716690
1.614532,0.128367,-1.545548,0.974098,0.235180,0.275616,-0.264553,0.180220,0.021978,0.013187,0.432234,0.388278,-0.505495,0.136264,2.981685,1.888645,0.169475,0.156777,-0.087912,0.171009,-1.540652,0.984009,0.349448,0.391662,-0.417665,0.187943,0.009901,0.090201,0.502552,0.455677,-0.720003
1.619680,0.129129,-1.545167,0.974098,0.237087,0.277523,-0.266842,0.197802,0.013187,0.013187,0.402930,0.432234,-0.476190,0.146520,2.999267,1.925275,0.167521,0.160195,-0.086447,0.171947,-1.540604,0.984465,0.351965,0.393938,-0.421275,0.187338,0.009415,0.092136,0.503900,0.454981,-0.723309
1.624790,0.130274,-1.545167,0.974098,0.238994,0.279431,-0.268750,0.171429,0.013187,0.021978,0.402930,0.446886,-0.490842,0.106960,3.008059,1.976557,0.163614,0.157265,-0.085470,0.172881,-1.540559,0.984932,0.354488,0.396211,-0.424902,0.186715,0.008924,0.094088,0.505237,0.454254,-0.726609
1.629918,0.131800,-1.545167,0.974479,0.242809,0.283627,-0.273709,0.206593,0.013187,0.039560,0.461538,0.432234,-0.564103,0.102564,3.030037,2.016117,0.161661,0.159707,-0.084982,0.173813,-1.540516,0.985408,0.357019,0.398480,-0.428545,0.186073,0.008429,0.096057,0.506564,0.453497,-0.729901
1.635077,0.132563,-1.545167,0.974861,0.244335,0.285534,-0.276379,0.171429,0.013187,0.039560,0.373626,0.461538,-0.564103,0.114286,3.057875,2.043956,0.155800,0.161661,-0.082051,0.175666,-1.540437,0.986391,0.362099,0.403006,-0.435880,0.184733,0.007424,0.100042,0.509185,0.451887,-0.736466
1.640177,0.133326,-1.544785,0.974861,0.246242,0.287442,-0.279049,0.180220,0.013187,0.039560,0.358974,0.402930,-0.637363,0.130403,3.076923,2.077656,0.156288,0.164591,-0.078144,0.176588,-1.540401,0.986897,0.364649,0.405263,-0.439572,0.184035,0.006915,0.102060,0.510480,0.451036,-0.739737
1.645280,0.134470,-1.544785,0.975242,0.248531,0.289349,-0.282483,0.189011,0.013187,0.048352,0.417582,0.432234,-0.652015,0.131868,3.107692,2.089377,0.154823,0.163126,-0.072772,0.177506,-1.540368,0.987413,0.367205,0.407515,-0.443280,0.183318,0.006401,0.104093,0.511765,0.450153,-0.743000
1.650389,0.135233,-1.544785,0.975242,0.250439,0.291257,-0.285153,0.145055,0.021978,0.048352,0.446886,0.432234,-0.637363,0.155311,3.135531,2.058608,0.151404,0.162149,-0.071306,0.178420,-1.540338,0.987940,0.369767,0.409763,-0.447005,0.182581,0.005883,0.106143,0.513038,0.449239,-0.746256
1.655519,0.135996,-1.544785,0.975624,0.251965,0.293545,-0.287442,0.215385,0.021978,0.048352,0.388278,0.476190,-0.549451,0.159707,3.173626,2.027839,0.157753,0.166056,-0.071795,0.179331,-1.540310,0.988477,0.372336,0.412007,-0.450746,0.181826,0.005360,0.108209,0.514301,0.448294,-0.749505
1.660628,0.136759,-1.544404,0.976005,0.253872,0.295453,-0.289731,0.206593,0.021978,0.039560,0.417582,0.388278,-0.549451,0.168498,3.197070,1.991209,0.165079,0.168498,-0.072772,0.180238,-1.540285,0.989024,0.374912,0.414245,-0.454503,0.181052,0.004833,0.110291,0.515553,0.447317,-0.752745
1.665743,0.138666,-1.544404,0.976387,0.258068,0.299268,-0.294308,0.189011,0.021978,0.030769,0.490842,0.432234,-0.505495,0.156777,3.210256,1.975092,0.164103,0.168010,-0.077656,0.181141,-1.540262,0.989582,0.377493,0.416479,-0.458277,0.180258,0.004301,0.112390,0.516794,0.446310,-0.755977
1.670880,0.139429,-1.544022,0.976387,0.259976,0.301175,-0.296597,0.162637,0.021978,0.030769,0.446886,0.446886,-0.549451,0.174359,3.214652,1.948718,0.162637,0.167521,-0.080586,0.182040,-1.540242,0.990150,0.380081,0.418707,-0.462066,0.179445,0.003765,0.114504,0.518024,0.445270,-0.759201
1.675965,0.140192,-1.544022,0.976387,0.261883,0.303082,-0.299268,0.162637,0.013187,0.039560,0.432234,0.432234,-0.564103,0.194872,3.217582,1.917949,0.165079,0.176313,-0.080098,0.182934,-1.540225,0.990729,0.382675,0.420930,-0.465872,0.178613,0.003225,0.116635,0.519243,0.444200,-0.762416
1.681082,0.140955,-1.544022,0.976768,0.263790,0.304990,-0.301938,0.197802,0.013187,0.039560,0.388278,0.432234,-0.578755,0.221245,3.208791,1.916484,0.166545,0.178755,-0.079121,0.183825,-1.540210,0.991319,0.385274,0.423148,-0.469694,0.177762,0.002680,0.118782,0.520451,0.443098,-0.765623
1.686213,0.141718,-1.544022,0.976768,0.265698,0.306897,-0.304990,0.224176,0.013187,0.039560,0.402930,0.417582,-0.652015,0.183150,3.204396,1.917949,0.160684,0.181685,-0.078144,0.184711,-1.540199,0.991919,0.387880,0.425360,-0.473531,0.176891,0.002130,0.120945,0.521648,0.441965,-0.768821
1.691311,0.142863,-1.544022,0.977150,0.267605,0.309186,-0.308042,0.197802,0.013187,0.048352,0.432234,0.402930,-0.652015,0.164103,3.191209,1.917949,0.153358,0.181197,-0.077167,0.185593,-1.540190,0.992530,0.390492,0.427567,-0.477385,0.176001,0.001577,0.123124,0.522834,0.440801,-0.772011
1.696412,0.143626,-1.543641,0.977531,0.269512,0.311093,-0.310712,0.206593,0.013187,0.057143,0.432234,0.446886,-0.695971,0.150916,3.186813,1.912088,0.158730,0.182662,-0.077167,0.186470,-1.540183,0.993153,0.393110,0.429767,-0.481255,0.175091,0.001019,0.125320,0.524008,0.439605,-0.775191
1.701522,0.145533,-1.543641,0.977913,0.273327,0.314908,-0.316052,0.162637,0.021978,0.057143,0.344322,0.476190,-0.608059,0.133333,3.176557,1.925275,0.161661,0.184127,-0.079121,0.187343,-1.540180,0.993786,0.395733,0.431961,-0.485140,0.174162,0.000457,0.127531,0.525171,0.438378,-0.778362
1.706610,0.146296,-1.543641,0.978294,0.275235,0.316815,-0.318341,0.206593,0.021978,0.048352,0.432234,0.402930,-0.608059,0.120147,3.163370,1.951648,0.158242,0.184615,-0.082051,0.188211,-1.540179,0.994430,0.398363,0.434150,-0.489042,0.173213,-0.000109,0.129758,0.526323,0.437120,-0.781524
1.711701,0.147059,-1.543259,0.978294,0.277523,0.318723,-0.321012,0.180220,0.021978,0.048352,0.490842,0.432234,-0.593407,0.146520,3.147253,1.967766,0.158242,0.181197,-0.085958,0.189074,-1.540182,0.995086,0.400998,0.436331,-0.492959,0.172245,-0.000679,0.132002,0.527463,0.435830,-0.784676
1.716800,0.147822,-1.543259,0.978676,0.279431,0.320630,-0.323301,0.162637,0.021978,0.048352,0.490842,0.432234,-0.608059,0.189011,3.128205,1.967766,0.167033,0.182173,-0.086447,0.189932,-1.540187,0.995752,0.403638,0.438507,-0.496891,0.171257,-0.001253,0.134261,0.528592,0.434509,-0.787818
1.721919,0.148585,-1.543259,0.979057,0.281338,0.322919,-0.325971,0.197802,0.013187,0.057143,0.417582,0.490842,-0.622711,0.164103,3.117949,1.961905,0.172405,0.185592,-0.086935,0.190786,-1.540195,0.996431,0.406285,0.440675,-0.500840,0.170249,-0.001832,0.136536,0.529710,0.433157,-0.790951
1.727023,0.149348,-1.542878,0.979057,0.283246,0.324445,-0.328641,0.153846,0.013187,0.048352,0.417582,0.402930,-0.622711,0.159707,3.107692,1.963370,0.177778,0.183150,-0.085958,0.191634,-1.540206,0.997120,0.408937,0.442837,-0.504804,0.169221,-0.002414,0.138827,0.530816,0.431774,-0.794073
1.732133,0.151255,-1.542878,0.979820,0.287442,0.328260,-0.334745,0.206593,0.013187,0.074725,0.505495,0.432234,-0.652015,0.143590,3.095971,1.938462,0.177778,0.184127,-0.082540,0.192477,-1.540220,0.997821,0.411594,0.444991,-0.508784,0.168173,-0.003001,0.141134,0.531910,0.430359,-0.797186
1.737207,0.152018,-1.542878,0.980201,0.289731,0.330549,-0.338178,0.171429,0.013187,0.065934,0.490842,0.490842,-0.739927,0.190476,3.082784,1.925275,0.182173,0.181197,-0.080098,0.193314,-1.540236,0.998534,0.414257,0.447139,-0.512779,0.167106,-0.003591,0.143457,0.532993,0.428913,-0.800288
1.742312,0.152781,-1.542878,0.980201,0.291638,0.332456,-0.340848,0.189011,0.004396,0.057143,0.446886,0.461538,-0.710623,0.171429,3.079853,1.925275,0.186081,0.180220,-0.079121,0.194147,-1.540256,0.999258,0.416925,0.449279,-0.516790,0.166019,-0.004185,0.145795,0.534064,0.427436,-0.803380
1.747479,0.153544,-1.542878,0.980583,0.293545,0.334745,-0.343519,0.171429,0.013187,0.065934,0.490842,0.476190,-0.652015,0.181685,3.071062,1.932601,0.184127,0.177778,-0.080586,0.194973,-1.540279,0.999994,0.419598,0.451412,-0.520816,0.164911,-0.004783,0.148150,0.535124,0.425928,-0.806461
1.752602,0.154688,-1.542496,0.980964,0.295453,0.336652,-0.346189,0.189011,0.013187,0.065934,0.417582,0.402930,-0.608059,0.158242,3.063736,1.935531,0.180708,0.178755,-0.084005,0.195795,-1.540305,1.000742,0.422277,0.453537,-0.524857,0.163784,-0.005385,0.150520,0.536172,0.424389,-0.809532
1.757740,0.155451,-1.542496,0.981346,0.297360,0.338941,-0.348859,0.197802,0.013187,0.057143,0.417582,0.461538,-0.608059,0.175824,3.053480,1.931136,0.178266,0.176801,-0.088400,0.196610,-1.540333,1.001502,0.424961,0.455654,-0.528914,0.162637,-0.005990,0.152905,0.537207,0.422818,-0.812591
1.762843,0.156214,-1.542496,0.981346,0.299649,0.340467,-0.351530,0.197802,0.013187,0.065934,0.446886,0.402930,-0.652015,0.152381,3.056410,1.950183,0.173871,0.172894,-0.090842,0.197420,-1.540365,1.002273,0.427650,0.457763,-0.532986,0.161469,-0.006600,0.155307,0.538231,0.421217,-0.815640
