Zeyu1-oss/dynamics_calibration_airbot/state_machine_demo/real_data/vali_ptrnSrch_N7T25QR-4.csv
time,q1,q2,q3,q4,q5,q6,qv1,qv2,qv3,qv4,qv5,qv6,tau1,tau2,tau3,tau4,tau5,tau6,q_des1,q_des2,q_des3,q_des4,q_des5,q_des6,qv_des1,qv_des2,qv_des3,qv_des4,qv_des5,qv_des6
0.000002,-0.001335,-1.576066,0.992790,-0.004005,0.006676,0.004387,-0.004396,-0.004396,-0.004396,-0.021978,-0.021978,-0.021978,-0.007326,2.879121,1.794872,-0.007326,-0.012210,0.007326,0.000000,-1.570796,0.994838,0.000000,0.000000,0.000000,0.000000,0.000000,-0.000000,0.000000,0.000000,-0.000000
0.005287,-0.001335,-1.576066,0.992790,-0.004005,0.006676,0.004387,-0.004396,-0.004396,-0.004396,-0.021978,-0.007326,-0.007326,0.021978,2.857143,1.809524,-0.009768,-0.012210,0.007326,-0.000000,-1.570796,0.994838,0.000000,0.000000,0.000000,-0.000015,0.000008,-0.000005,0.000002,0.000028,0.000015
0.010511,-0.001335,-1.576066,0.992790,-0.003624,0.006676,0.004387,-0.004396,-0.004396,-0.004396,-0.007326,-0.007326,-0.007326,0.017094,2.869353,1.833944,-0.008954,-0.010582,0.007326,-0.000000,-1.570796,0.994838,0.000000,0.000000,0.000000,-0.000061,0.000031,-0.000022,0.000007,0.000111,0.000061
0.015766,-0.001335,-1.575685,0.992790,-0.003624,0.006676,0.004387,-0.004396,0.004396,-0.004396,-0.007326,-0.007326,0.007326,0.036630,2.919414,1.831502,-0.007326,-0.010989,0.007326,-0.000001,-1.570796,0.994837,0.000000,0.000001,0.000001,-0.000137,0.000069,-0.000050,0.000015,0.000250,0.000136
0.020897,-0.001335,-1.575685,0.992790,-0.004005,0.006676,0.004387,-0.004396,0.004396,-0.004396,-0.021978,-0.021978,0.007326,0.042491,2.975824,1.862271,-0.006349,-0.011233,0.007326,-0.000002,-1.570795,0.994837,0.000000,0.000003,0.000002,-0.000244,0.000123,-0.000089,0.000025,0.000444,0.000243
0.026010,-0.001335,-1.575685,0.993172,-0.003624,0.006676,0.004387,-0.004396,0.004396,-0.004396,0.007326,0.007326,-0.007326,0.039072,3.006105,1.892552,-0.006512,-0.012210,0.007326,-0.000003,-1.570795,0.994836,0.000000,0.000006,0.000003,-0.000380,0.000193,-0.000139,0.000039,0.000693,0.000379
0.031128,-0.001335,-1.575685,0.993172,-0.003624,0.006676,0.004387,-0.004396,0.004396,0.004396,-0.007326,-0.007326,-0.021978,0.028257,3.050759,1.920460,-0.005931,-0.013605,0.006628,-0.000006,-1.570793,0.994836,0.000001,0.000010,0.000006,-0.000547,0.000278,-0.000201,0.000055,0.000996,0.000546
0.036294,-0.001335,-1.575685,0.993172,-0.004005,0.006676,0.004387,-0.004396,0.004396,0.004396,-0.021978,-0.007326,-0.021978,0.025641,3.093407,1.943223,-0.005495,-0.014652,0.006716,-0.000009,-1.570792,0.994834,0.000001,0.000017,0.000009,-0.000745,0.000380,-0.000274,0.000074,0.001353,0.000744
0.041449,-0.001335,-1.575685,0.993172,-0.003624,0.006676,0.004387,-0.004396,0.004396,0.004396,-0.007326,-0.007326,-0.007326,0.021978,3.129833,1.943020,-0.004613,-0.016009,0.006241,-0.000013,-1.570789,0.994833,0.000001,0.000025,0.000013,-0.000972,0.000497,-0.000358,0.000095,0.001765,0.000972
0.046615,-0.001335,-1.575685,0.993172,-0.003624,0.006676,0.004387,-0.004396,0.004396,0.004396,-0.007326,-0.021978,0.007326,0.016117,3.166300,1.951648,-0.003419,-0.017582,0.005861,-0.000019,-1.570787,0.994831,0.000002,0.000035,0.000019,-0.001229,0.000630,-0.000455,0.000119,0.002230,0.001231
0.051762,-0.001335,-1.575303,0.993172,-0.003624,0.006676,0.004387,-0.004396,0.013187,0.004396,-0.007326,-0.007326,-0.007326,0.017582,3.226374,1.960440,-0.000977,-0.020513,0.004884,-0.000026,-1.570783,0.994828,0.000003,0.000047,0.000026,-0.001517,0.000779,-0.000563,0.000144,0.002748,0.001521
0.056882,-0.001335,-1.575303,0.993172,-0.003624,0.006676,0.004387,-0.004396,0.013187,0.004396,-0.021978,-0.021978,-0.021978,0.010256,3.299634,1.980952,0.001465,-0.023443,0.003419,-0.000035,-1.570779,0.994825,0.000003,0.000063,0.000035,-0.001834,0.000944,-0.000683,0.000171,0.003319,0.001841
0.062054,-0.001335,-1.575303,0.993172,-0.003624,0.006676,0.004387,-0.004396,0.013187,0.004396,0.007326,-0.007326,-0.007326,0.005861,3.355311,1.980952,0.003419,-0.027839,0.001954,-0.000045,-1.570773,0.994821,0.000004,0.000081,0.000045,-0.002181,0.001125,-0.000815,0.000200,0.003943,0.002192
0.067204,-0.001335,-1.575303,0.993553,-0.003624,0.006676,0.004387,-0.004396,0.013187,0.004396,-0.007326,-0.036630,-0.007326,0.000000,3.397802,1.998535,0.005861,-0.032234,0.000488,-0.000057,-1.570767,0.994817,0.000005,0.000103,0.000057,-0.002558,0.001322,-0.000958,0.000231,0.004619,0.002574
0.072289,-0.001335,-1.575303,0.993553,-0.003624,0.006676,0.004387,-0.004396,0.021978,0.004396,0.021978,-0.007326,-0.007326,0.001465,3.416850,1.989744,0.008303,-0.037118,-0.001465,-0.000071,-1.570760,0.994811,0.000007,0.000128,0.000071,-0.002964,0.001536,-0.001114,0.000263,0.005347,0.002986
0.077472,-0.001335,-1.574922,0.993553,-0.003624,0.006294,0.004005,-0.004396,0.021978,0.004396,-0.007326,-0.007326,-0.007326,-0.001465,3.446154,1.982418,0.012210,-0.041514,-0.003419,-0.000087,-1.570752,0.994805,0.000008,0.000157,0.000087,-0.003400,0.001766,-0.001282,0.000296,0.006127,0.003430
0.082622,-0.001335,-1.574922,0.993553,-0.003624,0.006294,0.004005,-0.004396,0.021978,0.004396,0.007326,-0.007326,-0.021978,0.002930,3.456410,1.972161,0.015629,-0.045421,-0.004884,-0.000105,-1.570742,0.994798,0.000010,0.000190,0.000106,-0.003866,0.002013,-0.001462,0.000331,0.006959,0.003904
0.087711,-0.001335,-1.574922,0.993553,-0.003624,0.006294,0.004005,-0.004396,0.021978,0.004396,0.021978,-0.021978,-0.007326,0.000000,3.454945,1.960440,0.019536,-0.050794,-0.007326,-0.000126,-1.570731,0.994790,0.000011,0.000228,0.000127,-0.004360,0.002276,-0.001655,0.000367,0.007842,0.004409
0.092821,-0.001335,-1.574540,0.993553,-0.003624,0.005913,0.004005,-0.004396,0.013187,0.004396,0.007326,-0.021978,-0.021978,-0.002930,3.450549,1.963370,0.023932,-0.055189,-0.009280,-0.000149,-1.570719,0.994782,0.000013,0.000270,0.000151,-0.004885,0.002555,-0.001859,0.000404,0.008775,0.004944
0.097966,-0.001335,-1.574540,0.993553,-0.003624,0.005913,0.004005,-0.004396,0.013187,0.004396,-0.021978,-0.021978,0.007326,0.008791,3.440293,1.956044,0.028816,-0.059585,-0.011722,-0.000176,-1.570705,0.994772,0.000015,0.000317,0.000177,-0.005438,0.002852,-0.002077,0.000441,0.009760,0.005511
0.103054,-0.001335,-1.574540,0.993553,-0.003624,0.005913,0.004005,-0.004396,0.013187,0.004396,0.007326,-0.036630,-0.036630,0.011722,3.440293,1.963370,0.032234,-0.063004,-0.013675,-0.000204,-1.570690,0.994761,0.000018,0.000369,0.000206,-0.006021,0.003165,-0.002306,0.000480,0.010794,0.006109
0.108165,-0.001335,-1.574159,0.993553,-0.003624,0.005913,0.004005,-0.004396,0.013187,0.004396,-0.007326,-0.021978,-0.007326,0.011722,3.427106,1.956044,0.036142,-0.065934,-0.015140,-0.000236,-1.570673,0.994748,0.000020,0.000426,0.000239,-0.006632,0.003495,-0.002548,0.000518,0.011878,0.006737
0.113278,-0.001335,-1.574159,0.993935,-0.003624,0.005531,0.004005,-0.004396,0.021978,0.004396,-0.007326,-0.021978,-0.007326,0.013187,3.416850,1.969231,0.040537,-0.068376,-0.016606,-0.000271,-1.570655,0.994735,0.000023,0.000488,0.000274,-0.007273,0.003841,-0.002803,0.000558,0.013012,0.007397
0.118411,-0.001335,-1.574159,0.993935,-0.003624,0.005531,0.004005,-0.004396,0.021978,-0.004396,-0.007326,0.007326,-0.007326,0.010256,3.393407,1.967766,0.044444,-0.070330,-0.018071,-0.000310,-1.570634,0.994720,0.000026,0.000557,0.000313,-0.007942,0.004205,-0.003070,0.000597,0.014196,0.008087
0.123526,-0.001335,-1.573777,0.993935,-0.003624,0.005150,0.003624,-0.004396,0.021978,-0.004396,0.007326,-0.051282,-0.021978,0.000000,3.374359,1.967766,0.049328,-0.071795,-0.019536,-0.000352,-1.570612,0.994704,0.000029,0.000632,0.000356,-0.008640,0.004585,-0.003350,0.000637,0.015428,0.008809
0.128641,-0.001335,-1.573777,0.993935,-0.003243,0.005150,0.004005,-0.004396,0.021978,-0.004396,0.007326,-0.036630,-0.007326,0.008791,3.349450,1.963370,0.053236,-0.072283,-0.021001,-0.000397,-1.570588,0.994686,0.000032,0.000713,0.000402,-0.009367,0.004983,-0.003642,0.000677,0.016709,0.009561
0.133788,-0.001335,-1.573777,0.993935,-0.003243,0.005150,0.003624,-0.004396,0.013187,-0.004396,0.007326,-0.036630,-0.021978,0.016117,3.337729,1.950183,0.057631,-0.072772,-0.022466,-0.000446,-1.570562,0.994667,0.000036,0.000800,0.000452,-0.010122,0.005398,-0.003948,0.000717,0.018038,0.010344
0.138941,-0.001335,-1.573777,0.993935,-0.003243,0.005150,0.003624,-0.004396,0.013187,-0.004396,0.007326,-0.007326,-0.021978,0.017582,3.330403,1.954579,0.062027,-0.072772,-0.023932,-0.000499,-1.570534,0.994646,0.000040,0.000895,0.000507,-0.010906,0.005830,-0.004266,0.000757,0.019416,0.011158
0.144041,-0.001335,-1.573396,0.993935,-0.003243,0.004768,0.003624,-0.004396,0.013187,-0.004396,0.007326,-0.036630,-0.021978,0.016117,3.326007,1.954579,0.065934,-0.072283,-0.024908,-0.000556,-1.570503,0.994624,0.000043,0.000996,0.000565,-0.011717,0.006279,-0.004597,0.000796,0.020841,0.012003
0.149152,-0.001335,-1.573396,0.993935,-0.003243,0.004768,0.003624,-0.004396,0.013187,-0.004396,0.021978,-0.051282,-0.007326,0.005861,3.320146,1.957509,0.068864,-0.070330,-0.025885,-0.000617,-1.570471,0.994600,0.000048,0.001104,0.000628,-0.012558,0.006745,-0.004941,0.000835,0.022313,0.012880
0.154239,-0.001335,-1.573396,0.993935,-0.003243,0.004387,0.003624,-0.004396,0.004396,-0.004396,0.007326,-0.036630,-0.021978,-0.001465,3.305494,1.954579,0.071306,-0.067888,-0.026862,-0.000682,-1.570435,0.994574,0.000052,0.001221,0.000695,-0.013426,0.007229,-0.005298,0.000874,0.023832,0.013787
0.159340,-0.001335,-1.573396,0.993935,-0.002861,0.004387,0.003624,-0.004396,0.013187,-0.004396,0.007326,-0.036630,-0.021978,0.004396,3.298168,1.944322,0.074725,-0.066422,-0.028327,-0.000752,-1.570398,0.994547,0.000056,0.001344,0.000766,-0.014322,0.007730,-0.005668,0.000912,0.025398,0.014725
0.164455,-0.001335,-1.573396,0.993935,-0.002861,0.004387,0.003624,-0.004396,0.013187,-0.004396,0.021978,-0.007326,-0.007326,-0.001465,3.296703,1.929670,0.077656,-0.064957,-0.029792,-0.000827,-1.570357,0.994517,0.000061,0.001476,0.000843,-0.015246,0.008248,-0.006051,0.000949,0.027011,0.015694
0.169572,-0.001335,-1.573014,0.993935,-0.002861,0.004005,0.003624,-0.004396,0.013187,-0.004396,-0.007326,-0.051282,-0.007326,0.011722,3.299634,1.932601,0.079609,-0.062515,-0.031258,-0.000906,-1.570315,0.994486,0.000066,0.001616,0.000924,-0.016197,0.008784,-0.006448,0.000985,0.028669,0.016693
0.174674,-0.001335,-1.573014,0.993935,-0.002861,0.004005,0.003624,-0.004396,0.013187,-0.004396,-0.007326,-0.021978,-0.021978,0.011722,3.304029,1.948718,0.079609,-0.059585,-0.032723,-0.000990,-1.570269,0.994452,0.000071,0.001765,0.001011,-0.017176,0.009338,-0.006857,0.001021,0.030374,0.017724
0.179815,-0.001335,-1.573014,0.993935,-0.002861,0.004005,0.003624,-0.004396,0.013187,-0.004396,0.021978,-0.036630,0.007326,0.008791,3.304029,1.950183,0.080586,-0.057631,-0.034188,-0.001079,-1.570221,0.994417,0.000076,0.001922,0.001103,-0.018183,0.009909,-0.007279,0.001055,0.032123,0.018786
0.184909,-0.001335,-1.573014,0.993935,-0.002480,0.004005,0.003624,-0.004396,0.013187,-0.004396,0.007326,-0.021978,0.007326,-0.004396,3.289377,1.954579,0.081074,-0.054701,-0.035653,-0.001173,-1.570169,0.994379,0.000081,0.002088,0.001200,-0.019217,0.010498,-0.007715,0.001088,0.033918,0.019878
0.189993,-0.001335,-1.572633,0.993935,-0.002480,0.003624,0.003624,-0.004396,0.013187,-0.004396,0.007326,-0.007326,-0.021978,-0.013187,3.270330,1.948718,0.080586,-0.051770,-0.036630,-0.001272,-1.570115,0.994339,0.000087,0.002263,0.001303,-0.020278,0.011104,-0.008164,0.001120,0.035757,0.021002
0.195081,-0.001335,-1.572633,0.993935,-0.002480,0.003624,0.003243,-0.004396,0.013187,-0.004396,0.007326,-0.007326,-0.021978,-0.004396,3.245421,1.942857,0.079121,-0.049817,-0.038584,-0.001487,-1.569997,0.994252,0.000099,0.002641,0.001525,-0.022481,0.012371,-0.009102,0.001180,0.039569,0.023341
0.200268,-0.001335,-1.572633,0.993935,-0.002480,0.003624,0.003243,-0.004396,0.013187,-0.004396,0.021978,-0.021978,-0.007326,0.002930,3.226374,1.944322,0.076679,-0.049328,-0.040049,-0.001602,-1.569933,0.994205,0.000105,0.002845,0.001646,-0.023623,0.013031,-0.009591,0.001208,0.041540,0.024557
0.205384,-0.001335,-1.572633,0.993935,-0.002480,0.003624,0.003243,-0.004396,0.013187,-0.004396,0.007326,-0.007326,-0.007326,0.014652,3.201465,1.941392,0.075702,-0.049817,-0.042002,-0.001724,-1.569866,0.994156,0.000111,0.003059,0.001772,-0.024792,0.013709,-0.010093,0.001234,0.043555,0.025803
0.210560,-0.001335,-1.572633,0.993935,-0.002098,0.003624,0.003243,-0.004396,0.013187,-0.004396,0.007326,-0.007326,-0.007326,0.008791,3.179487,1.941392,0.072772,-0.050794,-0.042979,-0.001852,-1.569795,0.994104,0.000117,0.003283,0.001905,-0.025987,0.014405,-0.010608,0.001258,0.045613,0.027080
0.215796,-0.001335,-1.572251,0.993935,-0.002098,0.003624,0.003243,-0.004396,0.013187,-0.004396,-0.007326,-0.021978,-0.036630,0.013187,3.157509,1.936996,0.070330,-0.050305,-0.044444,-0.001985,-1.569721,0.994049,0.000123,0.003517,0.002044,-0.027208,0.015118,-0.011137,0.001281,0.047713,0.028388
0.220905,-0.001335,-1.572251,0.993935,-0.002098,0.003624,0.003243,-0.004396,0.013187,-0.004396,0.007326,-0.036630,-0.021978,-0.004396,3.132601,1.928205,0.067888,-0.051282,-0.045910,-0.002125,-1.569644,0.993992,0.000130,0.003762,0.002190,-0.028456,0.015850,-0.011680,0.001302,0.049856,0.029727
0.226014,-0.001335,-1.572251,0.993935,-0.002098,0.003243,0.003243,-0.004396,0.013187,-0.004396,-0.007326,-0.007326,-0.021978,-0.002930,3.115018,1.916484,0.066422,-0.052259,-0.046886,-0.002271,-1.569562,0.993932,0.000136,0.004018,0.002343,-0.029729,0.016600,-0.012236,0.001320,0.052041,0.031096
0.231184,-0.001335,-1.572251,0.993935,-0.001717,0.003243,0.003243,-0.004396,0.013187,-0.004396,0.051282,-0.021978,-0.007326,-0.005861,3.095971,1.922344,0.064469,-0.053724,-0.048352,-0.002424,-1.569477,0.993869,0.000143,0.004285,0.002503,-0.031029,0.017368,-0.012805,0.001337,0.054267,0.032496
0.236301,-0.001335,-1.572251,0.993935,-0.001717,0.003243,0.003243,-0.004396,0.013187,-0.004396,0.007326,-0.021978,-0.021978,-0.002930,3.085714,1.934066,0.061538,-0.056654,-0.049328,-0.002583,-1.569388,0.993803,0.000150,0.004563,0.002669,-0.032354,0.018154,-0.013388,0.001351,0.056534,0.033926
0.241450,-0.001335,-1.571870,0.993935,-0.001717,0.003243,0.003243,-0.004396,0.013187,-0.004396,-0.021978,0.007326,-0.021978,0.014652,3.084249,1.931136,0.059096,-0.058608,-0.050794,-0.002748,-1.569294,0.993735,0.000156,0.004852,0.002843,-0.033705,0.018959,-0.013984,0.001363,0.058843,0.035387
0.246591,-0.001335,-1.571870,0.993935,-0.001717,0.003243,0.003243,-0.004396,0.004396,-0.004396,0.007326,-0.021978,-0.021978,0.010256,3.073993,1.931136,0.057631,-0.060073,-0.051770,-0.002921,-1.569197,0.993663,0.000163,0.005154,0.003025,-0.035082,0.019781,-0.014594,0.001373,0.061192,0.036879
0.251709,-0.001335,-1.571870,0.993935,-0.001717,0.003243,0.003243,-0.004396,0.013187,-0.004396,-0.007326,-0.007326,-0.007326,0.000000,3.068132,1.915018,0.056654,-0.062027,-0.052747,-0.003101,-1.569096,0.993588,0.000170,0.005467,0.003214,-0.036483,0.020622,-0.015217,0.001380,0.063581,0.038400
0.256847,-0.001335,-1.571870,0.993935,-0.001717,0.003243,0.003243,-0.004396,0.004396,-0.004396,0.021978,0.007326,-0.007326,-0.013187,3.066667,1.925275,0.056166,-0.063492,-0.053724,-0.003287,-1.568990,0.993510,0.000177,0.005792,0.003410,-0.037910,0.021481,-0.015854,0.001384,0.066010,0.039953
0.261956,-0.001335,-1.571870,0.993935,-0.001717,0.003243,0.003243,-0.004396,0.004396,-0.004396,-0.007326,-0.007326,-0.021978,-0.002930,3.054945,1.928205,0.056166,-0.063004,-0.055189,-0.003481,-1.568880,0.993429,0.000184,0.006129,0.003615,-0.039362,0.022359,-0.016505,0.001387,0.068479,0.041535
0.267078,-0.001335,-1.571870,0.993935,-0.001717,0.003243,0.002861,-0.004396,0.004396,-0.004396,0.021978,-0.007326,-0.036630,0.004396,3.046154,1.945788,0.055189,-0.064469,-0.056166,-0.003683,-1.568766,0.993344,0.000191,0.006479,0.003827,-0.040838,0.023255,-0.017168,0.001386,0.070987,0.043148
0.272201,-0.001335,-1.571488,0.993935,-0.001717,0.003243,0.002861,-0.004396,0.004396,-0.004396,-0.007326,-0.007326,-0.021978,0.011722,3.047619,1.947253,0.056166,-0.065446,-0.057143,-0.003891,-1.568647,0.993256,0.000198,0.006842,0.004048,-0.042340,0.024169,-0.017846,0.001383,0.073533,0.044791
0.277316,-0.001335,-1.571488,0.993935,-0.001717,0.003243,0.002861,-0.004396,0.004396,-0.004396,-0.007326,-0.007326,-0.036630,0.008791,3.056410,1.945788,0.056166,-0.066422,-0.058120,-0.004107,-1.568523,0.993165,0.000205,0.007217,0.004277,-0.043865,0.025102,-0.018537,0.001377,0.076118,0.046464
0.282462,-0.001335,-1.571488,0.993935,-0.001335,0.003243,0.002861,-0.013187,0.004396,-0.004396,0.007326,-0.007326,-0.021978,0.016117,3.065201,1.935531,0.055189,-0.066911,-0.059096,-0.004331,-1.568395,0.993070,0.000212,0.007606,0.004515,-0.045415,0.026053,-0.019241,0.001367,0.078741,0.048167
0.287594,-0.001335,-1.571488,0.993935,-0.001335,0.003243,0.002861,-0.004396,0.004396,-0.004396,0.007326,-0.021978,-0.007326,0.005861,3.075458,1.926740,0.056166,-0.067399,-0.060562,-0.004563,-1.568261,0.992972,0.000218,0.008007,0.004761,-0.046989,0.027023,-0.019959,0.001355,0.081402,0.049900
0.292704,-0.001335,-1.571488,0.993935,-0.001335,0.003243,0.002861,-0.004396,0.004396,-0.004396,0.007326,-0.007326,-0.007326,-0.011722,3.078388,1.922344,0.056654,-0.068376,-0.061538,-0.004803,-1.568123,0.992870,0.000225,0.008422,0.005015,-0.048587,0.028011,-0.020691,0.001340,0.084100,0.051663
0.297842,-0.001335,-1.571488,0.993935,-0.001335,0.003243,0.002861,-0.013187,0.004396,-0.004396,0.007326,-0.021978,-0.007326,-0.030769,3.113553,1.929670,0.056654,-0.068864,-0.062027,-0.005051,-1.567980,0.992764,0.000232,0.008851,0.005279,-0.050209,0.029017,-0.021436,0.001322,0.086835,0.053456
0.302984,-0.001335,-1.571488,0.993935,-0.001335,0.003243,0.002861,-0.004396,0.004396,-0.004396,-0.007326,-0.007326,-0.007326,-0.054212,3.141392,1.934066,0.057631,-0.068376,-0.062515,-0.005307,-1.567832,0.992655,0.000238,0.009294,0.005552,-0.051855,0.030043,-0.022195,0.001301,0.089606,0.055279
0.308089,-0.001335,-1.571488,0.993935,-0.001335,0.003243,0.002861,-0.004396,0.004396,-0.004396,0.007326,-0.021978,-0.036630,-0.065934,3.170696,1.923810,0.056654,-0.067888,-0.063004,-0.005571,-1.567679,0.992542,0.000245,0.009750,0.005834,-0.053524,0.031086,-0.022967,0.001276,0.092414,0.057132
0.313198,-0.001335,-1.571488,0.993935,-0.001335,0.003243,0.002861,-0.004396,0.004396,-0.004396,0.007326,0.007326,-0.021978,-0.098169,3.201465,1.917949,0.056654,-0.067888,-0.063492,-0.005844,-1.567520,0.992424,0.000251,0.010221,0.006125,-0.055216,0.032149,-0.023753,0.001248,0.095258,0.059014
0.318317,-0.001335,-1.571107,0.993935,-0.001335,0.003243,0.002861,-0.013187,0.004396,-0.004396,-0.007326,0.007326,-0.007326,-0.139194,3.254212,1.916484,0.057631,-0.065934,-0.063980,-0.006125,-1.567356,0.992303,0.000257,0.010705,0.006426,-0.056931,0.033230,-0.024552,0.001217,0.098137,0.060926
0.323421,-0.001335,-1.571107,0.993935,-0.001335,0.003243,0.002861,-0.013187,0.004396,-0.004396,-0.007326,0.007326,-0.021978,-0.184615,3.282051,1.916484,0.057631,-0.064469,-0.064469,-0.006415,-1.567187,0.992178,0.000263,0.011205,0.006736,-0.058669,0.034330,-0.025365,0.001182,0.101051,0.062867
0.328558,-0.001335,-1.571107,0.993935,-0.001335,0.003243,0.002861,-0.013187,0.004396,-0.004396,0.021978,-0.036630,-0.007326,-0.227106,3.302564,1.926740,0.058120,-0.063004,-0.064957,-0.006713,-1.567012,0.992049,0.000269,0.011719,0.007056,-0.060430,0.035448,-0.026191,0.001144,0.104000,0.064838
0.333720,-0.001335,-1.571107,0.993935,-0.000954,0.003243,0.002861,-0.013187,0.013187,-0.004396,0.007326,0.007326,-0.007326,-0.285714,3.340659,1.934066,0.058120,-0.061050,-0.064469,-0.007021,-1.566831,0.991915,0.000275,0.012248,0.007387,-0.062213,0.036585,-0.027031,0.001102,0.106984,0.066838
0.338928,-0.001335,-1.571107,0.993935,-0.001335,0.003243,0.002861,-0.013187,0.013187,-0.004396,-0.021978,-0.021978,-0.021978,-0.323810,3.350916,1.931136,0.057631,-0.058120,-0.063980,-0.007337,-1.566645,0.991778,0.000280,0.012792,0.007727,-0.064019,0.037741,-0.027884,0.001057,0.110002,0.068868
0.344105,-0.001335,-1.571107,0.993935,-0.001335,0.003243,0.002861,-0.013187,0.013187,-0.004396,-0.007326,0.007326,-0.007326,-0.354579,3.375824,1.928205,0.058608,-0.054701,-0.063492,-0.007663,-1.566452,0.991636,0.000285,0.013351,0.008077,-0.065846,0.038915,-0.028750,0.001008,0.113053,0.070927
0.349294,-0.001717,-1.570726,0.993935,-0.000954,0.003243,0.002861,-0.021978,0.021978,-0.013187,0.021978,0.021978,-0.021978,-0.379487,3.364102,1.910623,0.058608,-0.050305,-0.063004,-0.007998,-1.566254,0.991489,0.000290,0.013926,0.008438,-0.067696,0.040108,-0.029630,0.000955,0.116137,0.073015
0.354478,-0.001717,-1.570726,0.993935,-0.000954,0.003624,0.002861,-0.030769,0.021978,-0.004396,-0.007326,-0.007326,-0.007326,-0.378022,3.352381,1.897436,0.058120,-0.045421,-0.062515,-0.008342,-1.566050,0.991338,0.000295,0.014516,0.008810,-0.069568,0.041320,-0.030523,0.000898,0.119255,0.075132
0.359619,-0.002098,-1.570726,0.993935,-0.000954,0.003624,0.002861,-0.048352,0.013187,-0.004396,0.007326,0.007326,0.021978,-0.369231,3.330403,1.868132,0.059096,-0.041026,-0.061538,-0.008695,-1.565840,0.991183,0.000299,0.015121,0.009192,-0.071460,0.042550,-0.031430,0.000838,0.122405,0.077278
0.364778,-0.002098,-1.570344,0.993935,-0.000954,0.003624,0.002861,-0.057143,0.013187,-0.004396,0.007326,0.021978,-0.007326,-0.356044,3.312820,1.850549,0.059096,-0.035165,-0.060073,-0.009058,-1.565623,0.991023,0.000303,0.015743,0.009585,-0.073375,0.043800,-0.032350,0.000774,0.125587,0.079453
0.369928,-0.002480,-1.570344,0.993553,-0.000954,0.003624,0.002861,-0.039560,0.013187,-0.004396,0.007326,0.021978,-0.007326,-0.332601,3.276190,1.806593,0.059096,-0.029792,-0.059096,-0.009431,-1.565401,0.990859,0.000307,0.016380,0.009989,-0.075310,0.045068,-0.033283,0.000706,0.128801,0.081656
0.375046,-0.002480,-1.570344,0.993553,-0.000954,0.003624,0.002861,-0.021978,0.013187,-0.004396,-0.007326,0.007326,-0.007326,-0.307692,3.265934,1.759707,0.059585,-0.024420,-0.057631,-0.010206,-1.564936,0.990515,0.000313,0.017704,0.010830,-0.079244,0.047660,-0.035189,0.000557,0.135322,0.086149
0.380184,-0.002480,-1.570344,0.993553,-0.000954,0.003624,0.002861,-0.021978,0.013187,-0.004396,-0.007326,0.007326,0.007326,-0.265201,3.263004,1.711355,0.060073,-0.018559,-0.056166,-0.010608,-1.564693,0.990336,0.000315,0.018391,0.011267,-0.081241,0.048984,-0.036162,0.000477,0.138629,0.088439
0.385312,-0.002861,-1.569963,0.993553,-0.000954,0.004005,0.002861,-0.039560,0.013187,-0.013187,-0.007326,-0.007326,-0.007326,-0.221245,3.242491,1.668864,0.062515,-0.011233,-0.054701,-0.011020,-1.564444,0.990153,0.000318,0.019094,0.011716,-0.083260,0.050328,-0.037148,0.000393,0.141967,0.090756
0.390431,-0.002861,-1.569963,0.993553,-0.000954,0.004005,0.002861,-0.057143,0.021978,-0.013187,-0.036630,0.007326,-0.007326,-0.155311,3.230769,1.630769,0.063004,-0.003419,-0.052747,-0.011443,-1.564189,0.989964,0.000319,0.019814,0.012177,-0.085298,0.051689,-0.038147,0.000304,0.145334,0.093102
0.395573,-0.003243,-1.569963,0.993553,-0.000572,0.004005,0.002861,-0.048352,0.021978,-0.013187,0.021978,0.021978,0.007326,-0.093773,3.205861,1.589744,0.062027,0.005372,-0.050794,-0.011875,-1.563926,0.989770,0.000320,0.020551,0.012650,-0.087356,0.053070,-0.039160,0.000211,0.148730,0.095476
0.400708,-0.003243,-1.569963,0.993553,-0.000954,0.004005,0.002861,-0.021978,0.021978,-0.013187,-0.007326,0.021978,-0.007326,-0.052747,3.198535,1.561905,0.062027,0.013187,-0.049328,-0.012318,-1.563657,0.989571,0.000321,0.021304,0.013134,-0.089434,0.054469,-0.040185,0.000114,0.152156,0.097879
0.405866,-0.003243,-1.569581,0.993553,-0.000572,0.004387,0.002861,-0.021978,0.021978,-0.021978,0.007326,0.007326,0.007326,-0.054212,3.194139,1.541392,0.062515,0.020513,-0.047375,-0.012772,-1.563380,0.989367,0.000322,0.022076,0.013631,-0.091531,0.055887,-0.041224,0.000013,0.155611,0.100309
0.410965,-0.003624,-1.569581,0.993553,-0.000572,0.004387,0.002861,-0.021978,0.013187,-0.013187,-0.007326,0.051282,-0.007326,-0.070330,3.207326,1.541392,0.061538,0.029304,-0.044933,-0.013236,-1.563096,0.989158,0.000321,0.022864,0.014140,-0.093647,0.057324,-0.042275,-0.000092,0.159094,0.102767
0.416131,-0.003624,-1.569581,0.993172,-0.000572,0.004768,0.002861,-0.021978,0.013187,-0.021978,-0.007326,0.051282,0.007326,-0.102564,3.236630,1.516484,0.061538,0.037118,-0.042491,-0.013710,-1.562805,0.988943,0.000320,0.023670,0.014661,-0.095783,0.058780,-0.043339,-0.000202,0.162605,0.105252
0.421258,-0.003624,-1.569200,0.993172,-0.000572,0.005150,0.003243,-0.030769,0.013187,-0.021978,0.007326,0.065934,0.007326,-0.136264,3.251282,1.495971,0.063004,0.042491,-0.039560,-0.014196,-1.562507,0.988723,0.000319,0.024494,0.015195,-0.097937,0.060254,-0.044416,-0.000316,0.166143,0.107765
0.426459,-0.004005,-1.569200,0.993172,-0.000572,0.005531,0.003243,-0.039560,0.013187,-0.021978,-0.021978,0.036630,0.007326,-0.153846,3.277656,1.497436,0.063004,0.046886,-0.036630,-0.014692,-1.562201,0.988498,0.000317,0.025335,0.015742,-0.100111,0.061747,-0.045506,-0.000435,0.169709,0.110306
0.431589,-0.004005,-1.569200,0.993172,-0.000572,0.005531,0.002861,-0.065934,0.013187,-0.021978,-0.007326,0.080586,-0.007326,-0.145055,3.286447,1.493040,0.062515,0.049817,-0.033700,-0.015199,-1.561888,0.988267,0.000315,0.026194,0.016301,-0.102302,0.063259,-0.046609,-0.000558,0.173301,0.112874
0.436697,-0.004387,-1.569200,0.993172,-0.000572,0.005913,0.003243,-0.074725,0.013187,-0.021978,0.007326,0.036630,-0.007326,-0.121612,3.314286,1.479854,0.061538,0.050305,-0.030281,-0.015717,-1.561567,0.988031,0.000311,0.027072,0.016873,-0.104512,0.064789,-0.047725,-0.000685,0.176920,0.115469
0.441788,-0.004387,-1.569200,0.992790,-0.000572,0.006294,0.003243,-0.039560,0.013187,-0.021978,-0.021978,0.065934,-0.007326,-0.155311,3.352381,1.487180,0.062027,0.050305,-0.027350,-0.016246,-1.561239,0.987789,0.000308,0.027967,0.017458,-0.106739,0.066339,-0.048853,-0.000817,0.180565,0.118092
0.446967,-0.004768,-1.568818,0.992790,-0.000572,0.006294,0.003243,-0.039560,0.021978,-0.021978,-0.007326,0.051282,0.007326,-0.196337,3.391941,1.495971,0.063004,0.050305,-0.023443,-0.016787,-1.560902,0.987541,0.000303,0.028881,0.018057,-0.108985,0.067906,-0.049994,-0.000954,0.184236,0.120741
0.452103,-0.005150,-1.568818,0.992790,-0.000572,0.007057,0.003243,-0.074725,0.030769,-0.021978,-0.007326,0.051282,0.007326,-0.174359,3.421245,1.494506,0.063980,0.049328,-0.018559,-0.017338,-1.560558,0.987288,0.000298,0.029813,0.018668,-0.111248,0.069493,-0.051147,-0.001095,0.187932,0.123417
0.457228,-0.005531,-1.568437,0.992790,-0.000572,0.007057,0.003243,-0.048352,0.021978,-0.021978,0.007326,0.051282,0.007326,-0.139194,3.440293,1.488645,0.064469,0.049328,-0.013187,-0.017902,-1.560206,0.987029,0.000292,0.030764,0.019293,-0.113528,0.071098,-0.052313,-0.001240,0.191653,0.126120
0.462332,-0.005531,-1.568437,0.992409,-0.000572,0.007439,0.003243,-0.030769,0.021978,-0.021978,-0.021978,0.007326,-0.007326,-0.142125,3.462271,1.465201,0.065446,0.051282,-0.007814,-0.018476,-1.559845,0.986763,0.000285,0.031734,0.019932,-0.115825,0.072722,-0.053492,-0.001390,0.195398,0.128850
0.467444,-0.005531,-1.568437,0.992409,-0.000572,0.007439,0.003243,-0.030769,0.021978,-0.021978,-0.007326,0.036630,-0.007326,-0.134799,3.466667,1.469597,0.065934,0.052747,-0.002930,-0.019062,-1.559477,0.986492,0.000278,0.032722,0.020585,-0.118140,0.074364,-0.054683,-0.001545,0.199168,0.131606
0.472554,-0.005913,-1.568055,0.992409,-0.000572,0.007820,0.003624,-0.030769,0.021978,-0.021978,0.007326,0.051282,-0.007326,-0.124542,3.488645,1.475458,0.064957,0.057631,0.002442,-0.019660,-1.559100,0.986215,0.000270,0.033729,0.021251,-0.120470,0.076025,-0.055886,-0.001704,0.202961,0.134388
0.477675,-0.005913,-1.568055,0.992409,-0.000572,0.008202,0.003624,-0.057143,0.030769,-0.013187,0.007326,0.065934,-0.007326,-0.112821,3.493040,1.460806,0.064469,0.064957,0.007814,-0.020269,-1.558715,0.985932,0.000261,0.034755,0.021931,-0.122817,0.077705,-0.057102,-0.001868,0.206777,0.137196
0.482779,-0.006676,-1.567674,0.992027,-0.000572,0.008583,0.003624,-0.048352,0.048352,-0.021978,-0.007326,0.051282,0.007326,-0.142125,3.469597,1.435897,0.065446,0.073748,0.014652,-0.020890,-1.558321,0.985643,0.000251,0.035801,0.022626,-0.125181,0.079402,-0.058329,-0.002037,0.210617,0.140031
0.487948,-0.006676,-1.567292,0.992027,-0.000572,0.008965,0.003624,-0.030769,0.039560,-0.021978,-0.007326,0.051282,0.007326,-0.210989,3.434432,1.415385,0.066422,0.082540,0.020513,-0.021523,-1.557919,0.985348,0.000240,0.036866,0.023335,-0.127560,0.081119,-0.059569,-0.002210,0.214479,0.142891
0.493073,-0.006676,-1.567292,0.992027,-0.000572,0.009346,0.003624,-0.039560,0.030769,-0.030769,-0.007326,0.109890,0.021978,-0.250549,3.412454,1.383150,0.066911,0.089377,0.026862,-0.022168,-1.557508,0.985046,0.000229,0.037950,0.024058,-0.129955,0.082854,-0.060821,-0.002388,0.218363,0.145777
0.498230,-0.007057,-1.567292,0.992027,-0.000572,0.010109,0.004005,-0.057143,0.030769,-0.030769,-0.021978,0.153846,0.007326,-0.268132,3.394872,1.365568,0.068376,0.091819,0.033211,-0.022825,-1.557089,0.984738,0.000216,0.039053,0.024795,-0.132365,0.084607,-0.062085,-0.002571,0.222269,0.148689
0.503378,-0.007439,-1.566911,0.991646,-0.000572,0.010872,0.004005,-0.074725,0.030769,-0.030769,-0.007326,0.124542,0.021978,-0.309158,3.389011,1.346520,0.070330,0.090354,0.039072,-0.023494,-1.556660,0.984424,0.000203,0.040176,0.025548,-0.134791,0.086379,-0.063361,-0.002758,0.226196,0.151626
0.508514,-0.007820,-1.566911,0.991646,-0.000572,0.011254,0.004005,-0.048352,0.039560,-0.030769,-0.007326,0.109890,0.021978,-0.360440,3.369963,1.336264,0.070330,0.087912,0.044444,-0.024176,-1.556223,0.984103,0.000188,0.041319,0.026315,-0.137231,0.088169,-0.064649,-0.002950,0.230145,0.154588
0.513716,-0.007820,-1.566529,0.991646,-0.000572,0.011254,0.004387,-0.048352,0.048352,-0.039560,-0.007326,0.036630,0.036630,-0.394139,3.330403,1.337729,0.070818,0.084493,0.049817,-0.024869,-1.555777,0.983776,0.000173,0.042482,0.027096,-0.139686,0.089978,-0.065949,-0.003147,0.234114,0.157576
0.518838,-0.008202,-1.566148,0.991264,-0.000572,0.011635,0.004387,-0.065934,0.048352,-0.039560,0.007326,0.036630,0.036630,-0.394139,3.292308,1.334799,0.071306,0.083516,0.056166,-0.025575,-1.555321,0.983443,0.000157,0.043664,0.027893,-0.142156,0.091805,-0.067260,-0.003348,0.238103,0.160588
0.523922,-0.008583,-1.566148,0.990883,-0.000572,0.012779,0.005150,-0.057143,0.039560,-0.048352,-0.007326,0.139194,0.065934,-0.382418,3.254212,1.358242,0.072283,0.081074,0.062027,-0.026293,-1.554857,0.983102,0.000139,0.044867,0.028705,-0.144640,0.093650,-0.068583,-0.003555,0.242112,0.163625
0.529006,-0.008965,-1.565766,0.990883,-0.000572,0.013161,0.005531,-0.039560,0.048352,-0.048352,-0.021978,0.139194,0.065934,-0.420513,3.198535,1.394872,0.072283,0.073748,0.066422,-0.027024,-1.554383,0.982755,0.000121,0.046089,0.029533,-0.147138,0.095513,-0.069918,-0.003766,0.246140,0.166687
0.534150,-0.008965,-1.565385,0.990501,-0.000191,0.013542,0.005913,-0.057143,0.048352,-0.039560,0.007326,0.109890,0.080586,-0.455678,3.173626,1.430037,0.071795,0.063492,0.068376,-0.027767,-1.553900,0.982402,0.000102,0.047332,0.030375,-0.149649,0.097395,-0.071264,-0.003981,0.250187,0.169774
0.539267,-0.009346,-1.565385,0.990501,-0.000191,0.013924,0.006676,-0.092308,0.030769,-0.030769,0.007326,0.051282,0.095238,-0.427839,3.157509,1.460806,0.070818,0.056166,0.069353,-0.028523,-1.553407,0.982041,0.000081,0.048595,0.031234,-0.152174,0.099294,-0.072622,-0.004202,0.254253,0.172885
0.544385,-0.009728,-1.565003,0.990501,-0.000191,0.014305,0.007057,-0.074725,0.021978,-0.021978,-0.007326,0.080586,0.124542,-0.402930,3.158974,1.479854,0.070818,0.050305,0.069353,-0.029292,-1.552905,0.981674,0.000059,0.049879,0.032107,-0.154713,0.101212,-0.073991,-0.004427,0.258337,0.176020
0.549516,-0.010109,-1.565003,0.990120,-0.000191,0.015068,0.007439,-0.074725,0.021978,-0.021978,-0.007326,0.153846,0.065934,-0.407326,3.153113,1.478388,0.069353,0.045421,0.068376,-0.030073,-1.552393,0.981300,0.000036,0.051183,0.032997,-0.157264,0.103148,-0.075371,-0.004657,0.262439,0.179179
0.554630,-0.010872,-1.564622,0.990120,-0.000191,0.015831,0.007439,-0.074725,0.030769,-0.021978,-0.007326,0.065934,0.021978,-0.397070,3.169231,1.460806,0.067888,0.044444,0.070330,-0.030867,-1.551872,0.980919,0.000012,0.052507,0.033902,-0.159828,0.105102,-0.076762,-0.004892,0.266559,0.182362
0.559701,-0.011254,-1.564622,0.990120,-0.000191,0.016213,0.007820,-0.057143,0.039560,-0.030769,-0.021978,0.065934,0.036630,-0.404396,3.189744,1.431502,0.067888,0.046886,0.072283,-0.031674,-1.551340,0.980531,-0.000013,0.053853,0.034824,-0.162405,0.107074,-0.078165,-0.005131,0.270695,0.185568
0.564836,-0.011254,-1.564240,0.990120,-0.000191,0.016213,0.007820,-0.083516,0.048352,-0.030769,-0.021978,0.065934,0.036630,-0.373626,3.211722,1.406593,0.067888,0.050305,0.074725,-0.032493,-1.550799,0.980136,-0.000039,0.055218,0.035761,-0.164994,0.109064,-0.079578,-0.005375,0.274849,0.188798
0.569932,-0.011635,-1.564240,0.989738,-0.000572,0.016594,0.008202,-0.092308,0.048352,-0.039560,-0.021978,0.080586,0.036630,-0.356044,3.229304,1.383150,0.067888,0.051282,0.076679,-0.033326,-1.550247,0.979734,-0.000067,0.056605,0.036715,-0.167594,0.111071,-0.081003,-0.005624,0.279018,0.192052
0.575029,-0.012016,-1.563859,0.989738,-0.000191,0.018120,0.008202,-0.065934,0.048352,-0.048352,-0.007326,0.212454,0.051282,-0.375092,3.242491,1.346520,0.067399,0.048352,0.079609,-0.035031,-1.549114,0.978908,-0.000126,0.059441,0.038672,-0.172831,0.115140,-0.083884,-0.006136,0.287404,0.198628
0.580133,-0.012779,-1.563478,0.989357,-0.000191,0.018883,0.008965,-0.109890,0.057143,-0.048352,-0.021978,0.065934,0.080586,-0.298901,3.260073,1.302564,0.067888,0.045421,0.083516,-0.035903,-1.548533,0.978484,-0.000157,0.060891,0.039675,-0.175467,0.117201,-0.085341,-0.006399,0.291620,0.201950
0.585247,-0.013161,-1.563096,0.988975,-0.000191,0.018883,0.009728,-0.065934,0.048352,-0.057143,0.007326,0.021978,0.109890,-0.273993,3.284982,1.280586,0.068376,0.048352,0.087424,-0.036788,-1.547940,0.978053,-0.000190,0.062362,0.040695,-0.178113,0.119280,-0.086808,-0.006667,0.295850,0.205295
0.590350,-0.013542,-1.563096,0.988975,-0.000191,0.019646,0.010109,-0.109890,0.039560,-0.065934,-0.007326,0.095238,0.124542,-0.256410,3.326007,1.293773,0.068864,0.053724,0.090354,-0.037687,-1.547338,0.977615,-0.000224,0.063854,0.041731,-0.180770,0.121376,-0.088286,-0.006939,0.300095,0.208662
0.595459,-0.013924,-1.562715,0.988594,-0.000191,0.020409,0.011254,-0.074725,0.039560,-0.057143,-0.007326,0.153846,0.183150,-0.250549,3.331868,1.305495,0.069353,0.056654,0.092308,-0.038599,-1.546724,0.977169,-0.000260,0.065367,0.042785,-0.183437,0.123490,-0.089774,-0.007216,0.304354,0.212052
0.600588,-0.014305,-1.562715,0.988212,-0.000191,0.021172,0.011635,-0.083516,0.057143,-0.048352,-0.007326,0.139194,0.139194,-0.243223,3.324542,1.315751,0.070330,0.059096,0.093284,-0.039524,-1.546101,0.976715,-0.000297,0.066902,0.043855,-0.186115,0.125621,-0.091273,-0.007498,0.308626,0.215463
0.606269,-0.014687,-1.562333,0.988212,-0.000191,0.021553,0.012016,-0.136264,0.057143,-0.039560,-0.007326,0.109890,0.095238,-0.228571,3.287912,1.340659,0.070818,0.061050,0.091819,-0.040462,-1.545466,0.976254,-0.000335,0.068458,0.044943,-0.188803,0.127770,-0.092781,-0.007785,0.312911,0.218897
0.611397,-0.015831,-1.561952,0.987831,-0.000191,0.023079,0.012398,-0.118681,0.048352,-0.048352,-0.021978,0.197802,0.051282,-0.177289,3.289377,1.374359,0.071306,0.057631,0.092308,-0.041415,-1.544821,0.975786,-0.000375,0.070035,0.046048,-0.191500,0.129936,-0.094300,-0.008076,0.317209,0.222352
0.616553,-0.015831,-1.561952,0.987831,-0.000191,0.023079,0.012398,-0.118681,0.048352,-0.048352,-0.021978,0.197802,0.051282,-0.147985,3.299634,1.403663,0.071795,0.051282,0.091819,-0.042380,-1.544164,0.975310,-0.000416,0.071634,0.047170,-0.194207,0.132119,-0.095829,-0.008371,0.321519,0.225829
0.621660,-0.016594,-1.561189,0.987449,-0.000191,0.023842,0.013924,-0.092308,0.057143,-0.048352,-0.007326,0.065934,0.139194,-0.174359,3.283516,1.427106,0.072772,0.052259,0.088400,-0.043359,-1.543497,0.974826,-0.000459,0.073255,0.048309,-0.196923,0.134320,-0.097367,-0.008671,0.325841,0.229327
0.626750,-0.016976,-1.560807,0.987068,-0.000191,0.024987,0.015068,-0.136264,0.057143,-0.048352,-0.007326,0.212454,0.183150,-0.131868,3.282051,1.430037,0.073748,0.054701,0.082051,-0.044352,-1.542819,0.974335,-0.000503,0.074897,0.049467,-0.199648,0.136537,-0.098915,-0.008976,0.330174,0.232846
0.631863,-0.017357,-1.560426,0.987068,-0.000191,0.025750,0.015831,-0.101099,0.065934,-0.057143,-0.007326,0.197802,0.183150,-0.167033,3.274725,1.447619,0.074725,0.056166,0.073748,-0.045359,-1.542130,0.973835,-0.000549,0.076561,0.050641,-0.202381,0.138772,-0.100473,-0.009285,0.334519,0.236385
0.636979,-0.018120,-1.560044,0.986687,-0.000191,0.026513,0.016213,-0.127473,0.074725,-0.065934,0.007326,0.139194,0.139194,-0.127473,3.242491,1.460806,0.074237,0.054212,0.066422,-0.046379,-1.541429,0.973328,-0.000596,0.078246,0.051834,-0.205123,0.141024,-0.102041,-0.009599,0.338875,0.239946
0.642074,-0.018502,-1.559663,0.986305,-0.000191,0.026894,0.016594,-0.074725,0.057143,-0.065934,-0.021978,0.109890,0.080586,-0.181685,3.205861,1.462271,0.074237,0.050305,0.062027,-0.047413,-1.540717,0.972813,-0.000645,0.079954,0.053044,-0.207873,0.143293,-0.103618,-0.009918,0.343240,0.243527
0.647216,-0.018883,-1.559663,0.986305,-0.000191,0.027276,0.016976,-0.127473,0.065934,-0.048352,-0.021978,0.109890,0.080586,-0.167033,3.175092,1.454945,0.073260,0.055189,0.059096,-0.048460,-1.539994,0.972291,-0.000696,0.081683,0.054273,-0.210631,0.145579,-0.105204,-0.010240,0.347616,0.247128
0.652351,-0.019265,-1.559281,0.985924,-0.000191,0.028038,0.017739,-0.101099,0.074725,-0.048352,-0.021978,0.124542,0.109890,-0.162637,3.138461,1.453480,0.071795,0.063004,0.056654,-0.049522,-1.539259,0.971760,-0.000748,0.083434,0.055519,-0.213396,0.147881,-0.106800,-0.010568,0.352001,0.250750
0.657451,-0.020409,-1.558518,0.985542,-0.000191,0.029946,0.019265,-0.101099,0.057143,-0.057143,-0.007326,0.212454,0.168498,-0.187546,3.142857,1.462271,0.070330,0.067888,0.051770,-0.050597,-1.538513,0.971221,-0.000802,0.085208,0.056784,-0.216169,0.150200,-0.108405,-0.010899,0.356395,0.254391
0.662548,-0.021172,-1.558137,0.985161,-0.000191,0.030709,0.019646,-0.136264,0.065934,-0.057143,0.007326,0.183150,0.109890,-0.196337,3.110623,1.454945,0.069353,0.071306,0.044444,-0.051686,-1.537755,0.970674,-0.000857,0.087003,0.058067,-0.218948,0.152536,-0.110019,-0.011235,0.360798,0.258052
0.667672,-0.021553,-1.557755,0.985161,-0.000191,0.031090,0.019646,-0.101099,0.065934,-0.057143,-0.007326,0.109890,0.021978,-0.234432,3.065201,1.447619,0.067888,0.077656,0.039072,-0.052789,-1.536985,0.970119,-0.000914,0.088820,0.059368,-0.221735,0.154889,-0.111641,-0.011576,0.365210,0.261732
0.672782,-0.021935,-1.557755,0.984779,-0.000191,0.031853,0.019646,-0.136264,0.057143,-0.065934,-0.007326,0.109890,0.021978,-0.215385,3.085714,1.440293,0.065934,0.083516,0.038095,-0.053906,-1.536203,0.969556,-0.000973,0.090659,0.060688,-0.224528,0.157258,-0.113273,-0.011921,0.369629,0.265432
0.677888,-0.022698,-1.557374,0.984398,-0.000191,0.033379,0.020027,-0.101099,0.074725,-0.074725,-0.007326,0.285714,0.036630,-0.246154,3.072527,1.468132,0.063980,0.084982,0.040049,-0.055037,-1.535410,0.968985,-0.001034,0.092521,0.062026,-0.227327,0.159643,-0.114913,-0.012270,0.374056,0.269150
0.682999,-0.023079,-1.556992,0.984398,-0.000191,0.033761,0.020790,-0.153846,0.074725,-0.065934,-0.007326,0.168498,0.095238,-0.227106,3.090110,1.482784,0.061538,0.088400,0.043956,-0.056182,-1.534605,0.968405,-0.001096,0.094404,0.063383,-0.230132,0.162045,-0.116562,-0.012623,0.378490,0.272888
0.688134,-0.024224,-1.556229,0.983635,-0.000191,0.035286,0.022316,-0.127473,0.074725,-0.065934,-0.007326,0.153846,0.183150,-0.260806,3.142857,1.481319,0.060073,0.091819,0.043956,-0.057341,-1.533787,0.967818,-0.001161,0.096310,0.064759,-0.232943,0.164463,-0.118219,-0.012981,0.382931,0.276644
0.693311,-0.024605,-1.555848,0.983253,-0.000191,0.035668,0.023079,-0.118681,0.092308,-0.074725,-0.007326,0.124542,0.197802,-0.237363,3.136996,1.476923,0.058120,0.099145,0.042491,-0.058515,-1.532957,0.967221,-0.001227,0.098238,0.066154,-0.235759,0.166897,-0.119885,-0.013343,0.387378,0.280418
0.698447,-0.025368,-1.555467,0.983253,-0.000191,0.037194,0.023842,-0.171429,0.074725,-0.057143,-0.007326,0.241758,0.139194,-0.224176,3.156044,1.478388,0.057143,0.100122,0.041514,-0.059702,-1.532116,0.966617,-0.001294,0.100188,0.067567,-0.238581,0.169347,-0.121558,-0.013709,0.391831,0.284210
0.703573,-0.025750,-1.555085,0.982872,-0.000191,0.038338,0.024224,-0.101099,0.092308,-0.065934,-0.021978,0.271062,0.080586,-0.243223,3.188278,1.478388,0.056166,0.092796,0.042002,-0.060903,-1.531261,0.966004,-0.001364,0.102161,0.068999,-0.241407,0.171813,-0.123240,-0.014079,0.396290,0.288021
0.708701,-0.026513,-1.554704,0.982490,-0.000191,0.039101,0.024224,-0.153846,0.074725,-0.074725,0.007326,0.168498,0.065934,-0.231502,3.195604,1.479854,0.054701,0.088400,0.044933,-0.062119,-1.530395,0.965383,-0.001436,0.104156,0.070451,-0.244238,0.174295,-0.124930,-0.014453,0.400754,0.291849
0.713826,-0.026894,-1.554322,0.982490,-0.000191,0.040246,0.024987,-0.136264,0.074725,-0.074725,-0.007326,0.227106,0.109890,-0.257875,3.236630,1.506227,0.054212,0.086447,0.047863,-0.063348,-1.529516,0.964753,-0.001509,0.106173,0.071922,-0.247073,0.176793,-0.126628,-0.014831,0.405223,0.295694
0.718958,-0.028420,-1.553559,0.981727,-0.000191,0.041772,0.026513,-0.145055,0.101099,-0.065934,-0.007326,0.227106,0.168498,-0.238828,3.254212,1.515018,0.053724,0.084005,0.047863,-0.064592,-1.528625,0.964115,-0.001584,0.108212,0.073412,-0.249912,0.179306,-0.128333,-0.015214,0.409696,0.299557
0.724116,-0.028801,-1.553178,0.981346,-0.000191,0.043297,0.026894,-0.118681,0.101099,-0.083516,-0.007326,0.256410,0.095238,-0.257875,3.232234,1.522344,0.053724,0.069353,0.047375,-0.065850,-1.527720,0.963468,-0.001662,0.110274,0.074921,-0.252756,0.181835,-0.130046,-0.015600,0.414173,0.303437
0.729237,-0.029564,-1.552415,0.980964,-0.000191,0.044060,0.026894,-0.171429,0.092308,-0.074725,-0.007326,0.197802,0.065934,-0.228571,3.224908,1.519414,0.052747,0.062027,0.048352,-0.067123,-1.526804,0.962813,-0.001741,0.112359,0.076450,-0.255602,0.184380,-0.131767,-0.015990,0.418654,0.307333
0.734382,-0.029946,-1.552415,0.980964,-0.000191,0.045205,0.027657,-0.145055,0.074725,-0.065934,0.007326,0.256410,0.080586,-0.259341,3.242491,1.500366,0.051770,0.055189,0.051770,-0.068409,-1.525874,0.962149,-0.001822,0.114465,0.077999,-0.258452,0.186940,-0.133495,-0.016385,0.423138,0.311247
0.739497,-0.030709,-1.551652,0.980583,-0.000191,0.045968,0.028038,-0.145055,0.101099,-0.074725,-0.007326,0.168498,0.095238,-0.260806,3.224908,1.497436,0.051770,0.049817,0.059585,-0.069710,-1.524932,0.961476,-0.001905,0.116595,0.079567,-0.261305,0.189515,-0.135230,-0.016783,0.427625,0.315176
0.744621,-0.031472,-1.551270,0.980201,-0.000191,0.046731,0.028801,-0.145055,0.101099,-0.083516,-0.021978,0.183150,0.168498,-0.279853,3.242491,1.478388,0.051770,0.043956,0.066911,-0.071025,-1.523976,0.960795,-0.001990,0.118746,0.081154,-0.264160,0.192106,-0.136972,-0.017185,0.432114,0.319121
0.749701,-0.032616,-1.550507,0.979438,-0.000191,0.048638,0.030709,-0.180220,0.092308,-0.074725,0.007326,0.168498,0.212454,-0.285714,3.246886,1.466667,0.049817,0.035653,0.070330,-0.072355,-1.523008,0.960105,-0.002077,0.120920,0.082762,-0.267018,0.194712,-0.138722,-0.017590,0.436606,0.323083
0.754829,-0.033379,-1.550126,0.979438,-0.000191,0.049783,0.031090,-0.162637,0.092308,-0.092308,-0.007326,0.271062,0.153846,-0.282784,3.264469,1.485714,0.048352,0.034676,0.073748,-0.073698,-1.522027,0.959406,-0.002166,0.123117,0.084389,-0.269878,0.197332,-0.140478,-0.017999,0.441099,0.327060
0.759946,-0.034142,-1.549363,0.979057,-0.000191,0.050927,0.031472,-0.171429,0.109890,-0.083516,-0.007326,0.241758,0.109890,-0.294506,3.246886,1.488645,0.046886,0.032234,0.079121,-0.075056,-1.521032,0.958698,-0.002258,0.125336,0.086036,-0.272740,0.199968,-0.142240,-0.018413,0.445593,0.331052
0.765101,-0.034905,-1.548981,0.978676,-0.000191,0.052071,0.032235,-0.189011,0.109890,-0.092308,-0.021978,0.227106,0.124542,-0.260806,3.216117,1.488645,0.044933,0.031258,0.085470,-0.077815,-1.519003,0.957256,-0.002446,0.129841,0.089391,-0.278468,0.205283,-0.145786,-0.019249,0.454584,0.339081
0.770241,-0.035668,-1.548600,0.978294,-0.000191,0.052834,0.032998,-0.171429,0.127473,-0.083516,-0.021978,0.227106,0.153846,-0.259341,3.186813,1.495971,0.043468,0.027350,0.091819,-0.079216,-1.517969,0.956522,-0.002544,0.132127,0.091099,-0.281334,0.207963,-0.147568,-0.019673,0.459080,0.343118
0.775351,-0.036431,-1.547837,0.977913,-0.000191,0.053597,0.034142,-0.145055,0.101099,-0.065934,-0.007326,0.153846,0.197802,-0.254945,3.198535,1.484249,0.041514,0.034188,0.094750,-0.080631,-1.516921,0.955779,-0.002643,0.134436,0.092826,-0.284200,0.210657,-0.149356,-0.020100,0.463576,0.347169
0.780453,-0.037957,-1.547074,0.977150,-0.000191,0.055886,0.035668,-0.197802,0.109890,-0.092308,0.007326,0.256410,0.139194,-0.257875,3.197070,1.471062,0.039560,0.040049,0.097192,-0.082061,-1.515859,0.955026,-0.002745,0.136768,0.094574,-0.287067,0.213365,-0.151150,-0.020531,0.468071,0.351235
0.785585,-0.038338,-1.546311,0.976768,-0.000572,0.057031,0.036431,-0.153846,0.136264,-0.092308,-0.021978,0.241758,0.153846,-0.273993,3.120879,1.476923,0.038095,0.050794,0.097680,-0.083505,-1.514784,0.954265,-0.002849,0.139122,0.096343,-0.289934,0.216088,-0.152951,-0.020965,0.472566,0.355314
0.790696,-0.039483,-1.545930,0.976387,-0.000191,0.058175,0.037194,-0.180220,0.101099,-0.101099,-0.007326,0.256410,0.197802,-0.259341,3.117949,1.473993,0.035653,0.058120,0.095726,-0.084963,-1.513696,0.953495,-0.002955,0.141498,0.098132,-0.292801,0.218825,-0.154757,-0.021403,0.477058,0.359406
0.795785,-0.040246,-1.545167,0.976005,-0.000572,0.059319,0.038338,-0.215385,0.127473,-0.092308,-0.007326,0.256410,0.227106,-0.181685,3.088645,1.476923,0.032723,0.060073,0.093284,-0.086436,-1.512593,0.952716,-0.003064,0.143897,0.099941,-0.295668,0.221576,-0.156568,-0.021843,0.481549,0.363513
0.800947,-0.041009,-1.544785,0.975624,-0.000191,0.060845,0.039101,-0.189011,0.109890,-0.083516,0.007326,0.271062,0.197802,-0.187546,3.078388,1.459341,0.030769,0.060562,0.095238,-0.087923,-1.511477,0.951928,-0.003174,0.146318,0.101771,-0.298534,0.224340,-0.158386,-0.022287,0.486038,0.367632
0.806084,-0.041772,-1.544404,0.975242,-0.000572,0.061608,0.039864,-0.206593,0.127473,-0.101099,-0.007326,0.212454,0.183150,-0.142125,3.030037,1.427106,0.028816,0.067888,0.096703,-0.089424,-1.510347,0.951130,-0.003287,0.148761,0.103621,-0.301399,0.227119,-0.160208,-0.022734,0.490525,0.371764
0.811197,-0.042916,-1.543641,0.974861,-0.000191,0.063516,0.041390,-0.171429,0.118681,-0.092308,-0.021978,0.329670,0.227106,-0.143590,3.031502,1.405128,0.026862,0.073260,0.093284,-0.090939,-1.509203,0.950324,-0.003402,0.151228,0.105493,-0.304263,0.229911,-0.162036,-0.023185,0.495008,0.375909
0.816293,-0.044442,-1.542496,0.973716,-0.000572,0.065805,0.043679,-0.206593,0.127473,-0.101099,-0.021978,0.227106,0.241758,-0.145055,3.024176,1.396337,0.024420,0.079121,0.086447,-0.092469,-1.508045,0.949508,-0.003519,0.153716,0.107385,-0.307125,0.232717,-0.163869,-0.023638,0.499488,0.380066
0.821438,-0.045205,-1.541733,0.973335,-0.000572,0.067330,0.044442,-0.206593,0.118681,-0.092308,-0.007326,0.300366,0.241758,-0.133333,3.056410,1.375824,0.021001,0.086447,0.080098,-0.094014,-1.506873,0.948683,-0.003639,0.156227,0.109297,-0.309986,0.235536,-0.165707,-0.024094,0.503964,0.384235
0.826570,-0.045968,-1.541352,0.972953,-0.000572,0.068475,0.045968,-0.197802,0.136264,-0.101099,-0.021978,0.300366,0.271062,-0.124542,3.052015,1.384615,0.017582,0.083028,0.075214,-0.095572,-1.505687,0.947849,-0.003761,0.158760,0.111231,-0.312844,0.238368,-0.167549,-0.024553,0.508437,0.388416
0.831732,-0.046731,-1.540589,0.972572,-0.000572,0.070001,0.046731,-0.215385,0.136264,-0.101099,-0.021978,0.271062,0.212454,-0.123077,3.052015,1.386081,0.014652,0.081563,0.068864,-0.097145,-1.504487,0.947006,-0.003885,0.161316,0.113186,-0.315701,0.241214,-0.169396,-0.025015,0.512905,0.392608
0.836868,-0.047875,-1.540208,0.972190,-0.000572,0.071145,0.047494,-0.171429,0.145055,-0.127473,-0.021978,0.285714,0.168498,-0.114286,3.093040,1.410989,0.011722,0.076190,0.062515,-0.098732,-1.503272,0.946153,-0.004011,0.163894,0.115161,-0.318554,0.244072,-0.171248,-0.025480,0.517368,0.396812
0.841969,-0.048638,-1.539445,0.971809,-0.000572,0.072671,0.048638,-0.206593,0.118681,-0.101099,0.007326,0.315018,0.227106,-0.117216,3.116483,1.418315,0.009280,0.072283,0.057631,-0.100333,-1.502043,0.945292,-0.004140,0.166494,0.117158,-0.321405,0.246944,-0.173104,-0.025948,0.521826,0.401026
0.847142,-0.050164,-1.538300,0.970665,-0.000572,0.075341,0.050164,-0.215385,0.145055,-0.101099,-0.021978,0.329670,0.183150,-0.167033,3.142857,1.421245,0.005372,0.074237,0.055189,-0.101949,-1.500800,0.944420,-0.004271,0.169116,0.119176,-0.324253,0.249828,-0.174964,-0.026418,0.526278,0.405252
0.852379,-0.051308,-1.537537,0.970283,-0.000572,0.076486,0.050927,-0.215385,0.118681,-0.109890,-0.007326,0.271062,0.168498,-0.189011,3.160439,1.441758,0.002930,0.074725,0.052259,-0.103579,-1.499542,0.943540,-0.004405,0.171761,0.121215,-0.327097,0.252725,-0.176829,-0.026891,0.530725,0.409488
0.857509,-0.052071,-1.537156,0.969902,-0.000572,0.078012,0.052071,-0.232967,0.145055,-0.127473,-0.007326,0.329670,0.183150,-0.186081,3.207326,1.471062,-0.000488,0.067888,0.049328,-0.105223,-1.498269,0.942650,-0.004541,0.174428,0.123275,-0.329938,0.255634,-0.178697,-0.027366,0.535165,0.413734
0.862667,-0.053216,-1.536393,0.969520,-0.000572,0.079538,0.052834,-0.206593,0.162637,-0.101099,-0.007326,0.329670,0.227106,-0.194872,3.200000,1.481319,-0.003419,0.065446,0.047863,-0.106881,-1.496983,0.941751,-0.004679,0.177117,0.125357,-0.332774,0.258556,-0.180569,-0.027845,0.539598,0.417990
0.867851,-0.053979,-1.535630,0.968757,-0.000572,0.080682,0.053979,-0.232967,0.153846,-0.118681,0.007326,0.256410,0.197802,-0.208059,3.182418,1.471062,-0.006838,0.063004,0.049817,-0.108553,-1.495681,0.940843,-0.004820,0.179828,0.127459,-0.335606,0.261490,-0.182445,-0.028325,0.544025,0.422256
0.872964,-0.055123,-1.534867,0.968376,-0.000572,0.082208,0.054360,-0.206593,0.162637,-0.101099,-0.007326,0.300366,0.153846,-0.235897,3.164835,1.475458,-0.009768,0.066422,0.055678,-0.110240,-1.494365,0.939925,-0.004963,0.182562,0.129583,-0.338434,0.264436,-0.184324,-0.028808,0.548444,0.426531
0.878076,-0.057031,-1.533341,0.967231,-0.000954,0.085260,0.056649,-0.224176,0.145055,-0.109890,-0.036630,0.373626,0.241758,-0.222711,3.129670,1.473993,-0.011722,0.070330,0.061538,-0.111940,-1.493034,0.938998,-0.005108,0.185317,0.131729,-0.341257,0.267395,-0.186206,-0.029293,0.552855,0.430815
0.883238,-0.058175,-1.532578,0.966850,-0.000954,0.086786,0.057794,-0.206593,0.162637,-0.127473,-0.007326,0.344322,0.241758,-0.260806,3.131135,1.482784,-0.014164,0.070818,0.065934,-0.113655,-1.491688,0.938061,-0.005256,0.188095,0.133896,-0.344075,0.270364,-0.188092,-0.029780,0.557258,0.435108
0.888364,-0.058938,-1.532197,0.966468,-0.000954,0.087930,0.058556,-0.232967,0.162637,-0.109890,-0.007326,0.271062,0.256410,-0.227106,3.129670,1.446154,-0.017582,0.074237,0.070818,-0.115384,-1.490327,0.937115,-0.005406,0.190894,0.136084,-0.346887,0.273346,-0.189981,-0.030270,0.561652,0.439410
0.893517,-0.060082,-1.531434,0.965705,-0.000954,0.089837,0.059701,-0.206593,0.145055,-0.127473,-0.007326,0.373626,0.256410,-0.244689,3.090110,1.447619,-0.021001,0.079121,0.075214,-0.117127,-1.488951,0.936159,-0.005559,0.193716,0.138294,-0.349694,0.276339,-0.191872,-0.030762,0.566038,0.443720
0.898659,-0.060845,-1.530671,0.965324,-0.000954,0.090982,0.061227,-0.241758,0.171429,-0.101099,-0.021978,0.329670,0.256410,-0.227106,3.065201,1.421245,-0.022466,0.074237,0.078144,-0.118884,-1.487561,0.935194,-0.005715,0.196559,0.140526,-0.352495,0.279344,-0.193767,-0.031255,0.570415,0.448037
0.903786,-0.061990,-1.529908,0.964942,-0.000954,0.092889,0.061990,-0.215385,0.162637,-0.136264,-0.007326,0.358974,0.212454,-0.221245,3.041758,1.431502,-0.025397,0.076190,0.082051,-0.120655,-1.486155,0.934220,-0.005872,0.199424,0.142779,-0.355290,0.282360,-0.195663,-0.031751,0.574781,0.452363
0.908879,-0.064279,-1.528382,0.963798,-0.001335,0.095941,0.064279,-0.232967,0.189011,-0.136264,-0.036630,0.300366,0.271062,-0.231502,2.984615,1.428571,-0.027839,0.078144,0.085958,-0.122439,-1.484734,0.933236,-0.006033,0.202311,0.145054,-0.358078,0.285387,-0.197563,-0.032249,0.579138,0.456696
0.914128,-0.065423,-1.527619,0.963417,-0.001335,0.097848,0.065423,-0.232967,0.180220,-0.109890,-0.021978,0.402930,0.285714,-0.209524,2.964103,1.405128,-0.031258,0.077656,0.088889,-0.124238,-1.483298,0.932242,-0.006195,0.205220,0.147350,-0.360859,0.288425,-0.199464,-0.032748,0.583485,0.461036
0.919256,-0.066186,-1.526856,0.962654,-0.001335,0.099374,0.066949,-0.241758,0.162637,-0.145055,-0.021978,0.329670,0.300366,-0.206593,2.997802,1.419780,-0.034188,0.078632,0.089377,-0.126051,-1.481847,0.931239,-0.006361,0.208150,0.149668,-0.363634,0.291474,-0.201368,-0.033250,0.587820,0.465383
0.924350,-0.067330,-1.526093,0.962272,-0.001335,0.100519,0.068856,-0.224176,0.171429,-0.145055,-0.021978,0.300366,0.344322,-0.208059,2.999267,1.438828,-0.036142,0.075214,0.084005,-0.127877,-1.480380,0.930226,-0.006528,0.211102,0.152008,-0.366401,0.294533,-0.203273,-0.033753,0.592145,0.469736
0.929468,-0.068475,-1.525330,0.961509,-0.001335,0.102426,0.070001,-0.250549,0.162637,-0.127473,-0.021978,0.432234,0.300366,-0.218315,3.019780,1.452015,-0.039072,0.076190,0.078144,-0.129717,-1.478898,0.929204,-0.006699,0.214076,0.154370,-0.369160,0.297604,-0.205181,-0.034257,0.596459,0.474096
0.934580,-0.069619,-1.524186,0.961128,-0.001335,0.104334,0.071527,-0.250549,0.197802,-0.118681,-0.007326,0.358974,0.344322,-0.200733,3.003663,1.416850,-0.042002,0.081074,0.072772,-0.131572,-1.477401,0.928173,-0.006871,0.217071,0.156754,-0.371912,0.300684,-0.207090,-0.034763,0.600760,0.478462
0.939694,-0.070764,-1.523423,0.960365,-0.001335,0.106241,0.073053,-0.285714,0.197802,-0.136264,-0.021978,0.402930,0.300366,-0.203663,2.975824,1.422711,-0.044444,0.078632,0.065934,-0.133439,-1.475888,0.927132,-0.007047,0.220088,0.159159,-0.374655,0.303775,-0.209000,-0.035271,0.605049,0.482833
0.944804,-0.071908,-1.522660,0.959602,-0.001335,0.107767,0.074578,-0.250549,0.153846,-0.162637,-0.007326,0.344322,0.285714,-0.178755,3.000733,1.434432,-0.047375,0.074237,0.060562,-0.135321,-1.474360,0.926081,-0.007225,0.223126,0.161586,-0.377391,0.306876,-0.210912,-0.035780,0.609326,0.487210
0.949984,-0.074197,-1.520752,0.958457,-0.001717,0.111200,0.076867,-0.241758,0.180220,-0.136264,-0.021978,0.329670,0.241758,-0.196337,3.003663,1.453480,-0.050794,0.077167,0.057143,-0.137216,-1.472816,0.925021,-0.007405,0.226185,0.164036,-0.380117,0.309986,-0.212825,-0.036290,0.613590,0.491592
0.955112,-0.075341,-1.519989,0.958076,-0.001717,0.113108,0.078012,-0.268132,0.189011,-0.145055,-0.036630,0.417582,0.241758,-0.186081,2.990476,1.431502,-0.054701,0.076679,0.053724,-0.141047,-1.469682,0.922871,-0.007774,0.232368,0.169000,-0.385543,0.316237,-0.216654,-0.037315,0.622079,0.500370
0.960230,-0.076486,-1.519226,0.957313,-0.001717,0.114633,0.079156,-0.259341,0.206593,-0.145055,-0.051282,0.358974,0.271062,-0.189011,2.990476,1.441758,-0.056166,0.079121,0.049817,-0.142983,-1.468092,0.921782,-0.007962,0.235491,0.171515,-0.388241,0.319377,-0.218569,-0.037828,0.626302,0.504766
0.965363,-0.078012,-1.518082,0.956550,-0.001717,0.116922,0.080301,-0.285714,0.189011,-0.145055,-0.007326,0.417582,0.227106,-0.178755,3.012454,1.469597,-0.057143,0.086447,0.049328,-0.144932,-1.466485,0.920684,-0.008152,0.238635,0.174052,-0.390930,0.322525,-0.220485,-0.038343,0.630511,0.509165
0.970479,-0.079156,-1.517319,0.956168,-0.002098,0.118830,0.081445,-0.268132,0.206593,-0.136264,-0.021978,0.402930,0.241758,-0.186081,2.967033,1.441758,-0.058608,0.088400,0.051770,-0.146895,-1.464863,0.919575,-0.008346,0.241800,0.176611,-0.393609,0.325683,-0.222402,-0.038859,0.634706,0.513568
0.975590,-0.080301,-1.516175,0.955406,-0.002098,0.120737,0.082589,-0.268132,0.189011,-0.153846,-0.051282,0.373626,0.256410,-0.169963,2.980220,1.457875,-0.060562,0.085958,0.056654,-0.148871,-1.463225,0.918458,-0.008542,0.244986,0.179192,-0.396278,0.328850,-0.224319,-0.039376,0.638886,0.517975
0.980700,-0.081445,-1.515412,0.954643,-0.002098,0.122644,0.084115,-0.268132,0.189011,-0.162637,-0.021978,0.388278,0.285714,-0.156777,2.983150,1.468132,-0.062027,0.085470,0.062027,-0.150860,-1.461571,0.917330,-0.008740,0.248193,0.181795,-0.398936,0.332026,-0.226235,-0.039894,0.643050,0.522384
0.985824,-0.082971,-1.514267,0.953880,-0.002098,0.124552,0.085260,-0.268132,0.189011,-0.136264,-0.007326,0.446886,0.271062,-0.155311,3.002198,1.479854,-0.064957,0.081563,0.069353,-0.152863,-1.459902,0.916193,-0.008941,0.251421,0.184420,-0.401583,0.335211,-0.228152,-0.040412,0.647199,0.526796
0.990933,-0.084115,-1.513504,0.953117,-0.002480,0.126459,0.087167,-0.268132,0.206593,-0.153846,-0.036630,0.388278,0.300366,-0.172894,3.027106,1.493040,-0.066422,0.086447,0.076190,-0.154879,-1.458216,0.915047,-0.009145,0.254670,0.187068,-0.404220,0.338404,-0.230068,-0.040931,0.651332,0.531211
0.996069,-0.086786,-1.511597,0.951972,-0.002480,0.130274,0.089837,-0.276923,0.224176,-0.145055,-0.007326,0.402930,0.300366,-0.189011,2.986081,1.459341,-0.066911,0.086935,0.083028,-0.156908,-1.456515,0.913891,-0.009351,0.257939,0.189737,-0.406844,0.341605,-0.231984,-0.041450,0.655448,0.535627
1.001186,-0.087930,-1.510452,0.951209,-0.002861,0.132563,0.091745,-0.294506,0.197802,-0.153846,-0.051282,0.446886,0.344322,-0.172894,2.996337,1.472528,-0.066911,0.081563,0.086935,-0.158950,-1.454797,0.912725,-0.009560,0.261228,0.192428,-0.409457,0.344815,-0.233900,-0.041970,0.659548,0.540046
1.006302,-0.089075,-1.509689,0.950446,-0.002861,0.133707,0.092889,-0.268132,0.232967,-0.162637,-0.021978,0.388278,0.329670,-0.189011,2.969963,1.473993,-0.066911,0.079609,0.089866,-0.161005,-1.453063,0.911550,-0.009771,0.264538,0.195142,-0.412059,0.348032,-0.235814,-0.042491,0.663631,0.544466
1.011407,-0.090600,-1.508545,0.950065,-0.002861,0.135996,0.094415,-0.312088,0.224176,-0.162637,-0.051282,0.432234,0.358974,-0.189011,2.987546,1.453480,-0.067888,0.077656,0.090842,-0.163073,-1.451313,0.910365,-0.009985,0.267868,0.197877,-0.414648,0.351257,-0.237728,-0.043012,0.667697,0.548887
1.016541,-0.091745,-1.507782,0.949302,-0.003243,0.137903,0.096323,-0.303297,0.224176,-0.162637,-0.036630,0.388278,0.388278,-0.215385,2.997802,1.462271,-0.067399,0.075214,0.087912,-0.165154,-1.449547,0.909171,-0.010202,0.271219,0.200635,-0.417224,0.354490,-0.239640,-0.043533,0.671745,0.553309
1.021663,-0.092889,-1.506638,0.948539,-0.003243,0.139811,0.098230,-0.312088,0.241758,-0.162637,-0.021978,0.446886,0.417582,-0.194872,2.991941,1.466667,-0.064957,0.072772,0.082051,-0.167248,-1.447765,0.907967,-0.010421,0.274590,0.203415,-0.419788,0.357731,-0.241552,-0.044054,0.675775,0.557731
1.026851,-0.095560,-1.504730,0.947013,-0.003624,0.143626,0.101282,-0.312088,0.250549,-0.162637,-0.051282,0.446886,0.373626,-0.209524,2.955311,1.438828,-0.062027,0.073748,0.075702,-0.169354,-1.445967,0.906753,-0.010643,0.277981,0.206217,-0.422339,0.360978,-0.243462,-0.044575,0.679786,0.562154
1.031991,-0.097086,-1.503586,0.946632,-0.003624,0.145533,0.102808,-0.303297,0.232967,-0.171429,-0.036630,0.446886,0.329670,-0.228571,2.950916,1.403663,-0.059585,0.075702,0.070818,-0.171474,-1.444152,0.905530,-0.010867,0.281392,0.209041,-0.424876,0.364233,-0.245370,-0.045096,0.683779,0.566577
1.037120,-0.098230,-1.502441,0.945869,-0.004005,0.147822,0.103952,-0.329670,0.259341,-0.171429,-0.036630,0.461538,0.285714,-0.212454,2.923077,1.403663,-0.054701,0.078144,0.065934,-0.173606,-1.442321,0.904298,-0.011094,0.284823,0.211887,-0.427401,0.367495,-0.247277,-0.045618,0.687753,0.571000
1.042229,-0.099756,-1.501678,0.945106,-0.004005,0.150111,0.105478,-0.303297,0.232967,-0.171429,-0.051282,0.490842,0.344322,-0.224176,2.931868,1.400733,-0.050305,0.074725,0.062027,-0.175750,-1.440474,0.903056,-0.011324,0.288273,0.214755,-0.429911,0.370764,-0.249182,-0.046139,0.691708,0.575422
1.047345,-0.100900,-1.500534,0.944343,-0.004005,0.152018,0.106622,-0.320879,0.241758,-0.180220,-0.021978,0.446886,0.271062,-0.221245,2.953846,1.410989,-0.045910,0.075702,0.059585,-0.177907,-1.438610,0.901804,-0.011556,0.291744,0.217646,-0.432407,0.374039,-0.251085,-0.046660,0.695643,0.579843
1.052454,-0.103571,-1.498245,0.942817,-0.004387,0.156214,0.109293,-0.303297,0.250549,-0.171429,-0.036630,0.476190,0.300366,-0.235897,2.937729,1.400733,-0.041514,0.077167,0.061538,-0.180077,-1.436730,0.900543,-0.011791,0.295234,0.220558,-0.434889,0.377321,-0.252985,-0.047180,0.699558,0.584262
1.057553,-0.105097,-1.497482,0.942054,-0.004387,0.158503,0.111200,-0.338462,0.268132,-0.180220,-0.051282,0.520147,0.344322,-0.210989,2.934798,1.410989,-0.035165,0.081074,0.062515,-0.182258,-1.434834,0.899272,-0.012028,0.298743,0.223493,-0.437357,0.380609,-0.254883,-0.047700,0.703453,0.588680
1.062656,-0.106622,-1.496338,0.941291,-0.004387,0.160410,0.113108,-0.329670,0.250549,-0.197802,-0.036630,0.505495,0.402930,-0.230037,2.918681,1.410989,-0.031258,0.082051,0.064469,-0.184453,-1.432921,0.897992,-0.012269,0.302272,0.226449,-0.439810,0.383903,-0.256779,-0.048220,0.707327,0.593096
1.067808,-0.107767,-1.495193,0.940528,-0.004768,0.162318,0.114633,-0.338462,0.268132,-0.171429,-0.051282,0.432234,0.388278,-0.221245,2.887912,1.384615,-0.028816,0.084005,0.067888,-0.186659,-1.430991,0.896703,-0.012511,0.305820,0.229428,-0.442247,0.387203,-0.258672,-0.048739,0.711181,0.597510
1.072921,-0.109293,-1.494049,0.939765,-0.004768,0.164607,0.116159,-0.338462,0.232967,-0.180220,-0.007326,0.446886,0.358974,-0.231502,2.926007,1.391941,-0.027839,0.086447,0.073260,-0.188877,-1.429045,0.895404,-0.012756,0.309388,0.232429,-0.444670,0.390509,-0.260562,-0.049257,0.715013,0.601921
1.078012,-0.110819,-1.492905,0.939002,-0.004768,0.166514,0.118067,-0.338462,0.268132,-0.197802,-0.036630,0.417582,0.417582,-0.215385,2.937729,1.405128,-0.027350,0.088889,0.079609,-0.191108,-1.427083,0.894095,-0.013004,0.312974,0.235452,-0.447077,0.393820,-0.262449,-0.049775,0.718823,0.606330
1.083139,-0.113870,-1.490234,0.937095,-0.005150,0.171092,0.122263,-0.338462,0.285714,-0.189011,-0.036630,0.490842,0.476190,-0.197802,2.917216,1.413919,-0.026862,0.087424,0.081563,-0.193351,-1.425104,0.892777,-0.013255,0.316580,0.238496,-0.449468,0.397137,-0.264333,-0.050292,0.722612,0.610735
1.088251,-0.115396,-1.489090,0.936332,-0.005150,0.173762,0.124170,-0.356044,0.259341,-0.171429,-0.021978,0.564103,0.461538,-0.189011,2.942124,1.419780,-0.027350,0.086447,0.081074,-0.195605,-1.423108,0.891450,-0.013508,0.320204,0.241563,-0.451843,0.400459,-0.266213,-0.050808,0.726379,0.615137
1.093360,-0.116922,-1.487945,0.935569,-0.005150,0.176051,0.126078,-0.338462,0.276923,-0.197802,-0.036630,0.520147,0.432234,-0.181685,2.911355,1.427106,-0.029304,0.084493,0.079609,-0.197871,-1.421096,0.890113,-0.013763,0.323847,0.244652,-0.454201,0.403786,-0.268090,-0.051323,0.730123,0.619535
1.098487,-0.118067,-1.486801,0.934806,-0.005150,0.178340,0.127985,-0.338462,0.268132,-0.197802,-0.021978,0.520147,0.417582,-0.178755,2.899634,1.440293,-0.032234,0.082540,0.076190,-0.200149,-1.419067,0.888767,-0.014021,0.327509,0.247763,-0.456543,0.407117,-0.269963,-0.051837,0.733844,0.623929
1.103596,-0.119593,-1.485656,0.934043,-0.005531,0.180629,0.129892,-0.364835,0.268132,-0.206593,-0.036630,0.534799,0.388278,-0.156777,2.901099,1.440293,-0.034676,0.084005,0.070330,-0.202439,-1.417022,0.887412,-0.014282,0.331189,0.250896,-0.458868,0.410454,-0.271833,-0.052350,0.737542,0.628318
1.108705,-0.121500,-1.484131,0.932898,-0.005531,0.183299,0.131418,-0.356044,0.285714,-0.206593,-0.036630,0.534799,0.373626,-0.155311,2.890842,1.453480,-0.039072,0.079609,0.066911,-0.204740,-1.414959,0.886047,-0.014545,0.334888,0.254051,-0.461177,0.413795,-0.273698,-0.052862,0.741217,0.632702
1.113796,-0.124552,-1.481842,0.931373,-0.005531,0.187877,0.134470,-0.347253,0.276923,-0.206593,-0.021978,0.520147,0.344322,-0.139194,2.906960,1.460806,-0.042491,0.081563,0.067399,-0.207053,-1.412880,0.884673,-0.014811,0.338605,0.257227,-0.463467,0.417140,-0.275559,-0.053372,0.744868,0.637082
1.118896,-0.126078,-1.480697,0.930610,-0.005913,0.190166,0.136378,-0.347253,0.294506,-0.215385,-0.051282,0.505495,0.402930,-0.137729,2.899634,1.491575,-0.045910,0.081563,0.068376,-0.209377,-1.410784,0.883289,-0.015080,0.342340,0.260426,-0.465741,0.420489,-0.277416,-0.053881,0.748495,0.641456
1.123990,-0.127604,-1.479171,0.929465,-0.005913,0.192454,0.137903,-0.382418,0.268132,-0.206593,-0.021978,0.534799,0.373626,-0.120147,2.886447,1.490110,-0.048352,0.085470,0.069841,-0.211713,-1.408672,0.881897,-0.015351,0.346093,0.263646,-0.467996,0.423842,-0.279269,-0.054388,0.752097,0.645824
1.129107,-0.129129,-1.478027,0.928702,-0.006294,0.194362,0.139811,-0.356044,0.303297,-0.215385,-0.051282,0.534799,0.417582,-0.109890,2.879121,1.479854,-0.050305,0.088889,0.070330,-0.214060,-1.406543,0.880495,-0.015624,0.349865,0.266888,-0.470233,0.427199,-0.281116,-0.054894,0.755675,0.650186
1.134232,-0.130655,-1.476883,0.927939,-0.006294,0.197032,0.141718,-0.338462,0.276923,-0.180220,-0.051282,0.520147,0.461538,-0.117216,2.896703,1.465201,-0.052259,0.088889,0.073748,-0.216417,-1.404397,0.879084,-0.015900,0.353654,0.270152,-0.472452,0.430559,-0.282959,-0.055399,0.759228,0.654542
1.139334,-0.132181,-1.475357,0.927176,-0.006294,0.199321,0.143626,-0.364835,0.303297,-0.197802,-0.036630,0.564103,0.432234,-0.139194,2.867399,1.465201,-0.054212,0.090354,0.078144,-0.218786,-1.402234,0.877663,-0.016179,0.357460,0.273438,-0.474653,0.433922,-0.284797,-0.055901,0.762756,0.658891
1.144431,-0.133707,-1.474212,0.926032,-0.006676,0.201991,0.145533,-0.364835,0.294506,-0.215385,-0.051282,0.549451,0.417582,-0.146520,2.880586,1.466667,-0.055189,0.093284,0.083028,-0.221166,-1.400054,0.876234,-0.016460,0.361285,0.276746,-0.476834,0.437289,-0.286629,-0.056402,0.766259,0.663233
1.149550,-0.137140,-1.471542,0.924125,-0.007057,0.207332,0.150492,-0.364835,0.303297,-0.224176,-0.036630,0.549451,0.520147,-0.133333,2.876190,1.478388,-0.054212,0.096703,0.084005,-0.223557,-1.397857,0.874795,-0.016743,0.365126,0.280075,-0.478997,0.440659,-0.288457,-0.056900,0.769735,0.667568
1.154639,-0.138666,-1.470016,0.923362,-0.007057,0.209621,0.152781,-0.364835,0.312088,-0.224176,-0.065934,0.564103,0.476190,-0.153846,2.860073,1.487180,-0.053724,0.096215,0.083516,-0.225958,-1.395644,0.873348,-0.017029,0.368986,0.283426,-0.481140,0.444031,-0.290279,-0.057397,0.773186,0.671895
1.159847,-0.140192,-1.468872,0.922217,-0.007439,0.211910,0.154688,-0.373626,0.294506,-0.224176,-0.036630,0.534799,0.446886,-0.155311,2.889377,1.482784,-0.052259,0.097680,0.081074,-0.228370,-1.393414,0.871891,-0.017318,0.372862,0.286798,-0.483264,0.447406,-0.292095,-0.057892,0.776610,0.676214
1.165021,-0.142100,-1.467346,0.921454,-0.007820,0.214199,0.156596,-0.391209,0.320879,-0.215385,-0.080586,0.520147,0.432234,-0.142125,2.858608,1.459341,-0.049817,0.099634,0.076190,-0.233226,-1.388903,0.868950,-0.017902,0.380665,0.293608,-0.487453,0.454163,-0.295709,-0.058875,0.783378,0.684826
1.170143,-0.143626,-1.465820,0.920310,-0.007820,0.216869,0.158503,-0.391209,0.329670,-0.215385,-0.080586,0.564103,0.432234,-0.149451,2.846886,1.446154,-0.045421,0.099145,0.071795,-0.235669,-1.386622,0.867466,-0.018198,0.384592,0.297045,-0.489516,0.457544,-0.297507,-0.059363,0.786721,0.689119
1.175257,-0.145533,-1.464675,0.919547,-0.008202,0.219539,0.160029,-0.364835,0.285714,-0.197802,-0.065934,0.564103,0.388278,-0.184615,2.851282,1.437363,-0.040049,0.094750,0.069353,-0.238123,-1.384324,0.865973,-0.018496,0.388536,0.300503,-0.491560,0.460928,-0.299299,-0.059848,0.790037,0.693403
1.180391,-0.147059,-1.463149,0.918402,-0.008202,0.222210,0.161936,-0.382418,0.320879,-0.232967,-0.051282,0.564103,0.402930,-0.191941,2.832234,1.449084,-0.034676,0.090354,0.068864,-0.240587,-1.382009,0.864471,-0.018797,0.392496,0.303983,-0.493583,0.464312,-0.301085,-0.060331,0.793325,0.697677
1.185520,-0.150492,-1.460098,0.916495,-0.008583,0.227932,0.166514,-0.391209,0.312088,-0.232967,-0.021978,0.564103,0.461538,-0.180220,2.802930,1.484249,-0.029792,0.087912,0.068864,-0.243061,-1.379677,0.862960,-0.019100,0.396472,0.307484,-0.495585,0.467698,-0.302863,-0.060812,0.796585,0.701941
1.190639,-0.152399,-1.458572,0.915351,-0.008583,0.230602,0.168803,-0.391209,0.329670,-0.206593,-0.036630,0.593407,0.476190,-0.167033,2.775092,1.485714,-0.025397,0.085470,0.068864,-0.245545,-1.377329,0.861441,-0.019405,0.400465,0.311007,-0.497565,0.471086,-0.304635,-0.061290,0.799816,0.706195
1.195820,-0.153925,-1.457046,0.914588,-0.008965,0.233272,0.171092,-0.400000,0.312088,-0.224176,-0.051282,0.549451,0.490842,-0.155311,2.770696,1.471062,-0.020513,0.088889,0.069353,-0.248039,-1.374963,0.859912,-0.019713,0.404473,0.314550,-0.499525,0.474474,-0.306400,-0.061765,0.803019,0.710437
1.200919,-0.155833,-1.455520,0.913443,-0.008965,0.236324,0.173381,-0.400000,0.338462,-0.232967,-0.036630,0.652015,0.520147,-0.171429,2.756044,1.463736,-0.017094,0.087912,0.073260,-0.250542,-1.372580,0.858375,-0.020023,0.408498,0.318115,-0.501462,0.477863,-0.308158,-0.062237,0.806193,0.714669
1.206013,-0.157740,-1.453994,0.912299,-0.009346,0.238613,0.175669,-0.400000,0.320879,-0.232967,-0.036630,0.578755,0.520147,-0.152381,2.760440,1.453480,-0.013675,0.089377,0.075702,-0.253055,-1.370181,0.856829,-0.020336,0.412538,0.321701,-0.503378,0.481253,-0.309908,-0.062706,0.809338,0.718890
1.211165,-0.159648,-1.452468,0.911154,-0.009346,0.241283,0.178340,-0.391209,0.338462,-0.250549,-0.007326,0.593407,0.549451,-0.153846,2.741392,1.476923,-0.011722,0.094750,0.076679,-0.255578,-1.367765,0.855274,-0.020651,0.416595,0.325308,-0.505272,0.484643,-0.311651,-0.063172,0.812454,0.723099
1.216388,-0.161173,-1.450942,0.910391,-0.009346,0.243954,0.180629,-0.408791,0.347253,-0.232967,-0.051282,0.608059,0.534799,-0.172894,2.748718,1.487180,-0.011233,0.092796,0.076679,-0.258110,-1.365331,0.853711,-0.020968,0.420666,0.328936,-0.507144,0.488033,-0.313387,-0.063635,0.815540,0.727296
1.221565,-0.163081,-1.449416,0.909247,-0.009728,0.246624,0.182918,-0.417582,0.329670,-0.241758,-0.051282,0.593407,0.505495,-0.167033,2.780952,1.500366,-0.012210,0.091819,0.076190,-0.260651,-1.362881,0.852139,-0.021288,0.424753,0.332585,-0.508993,0.491424,-0.315115,-0.064095,0.818595,0.731481
1.226760,-0.166896,-1.446365,0.906958,-0.009728,0.252346,0.187495,-0.417582,0.364835,-0.241758,-0.036630,0.593407,0.476190,-0.145055,2.725275,1.525275,-0.015140,0.094261,0.075702,-0.263201,-1.360414,0.850558,-0.021610,0.428855,0.336255,-0.510819,0.494814,-0.316834,-0.064552,0.821621,0.735653
1.231942,-0.168803,-1.444839,0.906195,-0.010109,0.255398,0.189403,-0.426374,0.347253,-0.259341,-0.036630,0.622711,0.461538,-0.145055,2.745788,1.528205,-0.018071,0.096703,0.075702,-0.265761,-1.357929,0.848969,-0.021934,0.432972,0.339946,-0.512622,0.498203,-0.318546,-0.065006,0.824616,0.739812
1.237114,-0.170710,-1.443313,0.905051,-0.010491,0.258068,0.191310,-0.426374,0.347253,-0.232967,-0.065934,0.608059,0.446886,-0.155311,2.760440,1.526740,-0.020024,0.101099,0.077656,-0.268329,-1.355428,0.847371,-0.022260,0.437104,0.343658,-0.514403,0.501592,-0.320249,-0.065455,0.827581,0.743958
1.242237,-0.172618,-1.441405,0.903906,-0.010491,0.261120,0.193599,-0.417582,0.356044,-0.259341,-0.051282,0.652015,0.476190,-0.156777,2.779487,1.551648,-0.020513,0.102564,0.079121,-0.270907,-1.352910,0.845764,-0.022589,0.441251,0.347390,-0.516159,0.504980,-0.321944,-0.065902,0.830514,0.748091
1.247380,-0.174525,-1.439879,0.902762,-0.010872,0.264172,0.196269,-0.408791,0.364835,-0.215385,-0.080586,0.637363,0.490842,-0.145055,2.751648,1.538462,-0.020024,0.099634,0.079609,-0.273493,-1.350375,0.844150,-0.022920,0.445412,0.351143,-0.517893,0.508368,-0.323631,-0.066345,0.833416,0.752209
1.252585,-0.176432,-1.437972,0.901617,-0.011254,0.266842,0.198940,-0.417582,0.356044,-0.259341,-0.051282,0.593407,0.564103,-0.123077,2.741392,1.528205,-0.019536,0.103053,0.079609,-0.276087,-1.347823,0.842526,-0.023253,0.449588,0.354916,-0.519602,0.511753,-0.325308,-0.066784,0.836287,0.756313
1.257704,-0.178340,-1.436446,0.900473,-0.011254,0.269894,0.201610,-0.435165,0.382418,-0.224176,-0.065934,0.637363,0.564103,-0.117216,2.725275,1.509158,-0.016606,0.105983,0.080098,-0.278690,-1.345254,0.840895,-0.023588,0.453778,0.358710,-0.521288,0.515138,-0.326977,-0.067219,0.839126,0.760403
1.262831,-0.182155,-1.433013,0.898184,-0.012016,0.275616,0.206950,-0.417582,0.356044,-0.241758,-0.080586,0.637363,0.593407,-0.131868,2.729670,1.457875,-0.009280,0.107448,0.079121,-0.281302,-1.342668,0.839255,-0.023925,0.457982,0.362524,-0.522949,0.518521,-0.328637,-0.067651,0.841933,0.764477
1.267966,-0.184062,-1.431487,0.897040,-0.012016,0.278668,0.209621,-0.435165,0.373626,-0.259341,-0.036630,0.666667,0.564103,-0.112821,2.723809,1.466667,-0.003419,0.106960,0.079121,-0.283921,-1.340065,0.837607,-0.024265,0.462200,0.366359,-0.524586,0.521902,-0.330287,-0.068078,0.844708,0.768536
1.273175,-0.185969,-1.429580,0.895895,-0.012398,0.281720,0.211910,-0.435165,0.391209,-0.259341,-0.036630,0.652015,0.520147,-0.101099,2.687179,1.452015,0.002930,0.109402,0.080098,-0.286549,-1.337446,0.835951,-0.024606,0.466432,0.370213,-0.526198,0.525281,-0.331928,-0.068502,0.847450,0.772580
1.278354,-0.187877,-1.427672,0.894751,-0.012398,0.285153,0.214199,-0.443956,0.382418,-0.268132,-0.051282,0.652015,0.476190,-0.092308,2.715018,1.456410,0.009280,0.107937,0.080586,-0.289185,-1.334809,0.834286,-0.024950,0.470677,0.374088,-0.527785,0.528657,-0.333560,-0.068921,0.850160,0.776607
1.283482,-0.189784,-1.426146,0.893606,-0.012779,0.287823,0.216106,-0.443956,0.382418,-0.268132,-0.036630,0.637363,0.446886,-0.070330,2.706227,1.454945,0.015140,0.104518,0.082051,-0.291829,-1.332156,0.832613,-0.025296,0.474936,0.377983,-0.529348,0.532032,-0.335182,-0.069337,0.852837,0.780619
1.288602,-0.191691,-1.424620,0.892462,-0.012779,0.290875,0.218395,-0.435165,0.391209,-0.259341,-0.036630,0.666667,0.505495,-0.065934,2.688645,1.457875,0.019536,0.100611,0.081074,-0.294480,-1.329486,0.830933,-0.025644,0.479208,0.381899,-0.530885,0.535403,-0.336794,-0.069748,0.855480,0.784614
1.293712,-0.193599,-1.422713,0.891699,-0.012779,0.293545,0.220684,-0.435165,0.391209,-0.259341,-0.036630,0.666667,0.476190,-0.076190,2.682784,1.443223,0.022955,0.103053,0.083028,-0.297139,-1.326798,0.829244,-0.025994,0.483493,0.385834,-0.532396,0.538772,-0.338396,-0.070154,0.858090,0.788592
1.298846,-0.197414,-1.419280,0.889410,-0.013161,0.298886,0.226024,-0.426374,0.408791,-0.276923,-0.051282,0.666667,0.622711,-0.077656,2.663736,1.459341,0.023443,0.109890,0.082051,-0.299805,-1.324094,0.827547,-0.026346,0.487791,0.389788,-0.533882,0.542137,-0.339988,-0.070557,0.860667,0.792552
1.303964,-0.199321,-1.417372,0.887884,-0.013542,0.302319,0.229458,-0.426374,0.417582,-0.241758,-0.036630,0.652015,0.652015,-0.102564,2.644689,1.435897,0.025397,0.113797,0.078632,-0.302479,-1.321374,0.825842,-0.026700,0.492102,0.393763,-0.535342,0.545500,-0.341569,-0.070954,0.863209,0.796495
1.309083,-0.201228,-1.415465,0.886740,-0.013542,0.305371,0.232128,-0.443956,0.408791,-0.285714,-0.036630,0.695971,0.637363,-0.105495,2.644689,1.468132,0.024908,0.114774,0.075702,-0.305160,-1.318636,0.824130,-0.027056,0.496426,0.397757,-0.536777,0.548858,-0.343140,-0.071348,0.865718,0.800420
1.314237,-0.203517,-1.413939,0.885596,-0.013542,0.308423,0.234798,-0.443956,0.382418,-0.250549,-0.036630,0.710623,0.637363,-0.086447,2.647619,1.478388,0.020024,0.112821,0.074725,-0.307848,-1.315882,0.822409,-0.027414,0.500762,0.401771,-0.538184,0.552213,-0.344701,-0.071736,0.868192,0.804327
1.319338,-0.205425,-1.412032,0.884451,-0.013924,0.311475,0.237087,-0.461538,0.408791,-0.285714,-0.051282,0.695971,0.564103,-0.098169,2.653480,1.484249,0.015629,0.114286,0.074725,-0.310543,-1.313111,0.820681,-0.027774,0.505110,0.405804,-0.539566,0.555564,-0.346251,-0.072120,0.870632,0.808215
1.324448,-0.207332,-1.410124,0.883307,-0.014305,0.314908,0.239376,-0.461538,0.417582,-0.259341,-0.095238,0.710623,0.520147,-0.106960,2.649084,1.473993,0.012698,0.109402,0.076679,-0.313245,-1.310323,0.818945,-0.028135,0.509471,0.409857,-0.540921,0.558911,-0.347790,-0.072499,0.873036,0.812084
1.329559,-0.209239,-1.408598,0.882162,-0.014687,0.317960,0.241665,-0.470330,0.400000,-0.294506,-0.080586,0.666667,0.505495,-0.126007,2.640293,1.482784,0.011233,0.107937,0.079121,-0.315954,-1.307518,0.817202,-0.028499,0.513843,0.413929,-0.542249,0.562254,-0.349317,-0.072873,0.875406,0.815934
1.334674,-0.213436,-1.404784,0.879873,-0.015068,0.324063,0.247005,-0.443956,0.426374,-0.276923,-0.065934,0.681319,0.578755,-0.167033,2.622711,1.473993,0.012210,0.109890,0.079121,-0.318669,-1.304697,0.815451,-0.028864,0.518227,0.418020,-0.543550,0.565592,-0.350834,-0.073242,0.877741,0.819765
1.339812,-0.215343,-1.402876,0.878347,-0.015450,0.327115,0.250057,-0.470330,0.435165,-0.276923,-0.080586,0.666667,0.593407,-0.150916,2.621245,1.460806,0.014652,0.117705,0.078144,-0.321391,-1.301859,0.813692,-0.029232,0.522623,0.422131,-0.544823,0.568926,-0.352339,-0.073606,0.880040,0.823575
1.344963,-0.217632,-1.400969,0.877203,-0.015831,0.330549,0.253109,-0.470330,0.426374,-0.285714,-0.065934,0.725275,0.652015,-0.137729,2.630037,1.465201,0.018071,0.120635,0.072772,-0.324118,-1.299004,0.811926,-0.029601,0.527030,0.426260,-0.546070,0.572254,-0.353833,-0.073964,0.882304,0.827366
1.350114,-0.219539,-1.399062,0.876059,-0.015831,0.333600,0.256161,-0.461538,0.426374,-0.276923,-0.065934,0.710623,0.695971,-0.158242,2.662271,1.472528,0.024420,0.114774,0.068864,-0.329592,-1.293245,0.808371,-0.030344,0.535877,0.434575,-0.548480,0.578895,-0.356785,-0.074666,0.886724,0.834884
1.355247,-0.221828,-1.396773,0.874914,-0.016213,0.337415,0.259213,-0.487912,0.435165,-0.303297,-0.036630,0.739927,0.666667,-0.142125,2.662271,1.515018,0.027350,0.108913,0.067399,-0.332338,-1.290341,0.806583,-0.030719,0.540317,0.438760,-0.549643,0.582207,-0.358244,-0.075009,0.888879,0.838612
1.360372,-0.223735,-1.394865,0.873388,-0.016213,0.340467,0.262264,-0.479121,0.435165,-0.268132,-0.036630,0.695971,0.622711,-0.142125,2.649084,1.494506,0.029304,0.104029,0.067888,-0.335090,-1.287420,0.804787,-0.031095,0.544768,0.442965,-0.550778,0.585514,-0.359690,-0.075346,0.890998,0.842318
1.365526,-0.226024,-1.392958,0.872244,-0.016594,0.343519,0.264553,-0.461538,0.443956,-0.303297,-0.036630,0.652015,0.564103,-0.158242,2.632967,1.529670,0.031746,0.103541,0.071795,-0.337847,-1.284482,0.802985,-0.031472,0.549229,0.447187,-0.551885,0.588814,-0.361124,-0.075678,0.893081,0.846002
1.370664,-0.227932,-1.391051,0.871099,-0.016594,0.346571,0.267224,-0.470330,0.435165,-0.276923,-0.051282,0.725275,0.578755,-0.159707,2.631502,1.509158,0.035653,0.105006,0.077167,-0.340610,-1.281528,0.801175,-0.031852,0.553701,0.451428,-0.552963,0.592108,-0.362545,-0.076005,0.895126,0.849664
1.375830,-0.232128,-1.387236,0.868429,-0.016976,0.353056,0.272564,-0.479121,0.435165,-0.294506,-0.036630,0.681319,0.622711,-0.147985,2.652015,1.500366,0.037118,0.112332,0.080586,-0.343378,-1.278558,0.799358,-0.032233,0.558182,0.455688,-0.554013,0.595396,-0.363954,-0.076325,0.897135,0.853303
1.380960,-0.234417,-1.384947,0.866903,-0.016976,0.356489,0.275235,-0.479121,0.452747,-0.285714,-0.051282,0.769231,0.637363,-0.143590,2.632967,1.472528,0.037118,0.118681,0.081074,-0.346151,-1.275571,0.797534,-0.032615,0.562674,0.459965,-0.555034,0.598677,-0.365350,-0.076640,0.899106,0.856919
1.386072,-0.236706,-1.383040,0.865759,-0.017357,0.359922,0.278286,-0.487912,0.452747,-0.312088,-0.036630,0.754579,0.652015,-0.121612,2.631502,1.472528,0.034188,0.119658,0.078144,-0.348929,-1.272568,0.795703,-0.033000,0.567175,0.464260,-0.556026,0.601951,-0.366734,-0.076949,0.901040,0.860513
1.391155,-0.238613,-1.381132,0.864614,-0.017357,0.363355,0.281720,-0.496703,0.452747,-0.294506,-0.051282,0.725275,0.710623,-0.117216,2.637363,1.472528,0.028816,0.111355,0.074725,-0.351712,-1.269548,0.793865,-0.033385,0.571686,0.468574,-0.556989,0.605218,-0.368104,-0.077252,0.902937,0.864082
1.396312,-0.240520,-1.379225,0.863088,-0.017739,0.366407,0.284390,-0.487912,0.452747,-0.303297,-0.065934,0.754579,0.725275,-0.112821,2.624176,1.456410,0.022955,0.107937,0.071306,-0.354500,-1.266513,0.792021,-0.033772,0.576207,0.472905,-0.557923,0.608478,-0.369461,-0.077549,0.904795,0.867628
1.401409,-0.244717,-1.375029,0.860800,-0.018120,0.372511,0.290112,-0.496703,0.470330,-0.312088,-0.080586,0.725275,0.652015,-0.092308,2.602198,1.452015,0.016606,0.115263,0.070330,-0.357292,-1.263460,0.790169,-0.034161,0.580736,0.477253,-0.558827,0.611730,-0.370806,-0.077840,0.906616,0.871150
1.406499,-0.247005,-1.373121,0.859274,-0.018502,0.375563,0.292782,-0.487912,0.487912,-0.294506,-0.095238,0.739927,0.637363,-0.082051,2.590476,1.419780,0.013675,0.122100,0.072772,-0.360089,-1.260392,0.788311,-0.034551,0.585275,0.481620,-0.559702,0.614975,-0.372136,-0.078125,0.908399,0.874647
1.411577,-0.248913,-1.371214,0.858129,-0.018883,0.378996,0.295071,-0.487912,0.487912,-0.329670,-0.109890,0.769231,0.593407,-0.093773,2.583150,1.441758,0.012698,0.129915,0.078632,-0.362890,-1.257307,0.786447,-0.034942,0.589822,0.486003,-0.560547,0.618212,-0.373453,-0.078404,0.910143,0.878120
1.416715,-0.250820,-1.369306,0.856985,-0.019265,0.382429,0.298123,-0.505495,0.461538,-0.303297,-0.095238,0.769231,0.608059,-0.083516,2.589011,1.400733,0.013675,0.132357,0.082540,-0.365695,-1.254207,0.784575,-0.035335,0.594378,0.490404,-0.561362,0.621440,-0.374757,-0.078676,0.911848,0.881567
1.421816,-0.253109,-1.367018,0.855459,-0.019646,0.385863,0.300793,-0.514286,0.487912,-0.338462,-0.095238,0.769231,0.622711,-0.070330,2.569963,1.434432,0.015629,0.128938,0.083028,-0.368505,-1.251090,0.782698,-0.035729,0.598942,0.494822,-0.562147,0.624661,-0.376046,-0.078942,0.913515,0.884989
1.426913,-0.257305,-1.362821,0.852789,-0.020027,0.391966,0.306897,-0.496703,0.487912,-0.320879,-0.051282,0.769231,0.725275,-0.083516,2.539194,1.465201,0.018071,0.124542,0.079121,-0.371318,-1.247957,0.780814,-0.036125,0.603514,0.499257,-0.562902,0.627873,-0.377322,-0.079202,0.915143,0.888384
1.432028,-0.259594,-1.360914,0.851644,-0.020409,0.395399,0.310330,-0.514286,0.514286,-0.338462,-0.051282,0.725275,0.754579,-0.079121,2.515751,1.493040,0.020024,0.122100,0.073748,-0.374134,-1.244808,0.778923,-0.036522,0.608095,0.503710,-0.563626,0.631075,-0.378584,-0.079455,0.916733,0.891754
1.437130,-0.261883,-1.358625,0.850118,-0.020409,0.398833,0.313001,-0.487912,0.505495,-0.320879,-0.051282,0.783883,0.710623,-0.083516,2.484982,1.497436,0.021490,0.126984,0.070818,-0.376954,-1.241643,0.777027,-0.036920,0.612683,0.508178,-0.564320,0.634270,-0.379831,-0.079702,0.918283,0.895098
1.442248,-0.263790,-1.356718,0.848592,-0.020409,0.401884,0.316052,-0.496703,0.496703,-0.312088,-0.036630,0.813187,0.681319,-0.109890,2.455678,1.498901,0.023443,0.132845,0.069841,-0.379778,-1.238462,0.775124,-0.037319,0.617279,0.512664,-0.564983,0.637454,-0.381064,-0.079942,0.919793,0.898414
1.447381,-0.266079,-1.354429,0.847448,-0.020790,0.405699,0.319104,-0.514286,0.487912,-0.329670,-0.051282,0.769231,0.622711,-0.112821,2.446886,1.520879,0.023932,0.133333,0.072772,-0.382605,-1.235265,0.773215,-0.037719,0.621883,0.517166,-0.565615,0.640630,-0.382282,-0.080175,0.921264,0.901704
1.452520,-0.270657,-1.349851,0.844396,-0.021172,0.412566,0.324826,-0.531868,0.487912,-0.294506,-0.065934,0.783883,0.681319,-0.115751,2.451282,1.488645,0.022955,0.127473,0.079609,-0.385435,-1.232053,0.771300,-0.038121,0.626493,0.521684,-0.566216,0.643796,-0.383486,-0.080401,0.922696,0.904966
1.457650,-0.272946,-1.347944,0.843252,-0.021553,0.415999,0.327878,-0.531868,0.487912,-0.356044,-0.065934,0.739927,0.681319,-0.123077,2.460073,1.526740,0.021001,0.126496,0.084982,-0.388268,-1.228824,0.769379,-0.038524,0.631111,0.526219,-0.566786,0.646952,-0.384675,-0.080621,0.924087,0.908200
1.462789,-0.275235,-1.345655,0.841726,-0.021935,0.419432,0.330930,-0.531868,0.505495,-0.320879,-0.065934,0.813187,0.710623,-0.111355,2.438095,1.494506,0.018071,0.124542,0.083516,-0.391103,-1.225580,0.767452,-0.038927,0.635735,0.530769,-0.567325,0.650098,-0.385849,-0.080834,0.925439,0.911407
1.467926,-0.277142,-1.343366,0.840200,-0.021935,0.422866,0.334745,-0.514286,0.505495,-0.320879,-0.080586,0.769231,0.769231,-0.109890,2.419048,1.507692,0.014652,0.124542,0.079609,-0.393941,-1.222320,0.765519,-0.039332,0.640366,0.535336,-0.567833,0.653233,-0.387009,-0.081040,0.926751,0.914585
1.473049,-0.279431,-1.341077,0.839055,-0.022316,0.426680,0.338178,-0.523077,0.514286,-0.356044,-0.051282,0.798535,0.783883,-0.120147,2.401465,1.515018,0.011233,0.129426,0.073748,-0.396782,-1.219044,0.763581,-0.039738,0.645004,0.539918,-0.568309,0.656359,-0.388153,-0.081238,0.928022,0.917734
1.478182,-0.282101,-1.338788,0.837530,-0.022698,0.430114,0.341611,-0.531868,0.514286,-0.320879,-0.065934,0.783883,0.769231,-0.104029,2.392674,1.506227,0.007814,0.131868,0.070330,-0.399625,-1.215753,0.761636,-0.040145,0.649648,0.544516,-0.568753,0.659474,-0.389281,-0.081430,0.929253,0.920855
1.483299,-0.286297,-1.334211,0.834478,-0.023461,0.436980,0.347333,-0.514286,0.540659,-0.329670,-0.109890,0.813187,0.681319,-0.108425,2.376557,1.485714,0.006838,0.132845,0.072772,-0.402470,-1.212447,0.759687,-0.040552,0.654298,0.549130,-0.569166,0.662577,-0.390395,-0.081615,0.930443,0.923946
1.488427,-0.288586,-1.331922,0.832952,-0.023842,0.440795,0.350385,-0.523077,0.523077,-0.338462,-0.080586,0.798535,0.637363,-0.095238,2.401465,1.488645,0.008303,0.131380,0.078632,-0.405317,-1.209124,0.757731,-0.040961,0.658953,0.553759,-0.569546,0.665670,-0.391492,-0.081792,0.931593,0.927007
1.493555,-0.290875,-1.329633,0.831807,-0.024224,0.444228,0.353056,-0.523077,0.540659,-0.338462,-0.080586,0.827839,0.666667,-0.073260,2.401465,1.484249,0.012210,0.132357,0.084982,-0.408166,-1.205787,0.755771,-0.041371,0.663615,0.558403,-0.569895,0.668752,-0.392575,-0.081962,0.932702,0.930039
1.498672,-0.293164,-1.327344,0.830282,-0.024224,0.448043,0.356489,-0.505495,0.540659,-0.338462,-0.051282,0.798535,0.710623,-0.087912,2.367766,1.487180,0.016606,0.129915,0.088889,-0.411016,-1.202434,0.753805,-0.041781,0.668281,0.563062,-0.570211,0.671822,-0.393641,-0.082125,0.933770,0.933040
1.503795,-0.295453,-1.325055,0.828756,-0.024224,0.451095,0.359922,-0.531868,0.531868,-0.356044,-0.021978,0.813187,0.798535,-0.080586,2.354579,1.516484,0.019048,0.132357,0.085958,-0.413868,-1.199066,0.751833,-0.042192,0.672953,0.567736,-0.570496,0.674880,-0.394691,-0.082280,0.934796,0.936011
1.508900,-0.297742,-1.322766,0.827611,-0.024224,0.454910,0.363737,-0.531868,0.540659,-0.320879,-0.036630,0.813187,0.842491,-0.084982,2.338462,1.463736,0.019048,0.131380,0.079121,-0.416721,-1.195682,0.749857,-0.042604,0.677630,0.572425,-0.570747,0.677927,-0.395726,-0.082428,0.935782,0.938950
1.513984,-0.302319,-1.317807,0.824559,-0.024987,0.461776,0.370222,-0.549451,0.540659,-0.347253,-0.065934,0.798535,0.739927,-0.080586,2.357509,1.478388,0.018559,0.135775,0.074237,-0.419576,-1.192283,0.747875,-0.043016,0.682312,0.577129,-0.570966,0.680961,-0.396744,-0.082568,0.936726,0.941859
1.519139,-0.304608,-1.315518,0.823034,-0.025368,0.465972,0.373655,-0.540659,0.558242,-0.329670,-0.065934,0.871795,0.666667,-0.065934,2.326740,1.488645,0.016606,0.135287,0.075702,-0.422431,-1.188869,0.745888,-0.043430,0.686998,0.581847,-0.571153,0.683983,-0.397746,-0.082700,0.937629,0.944736
1.524256,-0.306897,-1.313230,0.821508,-0.025368,0.469024,0.376326,-0.531868,0.549451,-0.347253,-0.065934,0.827839,0.666667,-0.065934,2.325275,1.454945,0.013675,0.134799,0.081563,-0.425287,-1.185441,0.743897,-0.043843,0.691689,0.586579,-0.571307,0.686992,-0.398731,-0.082825,0.938490,0.947582
1.529371,-0.309186,-1.310559,0.819982,-0.025750,0.472839,0.379377,-0.549451,0.558242,-0.347253,-0.095238,0.857143,0.681319,-0.079121,2.293040,1.457875,0.011722,0.131868,0.090354,-0.428144,-1.181997,0.741900,-0.044258,0.696384,0.591325,-0.571428,0.689989,-0.399700,-0.082943,0.939309,0.950395
1.534510,-0.311475,-1.308270,0.818456,-0.026513,0.476654,0.382811,-0.540659,0.549451,-0.356044,-0.095238,0.813187,0.769231,-0.070330,2.291575,1.456410,0.010745,0.129426,0.093284,-0.431002,-1.178538,0.739899,-0.044673,0.701083,0.596085,-0.571515,0.692973,-0.400653,-0.083052,0.940087,0.953176
1.539679,-0.313764,-1.305982,0.817311,-0.026894,0.480087,0.386625,-0.523077,0.549451,-0.338462,-0.124542,0.813187,0.827839,-0.082051,2.268132,1.432967,0.010745,0.129426,0.089377,-0.433859,-1.175064,0.737893,-0.045089,0.705786,0.600860,-0.571570,0.695944,-0.401589,-0.083154,0.940822,0.955924
1.544806,-0.318341,-1.301022,0.814260,-0.027276,0.487335,0.394255,-0.549451,0.558242,-0.364835,-0.065934,0.842491,0.798535,-0.099634,2.247619,1.443223,0.009768,0.133333,0.081074,-0.436717,-1.171575,0.735882,-0.045505,0.710492,0.605647,-0.571592,0.698901,-0.402507,-0.083248,0.941516,0.958639
1.549951,-0.320630,-1.298352,0.812734,-0.027657,0.491150,0.397307,-0.540659,0.567033,-0.329670,-0.065934,0.871795,0.754579,-0.092308,2.232967,1.416850,0.008791,0.133822,0.074725,-0.439575,-1.168072,0.733867,-0.045921,0.715201,0.610449,-0.571580,0.701845,-0.403409,-0.083334,0.942167,0.961321
1.555042,-0.322919,-1.296063,0.811208,-0.028038,0.494965,0.399977,-0.531868,0.558242,-0.356044,-0.080586,0.842491,0.681319,-0.090842,2.205128,1.415385,0.009768,0.128938,0.076679,-0.445290,-1.161021,0.729823,-0.046755,0.724630,0.620091,-0.571456,0.707691,-0.405161,-0.083481,0.943343,0.966584
1.560159,-0.325208,-1.293393,0.809682,-0.028038,0.498779,0.403410,-0.540659,0.558242,-0.364835,-0.051282,0.842491,0.695971,-0.093773,2.203663,1.452015,0.012210,0.122100,0.084005,-0.448147,-1.157474,0.727794,-0.047173,0.729348,0.624932,-0.571344,0.710594,-0.406012,-0.083543,0.943867,0.969164
1.565279,-0.327878,-1.291104,0.808156,-0.028420,0.502213,0.406844,-0.531868,0.575824,-0.338462,-0.065934,0.783883,0.769231,-0.101099,2.177289,1.446154,0.014652,0.116239,0.092308,-0.451004,-1.153912,0.725762,-0.047591,0.734069,0.629785,-0.571198,0.713481,-0.406844,-0.083596,0.944349,0.971709
1.570376,-0.330167,-1.288434,0.806630,-0.028801,0.505646,0.410277,-0.523077,0.567033,-0.356044,-0.080586,0.813187,0.827839,-0.133333,2.189011,1.452015,0.018071,0.121123,0.093284,-0.453859,-1.150336,0.723725,-0.048009,0.738792,0.634651,-0.571018,0.716354,-0.407660,-0.083642,0.944788,0.974220
1.575479,-0.334745,-1.283474,0.803578,-0.029183,0.513275,0.417906,-0.549451,0.575824,-0.364835,-0.080586,0.842491,0.857143,-0.133333,2.149451,1.468132,0.021978,0.123077,0.085958,-0.456714,-1.146746,0.721684,-0.048427,0.743517,0.639530,-0.570804,0.719213,-0.408457,-0.083679,0.945184,0.976695
1.580675,-0.334745,-1.283474,0.803578,-0.029183,0.513275,0.417906,-0.549451,0.575824,-0.364835,-0.080586,0.842491,0.857143,-0.130403,2.133333,1.476923,0.024908,0.128449,0.076679,-0.459567,-1.143141,0.719640,-0.048846,0.748244,0.644420,-0.570556,0.722056,-0.409237,-0.083708,0.945537,0.979136
1.585853,-0.337034,-1.280804,0.801671,-0.029946,0.519760,0.423629,-0.540659,0.575824,-0.373626,-0.080586,0.857143,0.725275,-0.143590,2.161172,1.481319,0.024908,0.126496,0.072283,-0.462419,-1.139523,0.717591,-0.049264,0.752973,0.649323,-0.570274,0.724884,-0.409999,-0.083728,0.945847,0.981540
1.590945,-0.341230,-1.276226,0.799001,-0.030327,0.523957,0.427062,-0.531868,0.549451,-0.373626,-0.095238,0.813187,0.710623,-0.124542,2.162637,1.520879,0.024420,0.122100,0.074725,-0.465269,-1.135890,0.715539,-0.049683,0.757703,0.654238,-0.569958,0.727697,-0.410743,-0.083740,0.946114,0.983909
1.596039,-0.343519,-1.273938,0.797475,-0.031090,0.527390,0.430495,-0.523077,0.584615,-0.356044,-0.139194,0.813187,0.739927,-0.130403,2.161172,1.519414,0.028816,0.119658,0.083028,-0.468118,-1.132243,0.713483,-0.050102,0.762434,0.659165,-0.569608,0.730494,-0.411469,-0.083744,0.946339,0.986241
1.601173,-0.348096,-1.268978,0.794423,-0.031853,0.534638,0.437743,-0.540659,0.575824,-0.382418,-0.065934,0.842491,0.842491,-0.131868,2.172894,1.553114,0.035653,0.125519,0.086935,-0.470965,-1.128582,0.711424,-0.050520,0.767166,0.664103,-0.569224,0.733276,-0.412177,-0.083739,0.946519,0.988537
1.606280,-0.350385,-1.266308,0.792897,-0.031853,0.538453,0.441558,-0.549451,0.602198,-0.364835,-0.036630,0.827839,0.871795,-0.130403,2.178755,1.556044,0.039560,0.133333,0.082540,-0.473810,-1.124907,0.709361,-0.050939,0.771899,0.669052,-0.568805,0.736042,-0.412867,-0.083725,0.946657,0.990795
1.611397,-0.353056,-1.263638,0.791371,-0.031853,0.542268,0.445373,-0.567033,0.602198,-0.364835,-0.007326,0.901099,0.842491,-0.105495,2.165568,1.554579,0.042002,0.138217,0.074725,-0.476652,-1.121219,0.707294,-0.051358,0.776633,0.674013,-0.568351,0.738791,-0.413538,-0.083703,0.946751,0.993017
1.616626,-0.355344,-1.260967,0.789845,-0.032235,0.546082,0.448806,-0.549451,0.602198,-0.373626,-0.065934,0.857143,0.813187,-0.104029,2.162637,1.572161,0.042491,0.138706,0.068376,-0.479493,-1.117517,0.705225,-0.051776,0.781367,0.678985,-0.567863,0.741524,-0.414191,-0.083673,0.946802,0.995201
1.621759,-0.357633,-1.258297,0.788319,-0.032616,0.550278,0.452239,-0.540659,0.593407,-0.356044,-0.080586,0.842491,0.739927,-0.106960,2.143590,1.550183,0.043956,0.132845,0.067888,-0.482331,-1.113801,0.703152,-0.052194,0.786101,0.683967,-0.567340,0.744241,-0.414825,-0.083633,0.946809,0.997348
1.626890,-0.359922,-1.256008,0.786793,-0.032616,0.553330,0.455291,-0.567033,0.593407,-0.382418,-0.080586,0.827839,0.769231,-0.109890,2.191941,1.567766,0.045910,0.128449,0.075702,-0.485166,-1.110072,0.701076,-0.052612,0.790835,0.688960,-0.566783,0.746940,-0.415440,-0.083585,0.946773,0.999456
1.632023,-0.364881,-1.250286,0.783360,-0.033761,0.561341,0.463302,-0.549451,0.602198,-0.373626,-0.109890,0.901099,0.871795,-0.108425,2.221245,1.550183,0.050305,0.128938,0.081563,-0.487998,-1.106329,0.698997,-0.053030,0.795568,0.693964,-0.566191,0.749623,-0.416037,-0.083528,0.946693,1.001526
1.637120,-0.367552,-1.247616,0.781453,-0.034524,0.565919,0.467880,-0.558242,0.628571,-0.364835,-0.153846,0.871795,0.901099,-0.092308,2.187546,1.557509,0.058608,0.134310,0.080586,-0.490827,-1.102573,0.696915,-0.053448,0.800302,0.698977,-0.565564,0.752289,-0.416615,-0.083463,0.946569,1.003558
1.642218,-0.369841,-1.244945,0.779927,-0.034524,0.568971,0.470932,-0.567033,0.619780,-0.391209,-0.095238,0.901099,0.886447,-0.090842,2.186081,1.560440,0.063980,0.134799,0.075214,-0.493653,-1.098803,0.694830,-0.053865,0.805034,0.704001,-0.564902,0.754938,-0.417174,-0.083388,0.946402,1.005551
1.647325,-0.372129,-1.242275,0.778401,-0.034524,0.572786,0.474746,-0.549451,0.637363,-0.373626,-0.051282,0.842491,0.827839,-0.073260,2.167033,1.563370,0.063980,0.132845,0.068864,-0.496475,-1.095021,0.692743,-0.054281,0.809765,0.709035,-0.564205,0.757568,-0.417714,-0.083305,0.946191,1.007504
1.652447,-0.374418,-1.239605,0.776875,-0.034905,0.576600,0.478180,-0.549451,0.619780,-0.382418,-0.080586,0.857143,0.783883,-0.084982,2.162637,1.551648,0.062027,0.133333,0.067888,-0.499294,-1.091225,0.690653,-0.054698,0.814496,0.714078,-0.563473,0.760182,-0.418235,-0.083212,0.945936,1.009418
1.657559,-0.379377,-1.233883,0.773442,-0.035668,0.583848,0.485046,-0.549451,0.637363,-0.373626,-0.080586,0.857143,0.813187,-0.082051,2.127473,1.545788,0.063492,0.135287,0.074237,-0.502109,-1.087416,0.688560,-0.055113,0.819224,0.719131,-0.562706,0.762777,-0.418737,-0.083111,0.945637,1.011293
1.662668,-0.381666,-1.231212,0.771916,-0.036049,0.588045,0.488861,-0.549451,0.619780,-0.356044,-0.065934,0.915751,0.857143,-0.108425,2.136264,1.525275,0.066911,0.136264,0.079609,-0.504920,-1.083595,0.686465,-0.055529,0.823951,0.724193,-0.561904,0.765354,-0.419219,-0.083001,0.945294,1.013127
1.667828,-0.383955,-1.228542,0.770390,-0.036049,0.591478,0.492676,-0.584615,0.654945,-0.400000,-0.080586,0.827839,0.886447,-0.096703,2.133333,1.541392,0.073748,0.139683,0.080586,-0.507727,-1.079760,0.684367,-0.055943,0.828677,0.729264,-0.561067,0.767913,-0.419682,-0.082882,0.944907,1.014922
1.672927,-0.386625,-1.225490,0.768864,-0.036431,0.595674,0.496872,-0.549451,0.637363,-0.400000,-0.080586,0.886447,0.945055,-0.068864,2.130403,1.551648,0.078144,0.143101,0.076190,-0.510530,-1.075913,0.682268,-0.056357,0.833400,0.734344,-0.560194,0.770454,-0.420126,-0.082753,0.944475,1.016676
1.678028,-0.388914,-1.222820,0.766957,-0.036812,0.599489,0.500687,-0.558242,0.654945,-0.364835,-0.080586,0.871795,0.886447,-0.077656,2.087912,1.507692,0.080098,0.147985,0.069353,-0.513328,-1.072053,0.680166,-0.056771,0.838121,0.739432,-0.559286,0.772975,-0.420550,-0.082616,0.944000,1.018389
1.683167,-0.391203,-1.220150,0.765431,-0.037194,0.603685,0.504501,-0.558242,0.637363,-0.391209,-0.080586,0.915751,0.842491,-0.076190,2.074725,1.525275,0.080098,0.146032,0.067888,-0.516122,-1.068181,0.678062,-0.057183,0.842840,0.744529,-0.558343,0.775478,-0.420954,-0.082469,0.943481,1.020061
1.688282,-0.396162,-1.214427,0.761997,-0.037957,0.611315,0.511368,-0.567033,0.663736,-0.391209,-0.095238,0.871795,0.798535,-0.083516,2.067399,1.523810,0.078632,0.146032,0.073748,-0.518911,-1.064296,0.675956,-0.057595,0.847555,0.749634,-0.557365,0.777962,-0.421339,-0.082313,0.942917,1.021692
1.693442,-0.398451,-1.211376,0.760472,-0.038338,0.615129,0.515183,-0.567033,0.663736,-0.400000,-0.095238,0.842491,0.886447,-0.092308,2.027839,1.504762,0.080586,0.150427,0.080098,-0.521694,-1.060399,0.673848,-0.058006,0.852268,0.754748,-0.556351,0.780427,-0.421704,-0.082149,0.942310,1.023281
1.698591,-0.401122,-1.208324,0.758564,-0.039101,0.619707,0.520142,-0.558242,0.654945,-0.400000,-0.109890,0.886447,0.930403,-0.079121,2.016117,1.501832,0.086935,0.155800,0.081074,-0.524473,-1.056489,0.671738,-0.058416,0.856978,0.759869,-0.555301,0.782872,-0.422049,-0.081974,0.941658,1.024828
1.703695,-0.404173,-1.204509,0.756275,-0.039101,0.624666,0.525483,-0.558242,0.646154,-0.400000,-0.065934,0.915751,0.945055,-0.055678,1.983883,1.493040,0.088889,0.151893,0.077167,-0.527246,-1.052568,0.669627,-0.058826,0.861684,0.764997,-0.554216,0.785298,-0.422374,-0.081791,0.940961,1.026333
1.708794,-0.406844,-1.201457,0.754749,-0.039483,0.628862,0.529297,-0.540659,0.646154,-0.373626,-0.095238,0.901099,0.871795,-0.064469,1.994139,1.482784,0.089866,0.144078,0.071306,-0.530014,-1.048634,0.667514,-0.059234,0.866386,0.770134,-0.553096,0.787704,-0.422680,-0.081598,0.940221,1.027796
1.713943,-0.409514,-1.198405,0.752842,-0.039864,0.633059,0.532731,-0.540659,0.663736,-0.373626,-0.065934,0.915751,0.798535,-0.058608,1.941392,1.498901,0.090354,0.140171,0.069841,-0.532776,-1.044688,0.665400,-0.059641,0.871085,0.775277,-0.551940,0.790090,-0.422965,-0.081396,0.939436,1.029217
1.719066,-0.411803,-1.195735,0.751316,-0.040246,0.636873,0.536545,-0.540659,0.637363,-0.408791,-0.095238,0.813187,0.813187,-0.083516,1.920879,1.500366,0.089866,0.137241,0.075214,-0.535532,-1.040731,0.663284,-0.060048,0.875780,0.780427,-0.550748,0.792456,-0.423230,-0.081185,0.938606,1.030594
1.724198,-0.414473,-1.192683,0.749409,-0.040627,0.640307,0.540742,-0.549451,0.654945,-0.391209,-0.065934,0.827839,0.901099,-0.087912,1.903297,1.509158,0.093773,0.141636,0.081074,-0.538282,-1.036762,0.661168,-0.060453,0.880470,0.785584,-0.549521,0.794802,-0.423474,-0.080964,0.937733,1.031929
1.729331,-0.416762,-1.189631,0.747501,-0.040627,0.644884,0.545319,-0.549451,0.654945,-0.382418,-0.080586,0.915751,0.945055,-0.079121,1.895971,1.522344,0.098657,0.144567,0.083516,-0.541026,-1.032781,0.659050,-0.060857,0.885156,0.790748,-0.548258,0.797127,-0.423699,-0.080734,0.936815,1.033220
1.734467,-0.419432,-1.186580,0.745975,-0.041009,0.649462,0.549897,-0.558242,0.663736,-0.391209,-0.051282,0.930403,0.959707,-0.077656,1.879853,1.512088,0.101099,0.141636,0.079609,-0.543763,-1.028788,0.656930,-0.061260,0.889837,0.795917,-0.546960,0.799431,-0.423903,-0.080495,0.935852,1.034467
1.739581,-0.424392,-1.180476,0.742542,-0.041772,0.657473,0.557527,-0.540659,0.654945,-0.373626,-0.095238,0.857143,0.813187,-0.101099,1.871062,1.494506,0.103541,0.134799,0.076190,-0.546494,-1.024784,0.654810,-0.061662,0.894514,0.801093,-0.545626,0.801715,-0.424086,-0.080246,0.934846,1.035671
1.744705,-0.426680,-1.177806,0.740635,-0.042153,0.660525,0.560960,-0.558242,0.672527,-0.391209,-0.095238,0.769231,0.798535,-0.105495,1.865201,1.500366,0.106960,0.135287,0.077167,-0.549218,-1.020769,0.652689,-0.062062,0.899185,0.806275,-0.544256,0.803977,-0.424249,-0.079987,0.933794,1.036830
